;FLAVOR:UltiGCode
;TIME:3674
;MATERIAL:20352
;MATERIAL2:0
;NOZZLE_DIAMETER:0.6
;MINX:64.166
;MINY:64.147
;MINZ:0.4
;MAXX:158.839
;MAXY:158.841
;MAXZ:21.55
;TARGET_MACHINE.NAME:Ultimaker 2+
;Generated with Cura_SteamEngine 5.10.0
G0 F3000 Y50 ;avoid prime blob
M104 S230 ; Régler la température de l'extrudeur à 230°C
M140 S58 ; Régle la température du plateau à 58°C
M42 P8 S255 ; Allume les LED à pleine 100%
M82 ;absolute extrusion mode
G92 E0
G92 E0
G10
;LAYER_COUNT:142
;LAYER:0
M107
G0 F7200 X77.531 Y78.517 Z0.4
;TYPE:SKIRT
G11
G1 F2400 X78.485 Y77.575 E0.32177
G1 X80.071 Y76.082 E0.84453
G1 X82.215 Y74.292 E1.51485
G1 X84.248 Y72.786 E2.12206
G1 X85.103 Y72.204 E2.37029
G1 X86.492 Y71.299 E2.76816
G1 X87.459 Y70.719 E3.03879
G1 X89.447 Y69.597 E3.58665
G1 X91.845 Y68.421 E4.22765
G1 X94.119 Y67.462 E4.81996
G1 X95.195 Y67.06 E5.09564
G1 X96.9 Y66.463 E5.5292
G1 X97.904 Y66.158 E5.78103
G1 X100.008 Y65.565 E6.30566
G1 X102.354 Y65.049 E6.88216
G1 X103.346 Y64.866 E7.12426
G1 X105.096 Y64.59 E7.54945
G1 X106.202 Y64.459 E7.81674
G1 X108.387 Y64.249 E8.34356
G1 X111.064 Y64.147 E8.98651
G1 X113.657 Y64.203 E9.60897
G1 X114.626 Y64.264 E9.84199
G1 X116.198 Y64.382 E10.22033
G1 X117.444 Y64.535 E10.52162
G1 X119.136 Y64.775 E10.93176
G1 X120.268 Y64.979 E11.20782
G1 X122.323 Y65.398 E11.71117
G1 X125.12 Y66.148 E12.40616
G1 X127.481 Y66.931 E13.00315
G1 X128.409 Y67.28 E13.2411
G1 X130.033 Y67.931 E13.66101
G1 X130.95 Y68.34 E13.90199
G1 X132.455 Y69.038 E14.30014
G1 X133.478 Y69.567 E14.57655
G1 X135.104 Y70.456 E15.02131
G1 X136.029 Y71.009 E15.27995
G1 X137.491 Y71.927 E15.69427
G1 X138.381 Y72.531 E15.95241
G1 X139.864 Y73.589 E16.38962
G1 X140.71 Y74.245 E16.64655
G1 X142.074 Y75.348 E17.06755
G1 X142.892 Y76.064 E17.32846
G1 X144.145 Y77.206 E17.73534
G1 X144.943 Y77.993 E18.00433
G1 X146.125 Y79.208 E18.41115
G1 X146.889 Y80.052 E18.68438
G1 X148.277 Y81.671 E19.19618
G1 X149.81 Y83.679 E19.80249
G1 X150.38 Y84.492 E20.04079
G1 X151.308 Y85.875 E20.44051
G1 X152.558 Y87.92 E21.01574
G1 X153.235 Y89.166 E21.35607
G1 X154.073 Y90.793 E21.7953
G1 X154.493 Y91.689 E22.03279
G1 X155.211 Y93.321 E22.4607
G1 X155.601 Y94.293 E22.71206
G1 X156.24 Y96.017 E23.15333
G1 X156.574 Y97.041 E23.41183
G1 X157.175 Y99.023 E23.9089
G1 X157.871 Y101.92 E24.62396
G1 X158.267 Y104.142 E25.16564
G1 X158.441 Y105.402 E25.47091
G1 X158.69 Y107.616 E26.00562
G1 X158.839 Y110.432 E26.68241
G1 X158.819 Y112.92 E27.27955
G1 X158.776 Y113.923 E27.52049
G1 X158.656 Y115.706 E27.94938
G1 X158.539 Y116.809 E28.21558
G1 X158.26 Y118.964 E28.7371
G1 X157.746 Y121.676 E29.39957
G1 X157.121 Y124.154 E30.01291
G1 X156.834 Y125.125 E30.25592
G1 X156.321 Y126.744 E30.66352
G1 X155.925 Y127.844 E30.9441
G1 X155.386 Y129.267 E31.3093
G1 X154.865 Y130.483 E31.6268
G1 X153.954 Y132.474 E32.15229
G1 X152.783 Y134.677 E32.75106
G1 X152.284 Y135.533 E32.98886
G1 X151.378 Y137.013 E33.40533
G1 X150.748 Y137.964 E33.6791
G1 X149.713 Y139.448 E34.11333
G1 X149.073 Y140.293 E34.36773
G1 X148.095 Y141.541 E34.74827
G1 X147.37 Y142.395 E35.01713
G1 X146.012 Y143.926 E35.50828
G1 X144.208 Y145.731 E36.12075
G1 X143.471 Y146.414 E36.36191
G1 X142.112 Y147.618 E36.79766
G1 X141.345 Y148.246 E37.03557
G1 X139.541 Y149.658 E37.58538
G1 X137.289 Y151.216 E38.2426
G1 X135.286 Y152.438 E38.80572
G1 X134.242 Y153.021 E39.0927
G1 X132.424 Y153.981 E39.58612
G1 X129.731 Y155.203 E40.29586
G1 X127.084 Y156.216 E40.97608
G1 X124.387 Y157.066 E41.65474
G1 X121.991 Y157.667 E42.2476
G1 X121.037 Y157.869 E42.48163
G1 X119.488 Y158.169 E42.8603
G1 X118.347 Y158.342 E43.13727
G1 X116.438 Y158.588 E43.59922
G1 X115.442 Y158.674 E43.83915
G1 X113.876 Y158.79 E44.21602
G1 X112.64 Y158.824 E44.51277
G1 X110.807 Y158.841 E44.95271
G1 X109.759 Y158.806 E45.20437
G1 X107.957 Y158.711 E45.63745
G1 X106.956 Y158.619 E45.8787
G1 X105.245 Y158.428 E46.29189
G1 X104.174 Y158.268 E46.55179
G1 X102.49 Y157.977 E46.96194
G1 X101.296 Y157.727 E47.25471
G1 X99.56 Y157.311 E47.68315
G1 X98.636 Y157.056 E47.9132
G1 X97.123 Y156.614 E48.29149
G1 X95.988 Y156.224 E48.57953
G1 X94.19 Y155.564 E49.0392
G1 X93.264 Y155.184 E49.27942
G1 X91.253 Y154.304 E49.80625
G1 X88.872 Y153.094 E50.44725
G1 X86.712 Y151.832 E51.04764
G1 X85.773 Y151.236 E51.31457
G1 X84.033 Y150.071 E51.81712
G1 X81.985 Y148.515 E52.43442
G1 X81.205 Y147.87 E52.67733
G1 X79.633 Y146.519 E53.1748
G1 X77.861 Y144.807 E53.76614
G1 X77.076 Y143.987 E54.03858
G1 X75.8 Y142.588 E54.49302
G1 X74.254 Y140.729 E55.07331
G1 X73.498 Y139.722 E55.37551
G1 X72.485 Y138.31 E55.79258
G1 X71.841 Y137.336 E56.07282
G1 X70.877 Y135.801 E56.50784
G1 X69.772 Y133.858 E57.0443
G1 X69.124 Y132.578 E57.38862
G1 X68.376 Y131.016 E57.80427
G1 X67.908 Y129.929 E58.0883
G1 X67.238 Y128.275 E58.51659
G1 X66.895 Y127.33 E58.75787
G1 X66.22 Y125.323 E59.26606
G1 X65.567 Y122.937 E59.85976
G1 X65.31 Y121.824 E60.13391
G1 X64.886 Y119.778 E60.63538
G1 X64.512 Y117.219 E61.25607
G1 X64.409 Y116.242 E61.49185
G1 X64.255 Y114.358 E61.94552
G1 X64.206 Y113.33 E62.19252
G1 X64.166 Y111.504 E62.63086
G1 X64.18 Y110.491 E62.874
G1 X64.244 Y108.746 E63.29309
G1 X64.328 Y107.638 E63.55977
G1 X64.507 Y105.818 E63.99868
G1 X64.647 Y104.792 E64.2472
G1 X64.931 Y103.01 E64.68028
G1 X65.122 Y102.05 E64.91519
G1 X65.515 Y100.274 E65.35174
G1 X65.783 Y99.25 E65.60578
G1 X66.287 Y97.485 E66.04631
G1 X66.619 Y96.478 E66.30079
G1 X67.169 Y94.906 E66.70049
G1 X67.598 Y93.813 E66.9823
G1 X68.4 Y91.909 E67.47814
G1 X69.551 Y89.571 E68.10357
G1 X70.017 Y88.712 E68.33811
G1 X70.882 Y87.194 E68.75743
G1 X71.473 Y86.242 E69.02636
G1 X72.321 Y84.926 E69.40209
G1 X73.082 Y83.859 E69.71663
G1 X74.093 Y82.496 E70.12391
G1 X74.789 Y81.626 E70.39131
G1 X75.924 Y80.264 E70.81681
G1 X77.531 Y78.517 E71.3865
G0 F7200 X77.953 Y78.944
G1 F2400 X78.896 Y78.012 E71.7047
G1 X80.456 Y76.543 E72.21897
G1 X82.6 Y74.753 E72.88929
G1 X84.586 Y73.282 E73.48244
G1 X85.43 Y72.707 E73.72754
G1 X86.801 Y71.814 E74.12022
G1 X87.768 Y71.234 E74.39085
G1 X89.711 Y70.136 E74.92648
G1 X92.109 Y68.96 E75.56748
G1 X94.329 Y68.024 E76.1457
G1 X95.393 Y67.626 E76.41834
G1 X97.075 Y67.037 E76.84605
G1 X98.067 Y66.735 E77.09492
G1 X100.137 Y66.151 E77.61112
G1 X102.463 Y65.639 E78.18272
G1 X103.44 Y65.459 E78.42115
G1 X105.167 Y65.186 E78.84077
G1 X106.26 Y65.056 E79.10494
G1 X108.41 Y64.849 E79.62333
G1 X111.087 Y64.747 E80.26627
G1 X113.62 Y64.802 E80.87434
G1 X114.581 Y64.862 E81.10543
G1 X116.125 Y64.978 E81.47703
G1 X117.36 Y65.129 E81.77564
G1 X119.029 Y65.365 E82.18018
G1 X120.148 Y65.567 E82.45308
G1 X122.203 Y65.986 E82.95643
G1 X124.964 Y66.727 E83.64252
G1 X127.27 Y67.492 E84.22562
G1 X128.186 Y67.837 E84.46053
G1 X129.789 Y68.479 E84.87496
G1 X130.698 Y68.884 E85.1138
G1 X132.18 Y69.571 E85.50583
G1 X133.19 Y70.093 E85.77869
G1 X134.796 Y70.971 E86.21797
G1 X135.71 Y71.517 E86.47349
G1 X137.154 Y72.423 E86.88262
G1 X138.033 Y73.02 E87.13764
G1 X139.496 Y74.063 E87.56885
G1 X140.333 Y74.712 E87.82304
G1 X141.697 Y75.815 E88.24404
G1 X142.488 Y76.508 E88.49643
G1 X143.724 Y77.634 E88.89771
G1 X144.513 Y78.411 E89.16348
G1 X145.68 Y79.611 E89.56521
G1 X146.433 Y80.443 E89.83453
G1 X147.821 Y82.062 E90.34634
G1 X149.319 Y84.024 E90.93878
G1 X149.882 Y84.826 E91.17395
G1 X150.796 Y86.188 E91.56761
G1 X152.046 Y88.233 E92.14284
G1 X152.702 Y89.441 E92.47275
G1 X153.53 Y91.048 E92.90661
G1 X153.944 Y91.931 E93.14067
G1 X154.654 Y93.544 E93.56363
G1 X155.038 Y94.502 E93.81133
G1 X155.677 Y96.226 E94.2526
G1 X156 Y97.215 E94.5023
G1 X156.601 Y99.197 E94.99937
G1 X157.28 Y102.025 E95.69738
G1 X157.676 Y104.247 E96.23906
G1 X157.845 Y105.469 E96.53513
G1 X158.091 Y107.648 E97.06141
G1 X158.239 Y110.427 E97.72932
G1 X158.22 Y112.894 E98.32142
G1 X158.177 Y113.883 E98.559
G1 X158.059 Y115.643 E98.98235
G1 X157.944 Y116.732 E99.24516
G1 X157.67 Y118.852 E99.75819
G1 X157.156 Y121.564 E100.42066
G1 X156.539 Y124.007 E101.02539
G1 X156.262 Y124.944 E101.25989
G1 X155.757 Y126.541 E101.66188
G1 X155.364 Y127.632 E101.94019
G1 X154.835 Y129.03 E102.29893
G1 X154.319 Y130.233 E102.61308
G1 X153.408 Y132.224 E103.13857
G1 X152.264 Y134.375 E103.72328
G1 X151.772 Y135.22 E103.95795
G1 X150.878 Y136.682 E104.36923
G1 X150.256 Y137.621 E104.63955
G1 X149.235 Y139.086 E105.06811
G1 X148.601 Y139.923 E105.32012
G1 X147.637 Y141.153 E105.69518
G1 X146.921 Y141.997 E105.96081
G1 X145.587 Y143.502 E106.44348
G1 X143.8 Y145.291 E107.05034
G1 X143.073 Y145.965 E107.28827
G1 X141.732 Y147.154 E107.7184
G1 X140.975 Y147.774 E107.95324
G1 X139.199 Y149.165 E108.49465
G1 X136.976 Y150.704 E109.14355
G1 X134.994 Y151.914 E109.70087
G1 X133.962 Y152.49 E109.98452
G1 X132.144 Y153.45 E110.47793
G1 X129.516 Y154.643 E111.1706
G1 X126.903 Y155.644 E111.84216
G1 X124.241 Y156.484 E112.5121
G1 X121.867 Y157.08 E113.09954
G1 X120.923 Y157.28 E113.33113
G1 X119.398 Y157.576 E113.70396
G1 X118.27 Y157.747 E113.97777
G1 X116.386 Y157.99 E114.43367
G1 X115.398 Y158.076 E114.67169
G1 X113.859 Y158.19 E115.04206
G1 X112.628 Y158.225 E115.33762
G1 X110.827 Y158.241 E115.76988
G1 X109.79 Y158.207 E116.01889
G1 X108.012 Y158.114 E116.4462
G1 X107.022 Y158.023 E116.6848
G1 X105.334 Y157.835 E117.09242
G1 X104.276 Y157.677 E117.34916
G1 X102.613 Y157.39 E117.75418
G1 X101.436 Y157.144 E118.04276
G1 X99.72 Y156.733 E118.46625
G1 X98.804 Y156.48 E118.69432
G1 X97.318 Y156.046 E119.06586
G1 X96.195 Y155.661 E119.35078
G1 X94.418 Y155.009 E119.80506
G1 X93.505 Y154.634 E120.04194
G1 X91.494 Y153.754 E120.56877
G1 X89.144 Y152.559 E121.2015
G1 X87.034 Y151.326 E121.78803
G1 X86.107 Y150.737 E122.05162
G1 X84.367 Y149.572 E122.55418
G1 X82.367 Y148.052 E123.15707
G1 X81.596 Y147.415 E123.39709
G1 X80.024 Y146.064 E123.89456
G1 X78.294 Y144.392 E124.47198
G1 X77.519 Y143.583 E124.74086
G1 X76.261 Y142.204 E125.18884
G1 X74.734 Y140.369 E125.76178
G1 X73.986 Y139.372 E126.06092
G1 X72.973 Y137.96 E126.47799
G1 X72.349 Y137.017 E126.74937
G1 X71.399 Y135.504 E127.17814
G1 X70.294 Y133.561 E127.71459
G1 X69.665 Y132.319 E128.04872
G1 X68.927 Y130.778 E128.45878
G1 X68.464 Y129.704 E128.73948
G1 X67.802 Y128.07 E129.1626
G1 X67.464 Y127.139 E129.40031
G1 X66.789 Y125.132 E129.9085
G1 X66.152 Y122.802 E130.48822
G1 X65.898 Y121.702 E130.75917
G1 X65.474 Y119.656 E131.26064
G1 X65.109 Y117.156 E131.867
G1 X65.007 Y116.193 E132.09942
G1 X64.854 Y114.33 E132.54804
G1 X64.806 Y113.317 E132.79143
G1 X64.766 Y111.512 E133.22474
G1 X64.78 Y110.513 E133.46452
G1 X64.844 Y108.768 E133.88361
G1 X64.925 Y107.697 E134.14138
G1 X65.102 Y105.899 E134.57498
G1 X65.24 Y104.886 E134.82035
G1 X65.52 Y103.127 E135.24783
G1 X65.708 Y102.18 E135.47954
G1 X66.101 Y100.404 E135.91609
G1 X66.36 Y99.415 E136.16146
G1 X66.857 Y97.673 E136.59622
G1 X67.185 Y96.676 E136.84812
G1 X67.727 Y95.125 E137.24243
G1 X68.151 Y94.046 E137.52067
G1 X68.953 Y92.142 E138.01651
G1 X70.078 Y89.857 E138.62777
G1 X70.538 Y89.009 E138.85931
G1 X71.392 Y87.51 E139.27336
G1 X71.977 Y86.567 E139.53969
G1 X72.81 Y85.274 E139.90883
G1 X73.564 Y84.216 E140.22064
G1 X74.561 Y82.871 E140.62245
G1 X75.25 Y82.01 E140.88711
G1 X76.366 Y80.67 E141.30563
G1 X77.953 Y78.944 E141.86836
G0 F7200 X78.375 Y79.371
G1 F2400 X79.308 Y78.449 E142.18317
G1 X80.841 Y77.004 E142.68878
G1 X82.985 Y75.214 E143.3591
G1 X84.924 Y73.778 E143.93818
G1 X85.758 Y73.21 E144.18035
G1 X87.11 Y72.329 E144.56764
G1 X88.077 Y71.749 E144.83827
G1 X89.975 Y70.675 E145.36166
G1 X92.373 Y69.499 E146.00266
G1 X94.54 Y68.586 E146.56701
G1 X95.591 Y68.192 E146.8364
G1 X97.25 Y67.611 E147.25827
G1 X98.23 Y67.312 E147.50417
G1 X100.266 Y66.737 E148.01192
G1 X102.571 Y66.229 E148.5784
G1 X103.534 Y66.052 E148.81339
G1 X105.238 Y65.782 E149.22745
G1 X106.318 Y65.653 E149.4885
G1 X108.433 Y65.449 E149.99845
G1 X111.11 Y65.347 E150.6414
G1 X113.583 Y65.401 E151.23506
G1 X114.536 Y65.46 E151.46422
G1 X116.052 Y65.574 E151.82908
G1 X117.276 Y65.723 E152.12501
G1 X118.923 Y65.956 E152.52423
G1 X120.028 Y66.155 E152.79369
G1 X122.083 Y66.574 E153.29704
G1 X124.775 Y67.297 E153.96602
G1 X127.059 Y68.054 E154.5435
G1 X127.963 Y68.394 E154.7753
G1 X129.545 Y69.027 E155.18424
G1 X130.446 Y69.428 E155.42093
G1 X131.904 Y70.104 E155.80664
G1 X132.902 Y70.62 E156.07628
G1 X134.488 Y71.486 E156.50996
G1 X135.391 Y72.025 E156.76236
G1 X136.817 Y72.919 E157.16629
G1 X137.685 Y73.508 E157.41804
G1 X139.129 Y74.538 E157.84373
G1 X139.956 Y75.178 E158.09471
G1 X141.302 Y76.267 E158.51024
G1 X142.084 Y76.951 E158.75958
G1 X143.303 Y78.062 E159.15542
G1 X144.083 Y78.829 E159.41796
G1 X145.235 Y80.013 E159.81443
G1 X145.977 Y80.834 E160.08002
G1 X147.365 Y82.453 E160.59183
G1 X148.828 Y84.369 E161.17039
G1 X149.384 Y85.16 E161.40244
G1 X150.284 Y86.501 E161.79004
G1 X151.534 Y88.546 E162.36527
G1 X152.169 Y89.716 E162.68476
G1 X152.987 Y91.303 E163.11326
G1 X153.395 Y92.173 E163.34388
G1 X154.097 Y93.767 E163.7619
G1 X154.475 Y94.711 E164.00594
G1 X155.114 Y96.435 E164.44721
G1 X155.426 Y97.389 E164.6881
G1 X156.027 Y99.371 E165.18517
G1 X156.689 Y102.13 E165.86613
G1 X157.085 Y104.352 E166.40781
G1 X157.249 Y105.537 E166.69492
G1 X157.492 Y107.68 E167.21254
G1 X157.639 Y110.423 E167.8718
G1 X157.621 Y112.868 E168.45862
G1 X157.578 Y113.843 E168.69284
G1 X157.462 Y115.58 E169.11065
G1 X157.349 Y116.655 E169.37007
G1 X157.08 Y118.74 E169.87462
G1 X156.566 Y121.452 E170.53709
G1 X155.963 Y123.837 E171.1275
G1 X155.69 Y124.763 E171.3592
G1 X155.192 Y126.338 E171.75564
G1 X154.803 Y127.42 E172.0316
G1 X154.284 Y128.793 E172.38387
G1 X153.773 Y129.984 E172.69491
G1 X152.878 Y131.942 E173.2116
G1 X151.745 Y134.073 E173.79083
G1 X151.26 Y134.907 E174.02237
G1 X150.378 Y136.351 E174.42847
G1 X149.764 Y137.278 E174.69532
G1 X148.756 Y138.724 E175.11836
G1 X148.129 Y139.553 E175.36782
G1 X147.18 Y140.765 E175.73726
G1 X146.472 Y141.599 E175.99982
G1 X145.138 Y143.104 E176.48249
G1 X143.392 Y144.851 E177.07527
G1 X142.675 Y145.516 E177.30997
G1 X141.352 Y146.69 E177.73448
G1 X140.605 Y147.302 E177.96624
G1 X138.857 Y148.672 E178.49926
G1 X136.663 Y150.192 E179.13984
G1 X134.701 Y151.39 E179.69156
G1 X133.682 Y151.959 E179.97166
G1 X131.864 Y152.919 E180.46508
G1 X129.301 Y154.083 E181.14066
G1 X126.722 Y155.072 E181.80358
G1 X124.095 Y155.902 E182.46478
G1 X121.743 Y156.493 E183.0468
G1 X120.808 Y156.691 E183.27618
G1 X119.308 Y156.983 E183.64294
G1 X118.193 Y157.152 E183.91359
G1 X116.333 Y157.392 E184.3637
G1 X115.354 Y157.478 E184.59956
G1 X113.841 Y157.59 E184.96367
G1 X112.616 Y157.626 E185.2578
G1 X110.846 Y157.641 E185.68262
G1 X109.821 Y157.608 E185.92874
G1 X108.067 Y157.517 E186.35027
G1 X107.088 Y157.427 E186.58622
G1 X105.423 Y157.242 E186.98828
G1 X104.378 Y157.086 E187.24186
G1 X102.736 Y156.803 E187.64175
G1 X101.575 Y156.56 E187.92643
G1 X99.88 Y156.155 E188.34468
G1 X98.972 Y155.904 E188.57077
G1 X97.513 Y155.478 E188.93555
G1 X96.39 Y155.093 E189.22047
G1 X94.646 Y154.454 E189.66624
G1 X93.745 Y154.084 E189.9
G1 X91.766 Y153.219 E190.41835
G1 X89.416 Y152.024 E191.05108
G1 X87.356 Y150.819 E191.62386
G1 X86.441 Y150.238 E191.88399
G1 X84.701 Y149.073 E192.38655
G1 X82.749 Y147.589 E192.97504
G1 X81.987 Y146.96 E193.21218
G1 X80.415 Y145.609 E193.70964
G1 X78.727 Y143.977 E194.27314
G1 X77.962 Y143.179 E194.53845
G1 X76.722 Y141.82 E194.97998
G1 X75.214 Y140.009 E195.54558
G1 X74.474 Y139.022 E195.84164
G1 X73.461 Y137.61 E196.25871
G1 X72.857 Y136.698 E196.52124
G1 X71.921 Y135.207 E196.94375
G1 X70.816 Y133.264 E197.4802
G1 X70.206 Y132.06 E197.80413
G1 X69.478 Y130.54 E198.20862
G1 X69.02 Y129.479 E198.48597
G1 X68.366 Y127.865 E198.90392
G1 X68.033 Y126.948 E199.13806
G1 X67.358 Y124.941 E199.64625
G1 X66.737 Y122.667 E200.212
G1 X66.486 Y121.58 E200.47974
G1 X66.062 Y119.534 E200.98122
G1 X65.706 Y117.093 E201.57325
G1 X65.605 Y116.144 E201.8023
G1 X65.453 Y114.302 E202.24588
G1 X65.406 Y113.304 E202.48567
G1 X65.366 Y111.521 E202.9137
G1 X65.38 Y110.535 E203.15036
G1 X65.444 Y108.79 E203.56944
G1 X65.522 Y107.756 E203.81831
G1 X65.697 Y105.98 E204.24661
G1 X65.833 Y104.98 E204.48882
G1 X66.109 Y103.244 E204.91069
G1 X66.294 Y102.31 E205.13921
