;FLAVOR:UltiGCode
;TIME:6279
;MATERIAL:26539
;MATERIAL2:0
;NOZZLE_DIAMETER:0.6
;MINX:54.564
;MINY:84.593
;MINZ:0.4
;MAXX:168.439
;MAXY:138.469
;MAXZ:73
;TARGET_MACHINE.NAME:Ultimaker 2+
;Generated with Cura_SteamEngine 5.10.0
G0 F3000 Y50 ;avoid prime blob
M104 S230 ; Régler la température de l'extrudeur à 230°C
M140 S58 ; Régle la température du plateau à 58°C
M221 S100 ; Augmente le material flow de +25%
M82 ;absolute extrusion mode
G92 E0
G92 E0
G10
;LAYER_COUNT:485
;LAYER:0
M107
G0 F7200 X62.316 Y88.271 Z0.4
;TYPE:SKIRT
G11
G1 F2400 X63.314 Y87.583 E0.29092
G1 X64.293 Y86.988 E0.56587
G1 X65.736 Y86.264 E0.95334
G1 X67.008 Y85.74 E1.28351
G1 X67.94 Y85.44 E1.51849
G1 X68.961 Y85.153 E1.77303
G1 X70.702 Y84.807 E2.19904
G1 X71.741 Y84.688 E2.45003
G1 X72.659 Y84.628 E2.67082
G1 X73.713 Y84.593 E2.92392
G1 X149.312 Y84.595 E21.06768
G1 X150.962 Y84.651 E21.4639
G1 X153.08 Y84.938 E21.97687
G1 X154.325 Y85.231 E22.28383
G1 X155.392 Y85.548 E22.55098
G1 X156.665 Y85.992 E22.87455
G1 X157.539 Y86.392 E23.10523
G1 X158.764 Y87.005 E23.43399
G1 X159.918 Y87.736 E23.76184
G1 X160.904 Y88.423 E24.05025
G1 X162.097 Y89.4 E24.42033
G1 X162.938 Y90.2 E24.69891
G1 X164.1 Y91.468 E25.11168
G1 X165.06 Y92.734 E25.493
G1 X166.003 Y94.249 E25.92128
G1 X166.838 Y95.91 E26.36746
G1 X167.302 Y97.115 E26.67736
G1 X167.751 Y98.535 E27.03479
G1 X167.992 Y99.497 E27.27281
G1 X168.205 Y100.572 E27.53582
G1 X168.401 Y102.506 E28.00236
G1 X168.439 Y103.721 E28.2941
G1 X168.438 Y119.258 E32.02298
G1 X168.412 Y120.37 E32.28994
G1 X168.349 Y121.254 E32.50263
G1 X168.219 Y122.452 E32.79184
G1 X167.962 Y123.692 E33.09577
G1 X167.738 Y124.583 E33.31626
G1 X167.199 Y126.232 E33.73263
G1 X166.489 Y127.936 E34.17567
G1 X165.849 Y129.07 E34.48818
G1 X165.115 Y130.229 E34.81743
G1 X164.241 Y131.426 E35.17314
G1 X163.484 Y132.293 E35.44937
G1 X162.922 Y132.892 E35.6465
G1 X161.439 Y134.228 E36.12555
G1 X160.234 Y135.134 E36.48737
G1 X158.672 Y136.084 E36.92614
G1 X157.949 Y136.468 E37.12262
G1 X156.806 Y136.991 E37.42429
G1 X155.308 Y137.563 E37.80913
G1 X154.365 Y137.841 E38.04508
G1 X152.979 Y138.136 E38.38517
G1 X151.615 Y138.338 E38.7161
G1 X150.124 Y138.452 E39.07499
G1 X148.894 Y138.469 E39.37021
G1 X73.864 Y138.468 E57.37741
G1 X72.51 Y138.439 E57.70245
G1 X71.388 Y138.337 E57.97284
G1 X69.561 Y138.051 E58.41666
G1 X67.774 Y137.601 E58.85893
G1 X66.176 Y136.984 E59.27004
G1 X64.825 Y136.373 E59.6259
G1 X63.826 Y135.798 E59.90254
G1 X61.965 Y134.554 E60.43978
G1 X61.057 Y133.796 E60.72365
G1 X60.308 Y133.1 E60.96904
G1 X59.355 Y132.139 E61.29386
G1 X58.768 Y131.415 E61.51755
G1 X57.764 Y130.079 E61.91864
G1 X57.182 Y129.115 E62.1889
G1 X56.673 Y128.193 E62.44166
G1 X56.151 Y127.112 E62.72976
G1 X55.692 Y125.938 E63.03229
G1 X55.33 Y124.89 E63.2984
G1 X55.036 Y123.683 E63.59654
G1 X54.759 Y122.242 E63.94872
G1 X54.619 Y120.937 E64.26371
G1 X54.568 Y118.945 E64.74195
G1 X54.564 Y103.886 E68.35611
G1 X54.581 Y102.97 E68.57599
G1 X54.714 Y101.056 E69.03646
G1 X55.028 Y99.387 E69.44404
G1 X55.359 Y98.155 E69.75021
G1 X55.759 Y96.95 E70.05493
G1 X56.332 Y95.558 E70.4162
G1 X56.851 Y94.54 E70.69044
G1 X57.514 Y93.389 E71.00923
G1 X58.372 Y92.167 E71.36759
G1 X59.28 Y91.032 E71.71643
G1 X60.093 Y90.175 E71.99994
G1 X61.025 Y89.292 E72.30806
G1 X62.316 Y88.271 E72.70309
G0 F7200 X62.688 Y88.742
G1 F2400 X63.626 Y88.096 E72.97643
G1 X64.605 Y87.501 E73.25138
G1 X65.965 Y86.819 E73.61652
G1 X67.237 Y86.295 E73.94669
G1 X68.102 Y86.018 E74.16468
G1 X69.123 Y85.731 E74.41921
G1 X70.771 Y85.403 E74.82249
G1 X71.78 Y85.287 E75.06625
G1 X72.679 Y85.228 E75.28247
G1 X73.713 Y85.193 E75.53077
G1 X149.293 Y85.195 E93.66997
G1 X150.881 Y85.246 E94.05129
G1 X152.999 Y85.533 E94.56426
G1 X154.186 Y85.815 E94.85706
G1 X155.195 Y86.115 E95.1097
G1 X156.415 Y86.538 E95.4196
G1 X157.27 Y86.929 E95.64524
G1 X158.495 Y87.542 E95.974
G1 X159.576 Y88.229 E96.2814
G1 X160.524 Y88.888 E96.55849
G1 X161.683 Y89.835 E96.91769
G1 X162.524 Y90.635 E97.19627
G1 X163.622 Y91.831 E97.58593
G1 X164.582 Y93.097 E97.96725
G1 X165.467 Y94.519 E98.36922
G1 X166.278 Y96.126 E98.80123
G1 X166.742 Y97.331 E99.11113
G1 X167.169 Y98.681 E99.45095
G1 X167.403 Y99.614 E99.68181
G1 X167.616 Y100.689 E99.94483
G1 X167.801 Y102.525 E100.3877
G1 X167.839 Y103.721 E100.67488
G1 X167.838 Y119.244 E104.4004
G1 X167.813 Y120.328 E104.66063
G1 X167.752 Y121.191 E104.86827
G1 X167.631 Y122.331 E105.1434
G1 X167.38 Y123.546 E105.44116
G1 X167.156 Y124.437 E105.66166
G1 X166.645 Y126.002 E106.05677
G1 X165.966 Y127.641 E106.48255
G1 X165.326 Y128.775 E106.79506
G1 X164.63 Y129.876 E107.10767
G1 X163.789 Y131.031 E107.45057
G1 X163.046 Y131.882 E107.7217
G1 X162.484 Y132.481 E107.91883
G1 X161.078 Y133.748 E108.37307
G1 X159.873 Y134.654 E108.73489
G1 X158.361 Y135.571 E109.15929
G1 X157.699 Y135.922 E109.33912
G1 X156.556 Y136.445 E109.6408
G1 X155.138 Y136.987 E110.00513
G1 X154.195 Y137.265 E110.24108
G1 X152.891 Y137.542 E110.56102
G1 X151.527 Y137.744 E110.89195
G1 X150.116 Y137.852 E111.23158
G1 X148.894 Y137.869 E111.52489
G1 X73.876 Y137.868 E129.52921
G1 X72.564 Y137.841 E129.84416
G1 X71.442 Y137.739 E130.11455
G1 X69.706 Y137.469 E130.5362
G1 X67.99 Y137.041 E130.96066
G1 X66.392 Y136.424 E131.37177
G1 X65.124 Y135.853 E131.70552
G1 X64.159 Y135.299 E131.97257
G1 X62.35 Y134.093 E132.49437
G1 X61.442 Y133.335 E132.77824
G1 X60.733 Y132.677 E133.01039
G1 X59.821 Y131.761 E133.32061
G1 X59.248 Y131.055 E133.53884
G1 X58.244 Y129.719 E133.93993
G1 X57.707 Y128.825 E134.19022
G1 X57.213 Y127.931 E134.43536
G1 X56.71 Y126.893 E134.71219
G1 X56.259 Y125.741 E135.0091
G1 X55.913 Y124.748 E135.26147
G1 X55.625 Y123.569 E135.55275
G1 X55.356 Y122.178 E135.89278
G1 X55.216 Y120.873 E136.20777
G1 X55.168 Y118.945 E136.67064
G1 X55.164 Y103.897 E140.28216
G1 X55.18 Y103.01 E140.49507
G1 X55.304 Y101.167 E140.93839
G1 X55.618 Y99.498 E141.34598
G1 X55.929 Y98.343 E141.63305
G1 X56.314 Y97.178 E141.92752
G1 X56.867 Y95.831 E142.27699
G1 X57.386 Y94.813 E142.55123
G1 X58.005 Y93.734 E142.84977
G1 X58.841 Y92.542 E143.1992
G1 X59.749 Y91.407 E143.54804
G1 X60.507 Y90.61 E143.81202
G1 X61.397 Y89.763 E144.10689
G1 X62.688 Y88.742 E144.50191
G0 F7200 X63.028 Y89.236
G1 F2400 X63.938 Y88.609 E144.76713
G1 X64.917 Y88.014 E145.04208
G1 X66.194 Y87.374 E145.3849
G1 X67.466 Y86.85 E145.71507
G1 X68.264 Y86.596 E145.91606
G1 X69.285 Y86.309 E146.17059
G1 X70.84 Y85.999 E146.55114
G1 X71.819 Y85.886 E146.78766
G1 X72.7 Y85.828 E146.99956
G1 X73.713 Y85.793 E147.24282
G1 X149.275 Y85.795 E165.3777
G1 X150.801 Y85.841 E165.74411
G1 X152.86 Y86.117 E166.24269
G1 X154.047 Y86.399 E166.5355
G1 X155 Y86.682 E166.77409
G1 X156.165 Y87.083 E167.06979
G1 X157.001 Y87.466 E167.29048
G1 X158.226 Y88.079 E167.61924
G1 X159.234 Y88.722 E167.90619
G1 X160.182 Y89.381 E168.18328
G1 X161.269 Y90.27 E168.5203
G1 X162.11 Y91.07 E168.79887
G1 X163.144 Y92.194 E169.16541
G1 X164.104 Y93.46 E169.54673
G1 X164.931 Y94.789 E169.9224
G1 X165.742 Y96.396 E170.35441
G1 X166.17 Y97.512 E170.64128
G1 X166.597 Y98.862 E170.9811
G1 X166.814 Y99.731 E171.19606
G1 X167.027 Y100.806 E171.45908
G1 X167.201 Y102.544 E171.87828
G1 X167.239 Y103.721 E172.16091
G1 X167.238 Y119.23 E175.88307
G1 X167.213 Y120.314 E176.1433
G1 X167.155 Y121.129 E176.33939
G1 X167.043 Y122.21 E176.60022
G1 X166.798 Y123.4 E176.89181
G1 X166.574 Y124.291 E177.11231
G1 X166.09 Y125.774 E177.4867
G1 X165.443 Y127.346 E177.89469
G1 X164.803 Y128.48 E178.2072
G1 X164.123 Y129.555 E178.51248
G1 X163.337 Y130.636 E178.83325
G1 X162.608 Y131.471 E179.09928
G1 X162.046 Y132.07 E179.29641
G1 X160.717 Y133.268 E179.72583
G1 X159.512 Y134.174 E180.08766
G1 X158.08 Y135.041 E180.48942
G1 X157.449 Y135.376 E180.66088
G1 X156.306 Y135.899 E180.96255
G1 X154.967 Y136.412 E181.30669
G1 X154.07 Y136.678 E181.53124
G1 X152.803 Y136.948 E181.84214
G1 X151.439 Y137.15 E182.17307
G1 X150.108 Y137.252 E182.49345
G1 X148.894 Y137.269 E182.78484
G1 X73.888 Y137.268 E200.78628
G1 X72.618 Y137.243 E201.09114
G1 X71.496 Y137.141 E201.36153
G1 X69.85 Y136.886 E201.76128
G1 X68.206 Y136.481 E202.16764
G1 X66.637 Y135.876 E202.57122
G1 X65.422 Y135.332 E202.89072
G1 X64.491 Y134.799 E203.14818
G1 X62.735 Y133.632 E203.6542
G1 X61.827 Y132.874 E203.93808
G1 X61.141 Y132.237 E204.16275
G1 X60.287 Y131.383 E204.45261
G1 X59.727 Y130.694 E204.6657
G1 X58.758 Y129.41 E205.05176
G1 X58.232 Y128.534 E205.29699
G1 X57.753 Y127.669 E205.5343
G1 X57.269 Y126.674 E205.79985
G1 X56.826 Y125.544 E206.09115
G1 X56.48 Y124.551 E206.34352
G1 X56.214 Y123.454 E206.61443
G1 X55.953 Y122.114 E206.94207
G1 X55.813 Y120.809 E207.25707
G1 X55.768 Y118.945 E207.70456
G1 X55.764 Y103.907 E211.31368
G1 X55.779 Y103.049 E211.51963
G1 X55.894 Y101.278 E211.94557
G1 X56.208 Y99.609 E212.35315
G1 X56.499 Y98.53 E212.62137
G1 X56.869 Y97.405 E212.90559
G1 X57.402 Y96.104 E213.24302
G1 X57.921 Y95.086 E213.51726
G1 X58.496 Y94.078 E213.79577
G1 X59.31 Y92.917 E214.13608
G1 X60.218 Y91.782 E214.48492
G1 X60.922 Y91.044 E214.7297
G1 X61.77 Y90.233 E215.01131
G1 X63.028 Y89.236 E215.39656
G0 F7200 X63.369 Y89.73
G1 F2400 X64.25 Y89.122 E215.65346
G1 X65.229 Y88.527 E215.92841
G1 X66.423 Y87.929 E216.2489
G1 X67.695 Y87.405 E216.57907
G1 X68.426 Y87.174 E216.76306
G1 X69.447 Y86.887 E217.0176
G1 X70.909 Y86.595 E217.37541
G1 X71.859 Y86.485 E217.60493
G1 X72.721 Y86.428 E217.81226
G1 X73.713 Y86.393 E218.05049
G1 X149.258 Y86.395 E236.18129
G1 X150.722 Y86.436 E236.53279
G1 X152.721 Y86.701 E237.01675
G1 X153.908 Y86.983 E237.30956
G1 X154.806 Y87.25 E237.5344
G1 X155.915 Y87.629 E237.81567
G1 X156.732 Y88.003 E238.03132
G1 X157.957 Y88.616 E238.36008
G1 X158.892 Y89.215 E238.62658
G1 X159.84 Y89.874 E238.90367
G1 X160.855 Y90.705 E239.2185
G1 X161.696 Y91.505 E239.49707
G1 X162.666 Y92.557 E239.8405
G1 X163.626 Y93.823 E240.22182
G1 X164.395 Y95.059 E240.57118
G1 X165.206 Y96.666 E241.0032
G1 X165.609 Y97.725 E241.27514
G1 X166.015 Y99.008 E241.59811
G1 X166.225 Y99.848 E241.80591
G1 X166.438 Y100.923 E242.06893
G1 X166.601 Y102.564 E242.46471
G1 X166.639 Y103.721 E242.74253
G1 X166.638 Y119.216 E246.46133
G1 X166.613 Y120.3 E246.72156
G1 X166.558 Y121.067 E246.90612
G1 X166.446 Y122.148 E247.16695
G1 X166.216 Y123.254 E247.43806
G1 X165.992 Y124.145 E247.65856
G1 X165.535 Y125.547 E248.01246
G1 X164.92 Y127.051 E248.40243
G1 X164.28 Y128.185 E248.71495
G1 X163.637 Y129.203 E249.00392
G1 X162.885 Y130.241 E249.31155
G1 X162.17 Y131.06 E249.57248
G1 X161.608 Y131.659 E249.7696
G1 X160.356 Y132.788 E250.17421
G1 X159.151 Y133.694 E250.53604
G1 X157.798 Y134.511 E250.91536
G1 X157.199 Y134.83 E251.07824
G1 X156.056 Y135.353 E251.37991
G1 X154.795 Y135.837 E251.70408
G1 X153.944 Y136.091 E251.91722
G1 X152.715 Y136.354 E252.21886
G1 X151.351 Y136.556 E252.54979
G1 X150.1 Y136.652 E252.85091
G1 X148.894 Y136.669 E253.14038
G1 X73.899 Y136.668 E271.13918
G1 X72.672 Y136.645 E271.43371
G1 X71.55 Y136.543 E271.70411
G1 X69.994 Y136.303 E272.08196
G1 X68.35 Y135.898 E272.48832
G1 X66.881 Y135.328 E272.86649
G1 X65.719 Y134.811 E273.17173
G1 X64.822 Y134.299 E273.41961
G1 X63.12 Y133.171 E273.90965
G1 X62.212 Y132.413 E274.19353
G1 X61.564 Y131.812 E274.40564
G1 X60.752 Y131.004 E274.68056
G1 X60.205 Y130.332 E274.88852
G1 X59.272 Y129.101 E275.25923
G1 X58.757 Y128.243 E275.49939
G1 X58.293 Y127.407 E275.72887
G1 X57.809 Y126.412 E275.99442
G1 X57.393 Y125.347 E276.26883
G1 X57.047 Y124.354 E276.5212
G1 X56.803 Y123.338 E276.77197
G1 X56.55 Y122.05 E277.087
G1 X56.41 Y120.745 E277.402
G1 X56.368 Y118.945 E277.83411
G1 X56.364 Y103.917 E281.44083
G1 X56.378 Y103.086 E281.6403
G1 X56.484 Y101.389 E282.04838
G1 X56.798 Y99.72 E282.45596
G1 X57.069 Y98.717 E282.70532
G1 X57.425 Y97.632 E282.97937
G1 X57.937 Y96.377 E283.30468
G1 X58.456 Y95.359 E283.57892
G1 X58.988 Y94.422 E283.83751
G1 X59.779 Y93.292 E284.16856
G1 X60.687 Y92.157 E284.5174
G1 X61.337 Y91.478 E284.74299
G1 X62.185 Y90.667 E285.0246
G1 X63.369 Y89.73 E285.38698
G0 F7200 X63.71 Y90.224
G1 F2400 X64.562 Y89.635 E285.63557
G1 X65.541 Y89.04 E285.91052
G1 X66.652 Y88.483 E286.20879
G1 X67.876 Y87.977 E286.52666
G1 X68.588 Y87.752 E286.70587
G1 X69.609 Y87.465 E286.96041
G1 X70.978 Y87.191 E287.29548
G1 X71.899 Y87.084 E287.51801
G1 X72.743 Y87.028 E287.72102
G1 X73.713 Y86.993 E287.95397
G1 X149.243 Y86.995 E306.08117
G1 X150.644 Y87.031 E306.41752
G1 X152.582 Y87.285 E306.88662
G1 X153.769 Y87.567 E307.17943
G1 X154.613 Y87.818 E307.39075
G1 X155.665 Y88.175 E307.65738
G1 X156.463 Y88.54 E307.86798
G1 X157.688 Y89.153 E308.19673
G1 X158.55 Y89.708 E308.44279
G1 X159.498 Y90.367 E308.71988
G1 X160.441 Y91.14 E309.01252
G1 X161.282 Y91.94 E309.29109
G1 X162.188 Y92.92 E309.6114
G1 X163.148 Y94.186 E309.99272
G1 X163.86 Y95.33 E310.31611
G1 X164.645 Y96.879 E310.73289
G1 X165.048 Y97.938 E311.00483
G1 X165.433 Y99.154 E311.31095
G1 X165.636 Y99.965 E311.51159
G1 X165.849 Y101.04 E311.77461
G1 X166.001 Y102.584 E312.14696
G1 X166.039 Y103.721 E312.41999
G1 X166.038 Y119.202 E316.13543
G1 X166.014 Y120.258 E316.38894
G1 X165.961 Y121.007 E316.56915
G1 X165.858 Y122.026 E316.81495
G1 X165.634 Y123.108 E317.08014
G1 X165.41 Y123.999 E317.30063
G1 X164.979 Y125.321 E317.63435
G1 X164.397 Y126.756 E318.006
G1 X163.772 Y127.865 E318.31151
G1 X163.15 Y128.852 E318.59151
G1 X162.433 Y129.846 E318.88566
G1 X161.732 Y130.649 E319.14148
G1 X161.17 Y131.248 E319.33861
G1 X159.995 Y132.308 E319.7184
G1 X158.79 Y133.214 E320.08023
G1 X157.516 Y133.981 E320.43712
G1 X156.917 Y134.3 E320.6
G1 X155.807 Y134.807 E320.89287
G1 X154.622 Y135.262 E321.19751
G1 X153.818 Y135.504 E321.39903
G1 X152.589 Y135.767 E321.70066
G1 X151.305 Y135.958 E322.01221
G1 X150.091 Y136.052 E322.30445
G1 X148.894 Y136.069 E322.59176
G1 X73.91 Y136.068 E340.58792
G1 X72.726 Y136.047 E340.87212
G1 X71.604 Y135.945 E341.14251
G1 X70.138 Y135.72 E341.49847
G1 X68.494 Y135.315 E341.90483
G1 X67.124 Y134.779 E342.2579
G1 X66.016 Y134.289 E342.54866
G1 X65.153 Y133.798 E342.78695
G1 X63.505 Y132.71 E343.2609
G1 X62.597 Y131.952 E343.54477
G1 X61.986 Y131.386 E343.74466
G1 X61.217 Y130.625 E344.00431
G1 X60.682 Y129.969 E344.20747
G1 X59.786 Y128.792 E344.56249
G1 X59.281 Y127.952 E344.79772
G1 X58.832 Y127.144 E345.01957
G1 X58.368 Y126.193 E345.27352
G1 X57.96 Y125.15 E345.54231
G1 X57.614 Y124.157 E345.79469
G1 X57.392 Y123.221 E346.02556
G1 X57.147 Y121.986 E346.32773
G1 X57.007 Y120.681 E346.64273
G1 X56.968 Y118.945 E347.05948
G1 X56.964 Y103.927 E350.6638
G1 X56.977 Y103.122 E350.85702
G1 X57.074 Y101.5 E351.247
G1 X57.388 Y99.831 E351.65459
G1 X57.639 Y98.904 E351.88508
G1 X57.981 Y97.859 E352.14897
G1 X58.493 Y96.604 E352.47427
G1 X58.979 Y95.654 E352.73037
G1 X59.48 Y94.766 E352.97507
G1 X60.271 Y93.636 E353.30611
G1 X61.121 Y92.572 E353.63295
G1 X61.753 Y91.911 E353.85244
G1 X62.558 Y91.137 E354.12045
G1 X63.71 Y90.224 E354.47324
G0 F7200 X64.083 Y90.694
G1 F2400 X64.874 Y90.147 E354.70405
G1 X65.811 Y89.576 E354.96739
G1 X66.882 Y89.037 E355.25515
G1 X68.057 Y88.549 E355.5605
G1 X68.751 Y88.329 E355.73523
G1 X69.727 Y88.053 E355.97866
G1 X71.048 Y87.787 E356.30206
G1 X71.939 Y87.683 E356.51735
G1 X72.765 Y87.628 E356.71603
G1 X73.713 Y87.593 E356.94371
G1 X149.229 Y87.595 E375.06755
G1 X150.567 Y87.626 E375.38875
G1 X152.443 Y87.869 E375.84275
G1 X153.63 Y88.151 E376.13556
G1 X154.422 Y88.387 E376.3339
G1 X155.415 Y88.721 E376.58534
G1 X156.213 Y89.086 E376.79594
G1 X157.363 Y89.657 E377.10409
G1 X158.208 Y90.201 E377.34529
G1 X159.118 Y90.832 E377.61105
G1 X160.027 Y91.575 E377.89282
G1 X160.868 Y92.375 E378.17139
G1 X161.747 Y93.327 E378.48237
G1 X162.639 Y94.504 E378.83681
G1 X163.325 Y95.602 E379.14753
G1 X164.084 Y97.092 E379.54885
G1 X164.487 Y98.151 E379.8208
G1 X164.851 Y99.3 E380.11006
G1 X165.047 Y100.082 E380.30355
G1 X165.26 Y101.157 E380.56656
G1 X165.401 Y102.604 E380.91549
G1 X165.439 Y103.721 E381.18372
G1 X165.438 Y119.188 E384.8958
G1 X165.414 Y120.244 E385.14931
G1 X165.364 Y120.947 E385.31846
G1 X165.261 Y121.966 E385.56426
G1 X165.052 Y122.962 E385.80851
