;FLAVOR:UltiGCode
;TIME:579
;MATERIAL:1145
;MATERIAL2:0
;NOZZLE_DIAMETER:0.6
;MINX:99.788
;MINY:99.785
;MINZ:0.4
;MAXX:123.213
;MAXY:123.211
;MAXZ:10
;TARGET_MACHINE.NAME:Ultimaker 2+
;Generated with Cura_SteamEngine 5.10.0
G0 F3000 Y50 ;avoid prime blob
M104 S230 ; Régler la température de l'extrudeur à 230°C
M140 S58 ; Régle la température du plateau à 58°C
M221 S100 ; Augmente le material flow de +x%
M207 S10 F1500 ; Rétraction à 10 mm, à une vitesse de rétration de 25 mm/s
M82 ;absolute extrusion mode
G92 E0
G92 E0
G10
;LAYER_COUNT:65
;LAYER:0
M107
G0 F7200 X103.587 Y102.856 Z0.4
;TYPE:SKIRT
G11
G1 F1320 X104.521 Y102.093 E0.28945
G1 X105.427 Y101.481 E0.55185
G1 X105.999 Y101.158 E0.7095
G1 X107.103 Y100.638 E1.00238
G1 X108.729 Y100.113 E1.41246
G1 X110.165 Y99.835 E1.7635
G1 X111.453 Y99.785 E2.07285
G1 X113.156 Y99.899 E2.48249
G1 X114.317 Y100.129 E2.76654
G1 X115.025 Y100.329 E2.94311
G1 X116.164 Y100.749 E3.23447
G1 X117.373 Y101.358 E3.55936
G1 X118.167 Y101.869 E3.78597
G1 X119.227 Y102.689 E4.10761
G1 X120.143 Y103.586 E4.4153
G1 X120.84 Y104.432 E4.67837
G1 X121.52 Y105.431 E4.96841
G1 X121.861 Y106.035 E5.13487
G1 X122.329 Y107.019 E5.39638
G1 X122.887 Y108.725 E5.82717
G1 X123.17 Y110.168 E6.18009
G1 X123.213 Y111.585 E6.52032
G1 X123.092 Y113.227 E6.91547
G1 X122.905 Y114.174 E7.14714
G1 X122.684 Y114.98 E7.34772
G1 X122.219 Y116.238 E7.66961
G1 X121.672 Y117.316 E7.95973
G1 X121.025 Y118.319 E8.24618
G1 X120.391 Y119.137 E8.49457
G1 X119.676 Y119.888 E8.74343
G1 X118.87 Y120.603 E9.00202
G1 X117.812 Y121.375 E9.31635
G1 X117.01 Y121.837 E9.53848
G1 X115.679 Y122.448 E9.88997
G1 X114.412 Y122.853 E10.20921
G1 X112.833 Y123.172 E10.59582
G1 X111.327 Y123.211 E10.95738
G1 X109.765 Y123.09 E11.33339
G1 X108.82 Y122.904 E11.56454
G1 X107.933 Y122.657 E11.78552
G1 X106.842 Y122.254 E12.06465
G1 X105.746 Y121.708 E12.35852
G1 X104.701 Y121.036 E12.6567
G1 X103.664 Y120.215 E12.97414
G1 X102.853 Y119.409 E13.24856
G1 X102.131 Y118.53 E13.52156
G1 X101.561 Y117.7 E13.76321
G1 X101.136 Y116.957 E13.96864
G1 X100.552 Y115.681 E14.30543
G1 X100.131 Y114.35 E14.64047
G1 X99.833 Y112.843 E15.00915
G1 X99.788 Y111.355 E15.36644
G1 X99.908 Y109.769 E15.74816
G1 X100.085 Y108.867 E15.96877
G1 X100.333 Y107.971 E16.1919
G1 X100.779 Y106.766 E16.50027
G1 X101.292 Y105.746 E16.77429
G1 X101.961 Y104.706 E17.07107
G1 X102.78 Y103.67 E17.38802
G1 X103.587 Y102.856 E17.66312
G0 F7200 X103.968 Y103.32
G1 F1320 X104.858 Y102.59 E17.93938
G1 X105.724 Y102.003 E18.19046
G1 X106.255 Y101.701 E18.33707
G1 X107.359 Y101.181 E18.62995
G1 X108.843 Y100.702 E19.00421
G1 X110.231 Y100.433 E19.34353
G1 X111.476 Y100.385 E19.64255
G1 X113.04 Y100.488 E20.01872
G1 X114.155 Y100.707 E20.29143
G1 X114.819 Y100.893 E20.45693
G1 X115.895 Y101.286 E20.73185
G1 X117.048 Y101.863 E21.04129
G1 X117.842 Y102.374 E21.2679
G1 X118.859 Y103.163 E21.57682
G1 X119.68 Y103.968 E21.85278
G1 X120.377 Y104.814 E22.11585
G1 X120.998 Y105.727 E22.38086
G1 X121.319 Y106.293 E22.53702
G1 X121.787 Y107.277 E22.79853
G1 X122.298 Y108.84 E23.19319
G1 X122.571 Y110.234 E23.53411
G1 X122.613 Y111.603 E23.86282
G1 X122.503 Y113.112 E24.22594
G1 X122.326 Y114.015 E24.44679
G1 X122.105 Y114.821 E24.64737
G1 X121.684 Y115.966 E24.94015
G1 X121.137 Y117.044 E25.23027
G1 X120.522 Y117.992 E25.50148
G1 X119.956 Y118.723 E25.72336
G1 X119.241 Y119.474 E25.97222
G1 X118.473 Y120.153 E26.21825
G1 X117.512 Y120.856 E26.50401
G1 X116.758 Y121.292 E26.71305
G1 X115.496 Y121.876 E27.04679
G1 X114.229 Y122.281 E27.36603
G1 X112.768 Y122.573 E27.7236
G1 X111.311 Y122.611 E28.0734
G1 X109.881 Y122.501 E28.41761
G1 X108.936 Y122.315 E28.64876
G1 X108.139 Y122.093 E28.84733
G1 X107.108 Y121.716 E29.11079
G1 X106.071 Y121.203 E29.38846
G1 X105.026 Y120.531 E29.68664
G1 X104.086 Y119.788 E29.9742
G1 X103.317 Y119.028 E30.23369
G1 X102.595 Y118.149 E30.50669
G1 X102.081 Y117.4 E30.72471
G1 X101.681 Y116.706 E30.91695
G1 X101.124 Y115.499 E31.23599
G1 X100.72 Y114.233 E31.55493
G1 X100.431 Y112.774 E31.91189
G1 X100.388 Y111.337 E32.25692
G1 X100.497 Y109.885 E32.60638
G1 X100.674 Y108.983 E32.82699
G1 X100.896 Y108.178 E33.0274
G1 X101.316 Y107.034 E33.31988
G1 X101.797 Y106.071 E33.57823
G1 X102.466 Y105.031 E33.87501
G1 X103.207 Y104.091 E34.16228
G1 X103.968 Y103.32 E34.42227
G0 F7200 X104.35 Y103.783
G1 F1320 X105.196 Y103.086 E34.68535
G1 X106.022 Y102.524 E34.92512
G1 X106.511 Y102.244 E35.06036
G1 X107.615 Y101.724 E35.35324
G1 X108.957 Y101.291 E35.69167
G1 X110.297 Y101.031 E36.01927
G1 X111.499 Y100.985 E36.30796
G1 X112.999 Y101.087 E36.66879
G1 X113.993 Y101.285 E36.91204
G1 X114.657 Y101.471 E37.07753
G1 X115.628 Y101.823 E37.32541
G1 X116.723 Y102.368 E37.61896
G1 X117.517 Y102.879 E37.84558
G1 X118.491 Y103.637 E38.14178
G1 X119.217 Y104.35 E38.386
G1 X119.914 Y105.196 E38.64907
G1 X120.477 Y106.024 E38.88938
G1 X120.777 Y106.551 E39.03492
G1 X121.245 Y107.535 E39.29643
G1 X121.709 Y108.955 E39.65496
G1 X121.972 Y110.3 E39.98387
G1 X122.013 Y111.622 E40.30131
G1 X121.914 Y112.997 E40.63216
G1 X121.737 Y113.9 E40.853
G1 X121.527 Y114.661 E41.04247
G1 X121.148 Y115.696 E41.307
G1 X120.633 Y116.718 E41.58166
G1 X120.046 Y117.626 E41.84116
G1 X119.521 Y118.309 E42.04791
G1 X118.806 Y119.06 E42.29677
G1 X118.076 Y119.703 E42.53024
G1 X117.21 Y120.337 E42.78783
G1 X116.504 Y120.748 E42.98389
G1 X115.313 Y121.304 E43.29934
G1 X114.046 Y121.709 E43.61858
G1 X112.7 Y121.974 E43.94782
G1 X111.295 Y122.011 E44.28514
G1 X109.997 Y121.912 E44.59756
G1 X109.052 Y121.726 E44.82871
G1 X108.343 Y121.529 E45.00532
G1 X107.374 Y121.178 E45.25267
G1 X106.337 Y120.665 E45.53033
G1 X105.397 Y120.059 E45.79875
G1 X104.508 Y119.361 E46.07002
G1 X103.739 Y118.601 E46.3295
G1 X103.089 Y117.808 E46.57559
G1 X102.601 Y117.1 E46.78196
G1 X102.201 Y116.406 E46.97421
G1 X101.695 Y115.315 E47.26284
G1 X101.309 Y114.116 E47.56514
G1 X101.029 Y112.705 E47.91039
G1 X100.988 Y111.319 E48.24317
G1 X101.086 Y110.001 E48.56036
G1 X101.263 Y109.099 E48.78097
G1 X101.474 Y108.338 E48.9705
G1 X101.853 Y107.302 E49.23526
G1 X102.334 Y106.339 E49.49361
G1 X102.938 Y105.401 E49.76136
G1 X103.635 Y104.511 E50.03267
G1 X104.35 Y103.783 E50.27756
G0 F7200 X104.732 Y104.246
G1 F1320 X105.578 Y103.549 E50.54064
G1 X106.322 Y103.044 E50.75644
G1 X106.767 Y102.787 E50.87978
G1 X107.871 Y102.267 E51.17266
G1 X109.071 Y101.88 E51.47526
G1 X110.363 Y101.629 E51.79114
G1 X111.522 Y101.585 E52.0695
G1 X112.883 Y101.676 E52.39687
G1 X113.832 Y101.863 E52.62901
G1 X114.455 Y102.036 E52.78419
G1 X115.362 Y102.361 E53.01542
G1 X116.398 Y102.873 E53.29277
G1 X117.192 Y103.384 E53.51938
G1 X118.072 Y104.067 E53.78673
G1 X118.754 Y104.732 E54.01534
G1 X119.451 Y105.578 E54.27841
G1 X119.956 Y106.322 E54.49422
G1 X120.235 Y106.809 E54.62892
G1 X120.703 Y107.793 E54.89043
G1 X121.12 Y109.07 E55.21284
G1 X121.373 Y110.366 E55.52975
G1 X121.413 Y111.641 E55.8359
G1 X121.325 Y112.882 E56.13449
G1 X121.148 Y113.785 E56.35533
G1 X120.963 Y114.457 E56.52261
G1 X120.611 Y115.428 E56.77049
G1 X120.129 Y116.393 E57.02938
G1 X119.569 Y117.262 E57.27749
G1 X119.086 Y117.895 E57.46859
G1 X118.371 Y118.646 E57.71745
G1 X117.72 Y119.22 E57.92575
G1 X116.908 Y119.818 E58.16777
G1 X116.202 Y120.229 E58.36383
G1 X115.129 Y120.733 E58.64835
G1 X113.93 Y121.12 E58.95073
G1 X112.633 Y121.375 E59.26797
G1 X111.279 Y121.411 E59.59304
G1 X110.113 Y121.323 E59.87368
G1 X109.168 Y121.137 E60.10483
G1 X108.545 Y120.964 E60.26
G1 X107.638 Y120.639 E60.49124
G1 X106.661 Y120.16 E60.75238
G1 X105.766 Y119.586 E61.00756
G1 X104.928 Y118.933 E61.26253
G1 X104.202 Y118.22 E61.50675
G1 X103.583 Y117.467 E61.74069
G1 X103.095 Y116.759 E61.94707
G1 X102.722 Y116.108 E62.12714
G1 X102.266 Y115.129 E62.38633
G1 X101.898 Y113.999 E62.67155
G1 X101.628 Y112.636 E63.00503
G1 X101.587 Y111.361 E63.31119
G1 X101.675 Y110.117 E63.61049
G1 X101.852 Y109.215 E63.8311
G1 X102.038 Y108.542 E63.99868
G1 X102.39 Y107.57 E64.24678
G1 X102.871 Y106.607 E64.50513
G1 X103.411 Y105.77 E64.74419
G1 X104.065 Y104.93 E64.99969
G1 X104.732 Y104.246 E65.22898
G0 F7200 X105.162 Y104.665
G1 F1320 X105.916 Y104.045 E65.46326
G1 X106.622 Y103.564 E65.66829
G1 X107.067 Y103.307 E65.79162
G1 X108.057 Y102.837 E66.05463
G1 X109.186 Y102.469 E66.33962
G1 X110.43 Y102.227 E66.64378
G1 X111.545 Y102.185 E66.91157
G1 X112.768 Y102.265 E67.20572
G1 X113.673 Y102.442 E67.42703
G1 X114.255 Y102.602 E67.57189
G1 X115.098 Y102.9 E67.78648
G1 X116.073 Y103.378 E68.04709
G1 X116.867 Y103.889 E68.27371
G1 X117.653 Y104.497 E68.5122
G1 X118.335 Y105.162 E68.74081
G1 X118.955 Y105.916 E68.97509
G1 X119.436 Y106.622 E69.18012
G1 X119.693 Y107.067 E69.30345
G1 X120.161 Y108.051 E69.56496
G1 X120.531 Y109.185 E69.85124
G1 X120.774 Y110.432 E70.15615
G1 X120.814 Y111.601 E70.43687
G1 X120.736 Y112.767 E70.71734
G1 X120.559 Y113.67 E70.93818
G1 X120.398 Y114.255 E71.0838
G1 X120.073 Y115.162 E71.31504
G1 X119.624 Y116.069 E71.55793
G1 X119.09 Y116.9 E71.795
G1 X118.651 Y117.481 E71.96976
G1 X117.936 Y118.232 E72.21863
G1 X117.362 Y118.738 E72.40227
G1 X116.606 Y119.299 E72.62821
G1 X115.9 Y119.71 E72.82427
G1 X114.943 Y120.163 E73.07838
G1 X113.814 Y120.531 E73.36338
G1 X112.566 Y120.776 E73.66861
G1 X111.263 Y120.811 E73.98145
G1 X110.228 Y120.734 E74.23053
G1 X109.327 Y120.558 E74.45086
G1 X108.745 Y120.398 E74.59572
G1 X107.902 Y120.1 E74.81031
G1 X106.925 Y119.621 E75.07146
G1 X106.133 Y119.111 E75.29754
G1 X105.347 Y118.503 E75.53603
G1 X104.665 Y117.838 E75.76464
G1 X104.077 Y117.126 E75.98626
G1 X103.589 Y116.418 E76.19263
G1 X103.265 Y115.852 E76.34915
G1 X102.837 Y114.943 E76.59028
G1 X102.469 Y113.813 E76.8755
G1 X102.227 Y112.569 E77.17966
G1 X102.186 Y111.401 E77.46015
G1 X102.264 Y110.233 E77.7411
G1 X102.441 Y109.331 E77.96171
G1 X102.603 Y108.744 E78.10785
G1 X102.928 Y107.836 E78.33931
G1 X103.376 Y106.931 E78.58167
G1 X103.886 Y106.137 E78.80815
G1 X104.495 Y105.349 E79.04717
G1 X105.162 Y104.665 E79.27646
G0 F7200 X105.592 Y105.084
G1 F1320 X106.295 Y104.51 E79.49428
G1 X106.922 Y104.084 E79.6762
G1 X107.367 Y103.827 E79.79953
G1 X108.245 Y103.407 E80.03312
G1 X109.301 Y103.058 E80.30004
G1 X110.497 Y102.825 E80.59248
G1 X111.567 Y102.785 E80.84946
G1 X112.727 Y102.864 E81.1285
G1 X113.515 Y103.021 E81.32134
G1 X114.055 Y103.168 E81.45566
G1 X114.898 Y103.466 E81.67025
G1 X115.807 Y103.916 E81.91368
G1 X116.54 Y104.392 E82.12343
G1 X117.234 Y104.927 E82.33374
G1 X117.916 Y105.592 E82.56235
G1 X118.49 Y106.295 E82.78017
G1 X118.916 Y106.922 E82.9621
G1 X119.173 Y107.367 E83.08543
G1 X119.591 Y108.24 E83.31773
G1 X119.942 Y109.3 E83.58571
G1 X120.175 Y110.498 E83.87862
G1 X120.215 Y111.561 E84.13392
G1 X120.137 Y112.727 E84.41438
G1 X119.98 Y113.512 E84.60652
G1 X119.832 Y114.055 E84.74159
G1 X119.534 Y114.898 E84.95618
G1 X119.119 Y115.745 E85.18255
G1 X118.611 Y116.538 E85.40857
G1 X118.172 Y117.119 E85.58334
G1 X117.539 Y117.782 E85.80334
G1 X116.965 Y118.288 E85.98698
G1 X116.304 Y118.78 E86.18474
G1 X115.598 Y119.191 E86.3808
G1 X114.755 Y119.593 E86.60495
G1 X113.699 Y119.942 E86.87187
G1 X112.501 Y120.177 E87.16487
G1 X111.308 Y120.213 E87.45132
G1 X110.273 Y120.136 E87.70041
G1 X109.485 Y119.979 E87.89325
G1 X108.945 Y119.832 E88.02756
G1 X108.102 Y119.534 E88.24215
G1 X107.191 Y119.083 E88.48612
G1 X106.46 Y118.608 E88.69534
G1 X105.766 Y118.073 E88.90565
G1 X105.084 Y117.408 E89.13426
G1 X104.571 Y116.785 E89.32795
G1 X104.083 Y116.077 E89.53432
G1 X103.807 Y115.594 E89.66783
G1 X103.407 Y114.755 E89.89091
G1 X103.058 Y113.699 E90.15783
G1 X102.826 Y112.504 E90.44998
G1 X102.785 Y111.441 E90.70529
G1 X102.863 Y110.273 E90.98624
G1 X103.02 Y109.489 E91.17813
G1 X103.169 Y108.944 E91.31373
G1 X103.467 Y108.1 E91.52855
G1 X103.881 Y107.255 E91.75438
G1 X104.391 Y106.461 E91.98086
G1 X104.925 Y105.768 E92.19083
G1 X105.592 Y105.084 E92.42013
G0 F7200 X106.401 Y105.968
G1 F1320 X106.973 Y105.501 E92.59735
G1 X107.522 Y105.124 E92.75718
G1 X107.967 Y104.867 E92.88051
G1 X108.63 Y104.544 E93.05751
G1 X109.531 Y104.236 E93.28604
G1 X110.631 Y104.021 E93.55503
G1 X111.611 Y103.985 E93.79039
G1 X112.496 Y104.042 E94.00323
G1 X113.2 Y104.179 E94.17536
G1 X113.702 Y104.315 E94.30019
G1 X114.37 Y104.544 E94.46966
G1 X115.217 Y104.959 E94.69603
G1 X115.815 Y105.348 E94.86725
G1 X116.398 Y105.788 E95.04254
G1 X117.032 Y106.401 E95.2542
G1 X117.499 Y106.973 E95.43142
G1 X117.876 Y107.522 E95.59125
G1 X118.133 Y107.967 E95.71459
G1 X118.454 Y108.625 E95.8903
G1 X118.764 Y109.53 E96.11988
G1 X118.979 Y110.632 E96.38935
G1 X119.015 Y111.605 E96.62303
G1 X118.959 Y112.496 E96.83729
G1 X118.822 Y113.197 E97.00872
G1 X118.685 Y113.702 E97.1343
G1 X118.456 Y114.37 E97.30378
G1 X118.041 Y115.217 E97.53014
G1 X117.653 Y115.814 E97.70103
G1 X117.214 Y116.395 E97.87579
G1 X116.709 Y116.917 E98.05011
G1 X116.245 Y117.328 E98.19887
G1 X115.642 Y117.781 E98.37988
G1 X115.033 Y118.133 E98.5487
G1 X114.37 Y118.456 E98.7257
G1 X113.469 Y118.764 E98.95422
G1 X112.369 Y118.979 E99.22322
G1 X111.389 Y119.015 E99.45858
G1 X110.504 Y118.958 E99.67142
G1 X109.8 Y118.821 E99.84355
G1 X109.298 Y118.685 E99.96837
G1 X108.63 Y118.456 E100.13785
G1 X107.781 Y118.04 E100.36475
G1 X107.185 Y117.652 E100.53543
G1 X106.602 Y117.212 E100.71073
G1 X105.968 Y116.599 E100.92238
G1 X105.501 Y116.027 E101.09961
G1 X105.123 Y115.477 E101.25977
G1 X104.867 Y115.033 E101.38278
G1 X104.544 Y114.37 E101.55978
G1 X104.236 Y113.469 E101.7883
G1 X104.022 Y112.37 E102.05702
G1 X103.985 Y111.395 E102.29118
G1 X104.041 Y110.504 E102.50545
G1 X104.178 Y109.803 E102.67687
G1 X104.315 Y109.298 E102.80245
G1 X104.545 Y108.628 E102.97246
G1 X104.959 Y107.783 E103.19829
G1 X105.347 Y107.186 E103.36917
G1 X105.786 Y106.604 E103.54414
G1 X106.401 Y105.968 E103.75647
G0 F7200 X106.022 Y105.503
G1 F1320 X106.633 Y105.006 E103.94549
G1 X107.222 Y104.604 E104.11664
G1 X107.667 Y104.347 E104.23997
G1 X108.436 Y103.976 E104.44489
G1 X109.416 Y103.647 E104.69299
G1 X110.564 Y103.423 E104.9737
G1 X111.589 Y103.385 E105.21987
G1 X112.611 Y103.453 E105.46569
G1 X113.357 Y103.6 E105.64818
G1 X113.897 Y103.747 E105.78249
G1 X114.634 Y104.005 E105.9699
G1 X115.481 Y104.42 E106.19627
G1 X116.176 Y104.869 E106.39485
G1 X116.815 Y105.357 E106.58782
G1 X117.497 Y106.022 E106.81643
G1 X117.994 Y106.633 E107.00545
G1 X118.396 Y107.222 E107.1766
G1 X118.653 Y107.667 E107.29993
G1 X119.022 Y108.431 E107.50356
G1 X119.353 Y109.415 E107.75272
G1 X119.577 Y110.565 E108.03391
G1 X119.615 Y111.583 E108.2784
G1 X119.548 Y112.611 E108.52564
G1 X119.401 Y113.354 E108.70742
G1 X119.253 Y113.897 E108.84249
G1 X118.995 Y114.634 E109.0299
G1 X118.58 Y115.481 E109.25627
G1 X118.132 Y116.176 E109.45472
G1 X117.693 Y116.757 E109.62949
G1 X117.107 Y117.366 E109.83232
G1 X116.605 Y117.808 E109.99285
G1 X116.002 Y118.261 E110.17386
G1 X115.296 Y118.672 E110.36992
G1 X114.564 Y119.024 E110.56485
G1 X113.584 Y119.353 E110.81295
G1 X112.435 Y119.578 E111.09395
G1 X111.35 Y119.614 E111.35449
G1 X110.389 Y119.547 E111.58569
G1 X109.643 Y119.4 E111.76818
G1 X109.103 Y119.253 E111.90249
G1 X108.366 Y118.995 E112.0899
G1 X107.517 Y118.579 E112.3168
G1 X106.824 Y118.131 E112.51485
G1 X106.185 Y117.643 E112.70782
G1 X105.503 Y116.978 E112.93643
G1 X105.036 Y116.406 E113.11365
G1 X104.603 Y115.777 E113.29692
G1 X104.347 Y115.333 E113.41993
G1 X103.976 Y114.564 E113.62484
G1 X103.647 Y113.584 E113.87294
G1 X103.424 Y112.437 E114.15338
G1 X103.385 Y111.418 E114.39812
G1 X103.452 Y110.389 E114.6456
G1 X103.599 Y109.646 E114.82738
G1 X103.736 Y109.141 E114.95296
G1 X104.006 Y108.364 E115.15038
G1 X104.42 Y107.519 E115.37621
G1 X104.868 Y106.825 E115.57446
G1 X105.355 Y106.187 E115.76709
G1 X106.022 Y105.503 E115.99638
G10
;MESH:Pi??ce2.STL
G0 F7200 X104.914 Y106.895
G0 X104.071 Y108.409
G0 X103.669 Y109.697
G0 X103.464 Y111.374
G0 X103.725 Y113.584
G0 X104.69 Y115.765
G0 X105.57 Y116.938
G0 X107.541 Y118.504
G0 X109.694 Y119.33
G0 X111.368 Y119.536
G0 X111.5 Y118.407
;TYPE:WALL-OUTER
G11
G1 F1140 X112.112 Y118.384 E116.15806
G1 X112.627 Y118.324 E116.29494
G1 X113.524 Y118.107 E116.53858
