;FLAVOR:UltiGCode
;TIME:1842
;MATERIAL:2363
;MATERIAL2:0
;NOZZLE_DIAMETER:0.6
;MINX:101.186
;MINY:85.588
;MINZ:0.4
;MAXX:121.82
;MAXY:139.456
;MAXZ:21.95
;TARGET_MACHINE.NAME:Ultimaker 2+
;Generated with Cura_SteamEngine 5.10.0
G0 F3000 Y50 ;avoid prime blob
M104 S230 ; Régler la température de l'extrudeur à 230°C
M140 S58 ; Régle la température du plateau à 58°C
M221 S100 ; Augmente le material flow de +x%
M82 ;absolute extrusion mode
G92 E0
G92 E0
G10
;LAYER_COUNT:138
;LAYER:0
M107
G1 F600 Z1.4
G0 F7200 X104.312 Y87.857 Z1.4
;TYPE:SKIRT
G1 F600 Z0.4
G11
G1 F1320 X106.111 Y86.543 E0.53467
G1 X108.883 Y85.649 E1.23369
G1 X110.613 Y85.588 E1.64915
G1 X113.031 Y85.821 E2.23216
G1 X114.477 Y86.151 E2.58812
G1 X117.559 Y87.37 E3.38355
G1 X121.009 Y90.987 E4.5832
G1 X121.76 Y96.846 E6.00086
G1 X119.082 Y100.965 E7.17999
G1 X120.065 Y101.96 E7.51567
G1 X120.714 Y103.224 E7.85668
G1 X121.808 Y106.916 E8.78085
G1 X120.747 Y110.518 E9.68205
G1 X119.093 Y112.754 E10.34955
G1 X119.878 Y113.307 E10.58001
G1 X121.803 Y118.312 E11.86699
G1 X120.941 Y121.998 E12.7755
G1 X119.117 Y124.972 E13.61281
G1 X120.448 Y126.159 E14.04082
G1 X121.82 Y131.205 E15.29583
G1 X120.475 Y135.145 E16.29501
G1 X117.815 Y137.989 E17.22959
G1 X114.66 Y139.246 E18.04468
G1 X112.297 Y139.456 E18.61403
G1 X109.716 Y139.225 E19.23595
G1 X106.87 Y138.245 E19.95835
G1 X104.665 Y136.802 E20.5908
G1 X103.201 Y135.303 E21.09367
G1 X101.186 Y131.423 E22.14296
G1 X101.852 Y127.769 E23.03436
G1 X103.141 Y124.713 E23.83038
G1 X103.722 Y123.902 E24.06981
G1 X101.384 Y120.575 E25.04573
G1 X101.658 Y116.468 E26.03361
G1 X102.395 Y114.043 E26.64189
G1 X103.912 Y112.266 E27.20264
G1 X101.494 Y108.53 E28.27069
G1 X101.647 Y102.727 E29.66389
G1 X103.944 Y100.291 E30.46746
G1 X102.371 Y97.865 E31.16138
G1 X101.623 Y95.835 E31.6806
G1 X101.441 Y91.196 E32.79482
G1 X104.312 Y87.857 E33.85168
G0 F7200 X104.723 Y88.3
G1 F1320 X106.386 Y87.085 E34.34597
G1 X108.986 Y86.246 E35.00166
G1 X110.634 Y86.188 E35.39742
G1 X112.897 Y86.406 E35.94305
G1 X114.299 Y86.726 E36.28819
G1 X117.217 Y87.88 E37.04128
G1 X120.439 Y91.259 E38.16183
G1 X121.137 Y96.704 E39.47932
G1 X118.316 Y101.042 E40.72122
G1 X119.572 Y102.315 E41.15042
G1 X120.155 Y103.45 E41.45665
G1 X121.182 Y106.915 E42.32401
G1 X120.2 Y110.248 E43.15793
G1 X118.671 Y112.315 E43.77498
G1 X118.112 Y112.798 E43.95228
G1 X119.384 Y113.693 E44.32556
G1 X121.177 Y118.355 E45.52434
G1 X120.379 Y121.767 E46.36531
G1 X118.343 Y125.086 E47.29981
G1 X119.915 Y126.488 E47.80534
G1 X121.193 Y131.185 E48.9736
G1 X119.948 Y134.83 E49.89802
G1 X117.468 Y137.482 E50.76944
G1 X114.522 Y138.656 E51.53055
G1 X112.297 Y138.853 E52.06664
G1 X109.839 Y138.633 E52.65892
G1 X107.136 Y137.702 E53.34504
G1 X105.048 Y136.336 E53.94387
G1 X103.693 Y134.948 E54.40941
G1 X101.813 Y131.328 E55.38839
G1 X102.43 Y127.943 E56.21417
G1 X103.668 Y125.007 E56.97889
G1 X104.085 Y124.425 E57.15073
G1 X104.572 Y124.069 E57.2955
G1 X101.997 Y120.404 E58.3705
G1 X102.252 Y116.576 E59.29126
G1 X102.933 Y114.336 E59.85315
G1 X104.789 Y112.161 E60.53938
G1 X104.312 Y111.779 E60.68604
G1 X102.099 Y108.36 E61.66349
G1 X102.241 Y102.972 E62.95706
G1 X104.831 Y100.225 E63.86317
G1 X104.393 Y99.881 E63.99684
G1 X102.911 Y97.594 E64.65088
G1 X102.219 Y95.717 E65.131
G1 X102.05 Y91.407 E66.1662
G1 X104.723 Y88.3 E67.14986
G0 F7200 X105.134 Y88.743
G1 F1320 X106.661 Y87.627 E67.60378
G1 X109.089 Y86.843 E68.21613
G1 X110.655 Y86.788 E68.5922
G1 X112.763 Y86.991 E69.10046
G1 X114.121 Y87.301 E69.43476
G1 X116.874 Y88.39 E70.1453
G1 X119.869 Y91.531 E71.1869
G1 X120.514 Y96.562 E72.40423
G1 X117.851 Y100.656 E73.57636
G1 X117.322 Y100.888 E73.71499
G1 X119.079 Y102.669 E74.31543
G1 X119.596 Y103.676 E74.5871
G1 X120.556 Y106.914 E75.39765
G1 X119.653 Y109.978 E76.16428
G1 X118.228 Y111.905 E76.73948
G1 X117.138 Y112.847 E77.08524
G1 X118.89 Y114.079 E77.59927
G1 X120.551 Y118.398 E78.70984
G1 X119.817 Y121.536 E79.48329
G1 X117.916 Y124.635 E80.35583
G1 X117.258 Y124.922 E80.52812
G1 X119.384 Y126.818 E81.21179
G1 X120.566 Y131.165 E82.29295
G1 X119.421 Y134.515 E83.14262
G1 X117.121 Y136.975 E83.95087
G1 X114.39 Y138.065 E84.65659
G1 X112.297 Y138.25 E85.16087
G1 X109.962 Y138.041 E85.72351
G1 X107.404 Y137.16 E86.37282
G1 X105.43 Y135.868 E86.93903
G1 X104.185 Y134.593 E87.36672
G1 X102.44 Y131.233 E88.27539
G1 X103.008 Y128.117 E89.03555
G1 X104.195 Y125.301 E89.76898
G1 X104.516 Y124.854 E89.90106
G1 X105.541 Y124.103 E90.20602
G1 X105.132 Y123.822 E90.32511
G1 X102.61 Y120.233 E91.37787
G1 X102.847 Y116.682 E92.23201
G1 X103.471 Y114.629 E92.74699
G1 X105.18 Y112.626 E93.37891
G1 X105.909 Y112.197 E93.58191
G1 X104.816 Y111.453 E93.89924
G1 X102.704 Y108.19 E94.83209
G1 X102.835 Y103.218 E96.02578
G1 X105.55 Y100.338 E96.9757
G1 X105.831 Y100.148 E97.05711
G1 X104.896 Y99.555 E97.32283
G1 X103.452 Y97.327 E97.96004
G1 X102.815 Y95.599 E98.40204
G1 X102.659 Y91.619 E99.35797
G1 X105.134 Y88.743 E100.26861
G0 F7200 X105.545 Y89.186
G1 F1320 X106.936 Y88.169 E100.68216
G1 X109.192 Y87.44 E101.25117
G1 X110.676 Y87.388 E101.60755
G1 X112.629 Y87.576 E102.07843
G1 X113.943 Y87.876 E102.40191
G1 X116.531 Y88.9 E103.06988
G1 X119.299 Y91.803 E104.03256
G1 X119.891 Y96.42 E105.14971
G1 X117.432 Y100.2 E106.23197
G1 X116.089 Y100.729 E106.5784
G1 X116.56 Y100.969 E106.70527
G1 X118.586 Y103.023 E107.39768
G1 X119.038 Y103.903 E107.63511
G1 X119.93 Y106.913 E108.38857
G1 X119.107 Y109.708 E109.08784
G1 X117.787 Y111.492 E109.62046
G1 X116.661 Y112.466 E109.97777
G1 X115.97 Y112.759 E110.15791
G1 X118.396 Y114.465 E110.8697
G1 X119.925 Y118.441 E111.89206
G1 X119.255 Y121.305 E112.59798
G1 X117.487 Y124.187 E113.40944
G1 X115.957 Y124.791 E113.80422
G1 X116.588 Y125.129 E113.97602
G1 X118.852 Y127.147 E114.7039
G1 X119.939 Y131.145 E115.69825
G1 X118.894 Y134.2 E116.47316
G1 X116.774 Y136.467 E117.21807
G1 X114.251 Y137.475 E117.87013
G1 X112.297 Y137.647 E118.3409
G1 X110.085 Y137.449 E118.87391
G1 X107.672 Y136.618 E119.48641
G1 X105.812 Y135.4 E120.02
G1 X104.677 Y134.238 E120.40984
G1 X103.067 Y131.138 E121.2482
G1 X103.586 Y128.291 E121.94274
G1 X104.748 Y125.534 E122.66079
G1 X104.946 Y125.283 E122.73752
G1 X105.668 Y124.754 E122.95233
G1 X107.011 Y124.201 E123.3009
G1 X105.623 Y123.477 E123.67662
G1 X103.223 Y120.062 E124.67838
G1 X103.442 Y116.788 E125.46589
G1 X104.009 Y114.922 E125.93395
G1 X105.569 Y113.094 E126.51071
G1 X107.029 Y112.234 E126.91738
G1 X105.254 Y111.025 E127.43281
G1 X103.309 Y108.02 E128.2919
G1 X103.429 Y103.464 E129.38572
G1 X105.987 Y100.75 E130.2808
G1 X106.994 Y100.174 E130.55922
G1 X105.329 Y99.119 E131.03229
G1 X103.992 Y97.056 E131.62229
G1 X103.411 Y95.481 E132.02519
G1 X103.268 Y91.831 E132.90186
G1 X105.545 Y89.186 E133.73949
G0 F7200 X105.955 Y89.629
G1 F1320 X107.211 Y88.711 E134.11286
G1 X109.296 Y88.037 E134.63876
G1 X110.697 Y87.988 E134.9752
G1 X112.495 Y88.161 E135.40871
G1 X113.765 Y88.451 E135.72136
G1 X116.188 Y89.41 E136.34677
G1 X118.729 Y92.075 E137.23051
G1 X119.268 Y96.278 E138.24749
G1 X117.034 Y99.712 E139.2307
G1 X114.45 Y100.729 E139.89717
G1 X116.133 Y101.39 E140.33112
G1 X118.093 Y103.377 E141.00097
G1 X118.479 Y104.129 E141.20383
G1 X119.304 Y106.912 E141.90048
G1 X118.56 Y109.438 E142.53247
G1 X117.346 Y111.079 E143.02237
G1 X116.337 Y111.952 E143.34259
G1 X114.472 Y112.742 E143.82869
G1 X115.399 Y113.091 E144.06642
G1 X117.902 Y114.851 E144.80078
G1 X119.299 Y118.484 E145.73494
G1 X118.693 Y121.074 E146.37333
G1 X117.08 Y123.703 E147.11358
G1 X114.533 Y124.708 E147.77072
G1 X116.242 Y125.624 E148.23608
G1 X118.319 Y127.476 E148.90395
G1 X119.312 Y131.125 E149.81156
G1 X118.368 Y133.885 E150.51163
G1 X116.427 Y135.959 E151.19337
G1 X114.111 Y136.885 E151.792
G1 X112.298 Y137.044 E152.22879
G1 X110.208 Y136.857 E152.73239
G1 X107.94 Y136.076 E153.30808
G1 X106.193 Y134.932 E153.80926
G1 X105.169 Y133.884 E154.16091
G1 X103.694 Y131.043 E154.92917
G1 X104.164 Y128.465 E155.55809
G1 X105.301 Y125.767 E156.26076
G1 X105.963 Y125.282 E156.45771
G1 X108.431 Y124.265 E157.09835
G1 X106.03 Y123.012 E157.74834
G1 X103.836 Y119.891 E158.66394
G1 X104.036 Y116.896 E159.38434
G1 X104.547 Y115.215 E159.80601
G1 X105.959 Y113.56 E160.32813
G1 X107.944 Y112.391 E160.88101
G1 X108.344 Y112.243 E160.98337
G1 X107.828 Y112.052 E161.11542
G1 X105.692 Y110.597 E161.73569
G1 X103.914 Y107.85 E162.52102
G1 X104.023 Y103.71 E163.51496
G1 X106.364 Y101.226 E164.33415
G1 X107.343 Y100.666 E164.60484
G1 X108.54 Y100.283 E164.90646
G1 X107.983 Y100.091 E165.04786
G1 X105.76 Y98.682 E165.67952
G1 X104.533 Y96.789 E166.22094
G1 X104.007 Y95.363 E166.58572
G1 X103.877 Y92.043 E167.38313
G1 X105.955 Y89.629 E168.14757
G0 F7200 X106.365 Y90.072
G1 F1320 X107.486 Y89.253 E168.48077
G1 X109.4 Y88.634 E168.96355
G1 X110.718 Y88.588 E169.28007
G1 X112.361 Y88.746 E169.6762
G1 X113.587 Y89.026 E169.97802
G1 X115.845 Y89.92 E170.56087
G1 X118.159 Y92.347 E171.36567
G1 X118.645 Y96.136 E172.28248
G1 X116.636 Y99.224 E173.16664
G1 X113.861 Y100.316 E173.88235
G1 X112.027 Y100.427 E174.32332
G1 X110.219 Y100.228 E174.75986
G1 X108.246 Y99.547 E175.26079
G1 X106.192 Y98.245 E175.84445
G1 X105.073 Y96.52 E176.33792
G1 X104.603 Y95.245 E176.66405
G1 X104.486 Y92.255 E177.3822
G1 X106.365 Y90.072 E178.07347
G10
G1 F600 Z1.4
G0 F7200 X109.415 Y100.634 Z1.4
G1 F600 Z0.4
G11
G1 F1320 X110.715 Y100.588 E178.38567
G1 X112.34 Y100.74 E178.77737
G1 X113.497 Y100.998 E179.06187
G1 X115.795 Y101.901 E179.65444
G1 X117.6 Y103.731 E180.27134
G1 X117.92 Y104.355 E180.43964
G1 X118.678 Y106.911 E181.07949
G1 X118.013 Y109.168 E181.64419
G1 X116.903 Y110.669 E182.09223
G1 X116.015 Y111.437 E182.374
G1 X113.953 Y112.311 E182.9115
G1 X111.995 Y112.427 E183.38225
G1 X110.269 Y112.227 E183.79926
G1 X108.166 Y111.556 E184.32905
G1 X106.13 Y110.169 E184.9203
G1 X104.519 Y107.68 E185.63187
G1 X104.617 Y103.955 E186.52618
G1 X106.739 Y101.703 E187.2688
G1 X107.585 Y101.219 E187.50272
G1 X109.415 Y100.634 E187.96381
G0 F7200 X110.353 Y99.64
G1 F1320 X108.509 Y99.003 E188.43203
G1 X106.624 Y97.809 E188.96755
G1 X105.613 Y96.249 E189.4137
G1 X105.199 Y95.127 E189.70073
G1 X105.095 Y92.467 E190.33962
G1 X106.773 Y90.517 E190.95704
G1 X107.763 Y89.794 E191.25125
G1 X109.504 Y89.231 E191.6904
G1 X110.739 Y89.188 E191.98698
G1 X112.228 Y89.331 E192.34598
G1 X113.407 Y89.6 E192.63621
G1 X115.502 Y90.43 E193.17704
G1 X117.589 Y92.619 E193.9029
G1 X118.022 Y95.994 E194.71954
G1 X116.238 Y98.736 E195.50465
G1 X113.731 Y99.723 E196.15128
G1 X112.039 Y99.825 E196.5581
G1 X110.353 Y99.64 E196.96516
G0 F7200 X110.487 Y99.051
G1 F1320 X108.772 Y98.459 E197.4006
G1 X107.056 Y97.372 E197.88811
G1 X106.153 Y95.98 E198.28633
G1 X105.795 Y95.009 E198.5347
G1 X105.704 Y92.679 E199.09433
G1 X107.184 Y90.96 E199.63873
G1 X108.038 Y90.335 E199.89272
G1 X109.607 Y89.828 E200.28845
G1 X110.76 Y89.788 E200.56533
G1 X112.094 Y89.916 E200.88696
G1 X113.228 Y90.175 E201.16613
G1 X115.159 Y90.94 E201.66462
G1 X117.019 Y92.891 E202.31155
G1 X117.399 Y95.852 E203.02802
G1 X115.84 Y98.247 E203.71387
G1 X113.61 Y99.129 E204.28941
G1 X112.051 Y99.223 E204.66425
G1 X110.487 Y99.051 E205.04187
G0 F7200 X110.62 Y98.462
G1 F1320 X109.034 Y97.915 E205.44451
G1 X107.488 Y96.936 E205.88369
G1 X106.693 Y95.709 E206.23458
G1 X106.391 Y94.891 E206.44385
G1 X106.313 Y92.892 E206.92398
G1 X107.597 Y91.401 E207.39622
G1 X108.314 Y90.876 E207.6095
G1 X109.71 Y90.425 E207.96159
G1 X110.781 Y90.388 E208.21878
G1 X111.961 Y90.501 E208.50328
G1 X113.048 Y90.749 E208.77086
G1 X114.816 Y91.45 E209.22732
G1 X116.449 Y93.163 E209.79531
G1 X116.776 Y95.71 E210.41161
G1 X115.441 Y97.76 E210.99874
G1 X113.489 Y98.535 E211.50279
G1 X112.063 Y98.621 E211.84565
G1 X110.62 Y98.462 E212.19407
G0 F7200 X110.754 Y97.874
G1 F1320 X109.296 Y97.371 E212.56423
G1 X107.92 Y96.499 E212.9552
G1 X107.233 Y95.44 E213.25815
G1 X106.987 Y94.773 E213.42877
G1 X106.922 Y93.105 E213.8294
G1 X108.01 Y91.842 E214.22948
G1 X108.589 Y91.418 E214.40172
G1 X109.814 Y91.022 E214.7107
G1 X110.802 Y90.988 E214.94796
G1 X111.827 Y91.086 E215.19508
G1 X112.869 Y91.324 E215.4516
G1 X114.473 Y91.96 E215.86572
G1 X115.879 Y93.435 E216.35478
G1 X116.153 Y95.567 E216.87067
G1 X115.041 Y97.274 E217.35961
G1 X113.367 Y97.941 E217.79208
G1 X112.075 Y98.019 E218.10273
G1 X110.754 Y97.874 E218.42167
G0 F7200 X110.887 Y97.285
G1 F1320 X109.559 Y96.827 E218.75881
G1 X108.352 Y96.062 E219.10178
G1 X107.773 Y95.17 E219.357
G1 X107.583 Y94.655 E219.48875
G1 X107.531 Y93.317 E219.81011
G1 X108.419 Y92.287 E220.13649
G1 X108.866 Y91.959 E220.26956
G1 X109.918 Y91.619 E220.5349
G1 X110.823 Y91.588 E220.75222
G1 X111.693 Y91.671 E220.96197
G1 X112.69 Y91.899 E221.20743
G1 X114.13 Y92.47 E221.57921
G1 X115.309 Y93.707 E221.98934
G1 X115.53 Y95.424 E222.40481
G1 X114.642 Y96.787 E222.79523
G1 X113.245 Y97.347 E223.15645
G1 X112.087 Y97.417 E223.43488
G1 X110.887 Y97.285 E223.72461
G0 F7200 X111.019 Y96.696
G1 F1320 X109.823 Y96.284 E224.02821
G1 X108.784 Y95.625 E224.3235
G1 X108.276 Y94.843 E224.5473
G1 X108.179 Y94.539 E224.62388
G1 X108.14 Y93.529 E224.86646
G1 X108.873 Y92.679 E225.13584
G1 X109.142 Y92.5 E225.21339
G1 X110.021 Y92.216 E225.43509
G1 X110.843 Y92.188 E225.63248
G1 X111.559 Y92.256 E225.80509
G1 X112.511 Y92.474 E226.03949
G1 X113.787 Y92.98 E226.36893
G1 X114.739 Y93.979 E226.70012
G1 X114.907 Y95.281 E227.01519
G1 X114.241 Y96.302 E227.30775
G1 X113.123 Y96.753 E227.59708
G1 X112.099 Y96.815 E227.84329
G1 X111.019 Y96.696 E228.10406
G0 F7200 X111.287 Y95.52
G1 F1320 X110.349 Y95.196 E228.34223
G1 X109.645 Y94.75 E228.54225
G1 X109.358 Y94.358 E228.65884
G1 X109.328 Y93.988 E228.74794
G1 X109.671 Y93.591 E228.87385
G1 X110.232 Y93.409 E229.0154
G1 X110.802 Y93.385 E229.15232
G1 X111.437 Y93.45 E229.30552
G1 X112.109 Y93.606 E229.47109
G1 X113.101 Y94 E229.72726
G1 X113.625 Y94.549 E229.9094
G1 X113.666 Y95.035 E230.02646
G1 X113.443 Y95.331 E230.1154
G1 X112.878 Y95.565 E230.26217
G1 X112.121 Y95.611 E230.44418
G1 X111.287 Y95.52 E230.64553
G0 F7200 X111.153 Y96.108
G1 F1320 X110.086 Y95.74 E230.91642
G1 X109.216 Y95.188 E231.1637
G1 X108.779 Y94.516 E231.35608
G1 X108.749 Y93.741 E231.54222
G1 X109.327 Y93.071 E231.75459
G1 X110.125 Y92.813 E231.95587
G1 X110.863 Y92.788 E232.13309
G1 X111.498 Y92.853 E232.28629
G1 X112.33 Y93.048 E232.49138
G1 X113.444 Y93.49 E232.77901
G1 X114.169 Y94.251 E233.03127
G1 X114.284 Y95.138 E233.24593
G1 X113.841 Y95.817 E233.44051
G1 X113.001 Y96.159 E233.65818
G1 X112.11 Y96.213 E233.87241
G1 X111.153 Y96.108 E234.10347
G10
G1 F600 Z1.4
G0 F7200 X109.025 Y112.646 Z1.4
G1 F600 Z0.4
G11
G1 F1320 X110.722 Y112.588 E234.51098
G1 X112.363 Y112.745 E234.90662
G1 X113.493 Y113.016 E235.18551
G1 X115.117 Y113.626 E235.60186
G1 X117.408 Y115.237 E236.27403
G1 X118.673 Y118.527 E237.11999
G1 X118.131 Y120.843 E237.69085
G1 X116.673 Y123.219 E238.35989
G1 X113.906 Y124.31 E239.07372
G1 X112.145 Y124.43 E239.49734
G1 X110.341 Y124.256 E239.93231
G1 X108.647 Y123.7 E240.36021
G1 X106.437 Y122.547 E240.95846
G1 X104.449 Y119.72 E241.7879
G1 X104.631 Y117.002 E242.44168
G1 X105.085 Y115.508 E242.81643
G1 X106.348 Y114.028 E243.28339
G1 X108.249 Y112.908 E243.81293
G1 X109.025 Y112.646 E244.0095
G0 F7200 X110.397 Y111.638
G1 F1320 X108.432 Y111.011 E244.50452
G1 X106.568 Y109.741 E245.04585
G1 X105.124 Y107.51 E245.68366
G1 X105.211 Y104.2 E246.47833
G1 X107.116 Y102.179 E247.14489
G1 X107.827 Y101.772 E247.34151
G1 X109.52 Y101.231 E247.76807
G1 X110.736 Y101.188 E248.06009
G1 X112.21 Y101.326 E248.4154
G1 X113.324 Y101.574 E248.6893
G1 X115.458 Y102.413 E249.23962
G1 X117.109 Y104.087 E249.80391
G1 X117.345 Y104.526 E249.92353
G1 X118.052 Y106.911 E250.52055
G1 X117.467 Y108.898 E251.01767
G1 X116.462 Y110.256 E251.42313
G1 X115.691 Y110.923 E251.6678
G1 X113.816 Y111.718 E252.15658
G1 X112.011 Y111.825 E252.59054
G1 X110.397 Y111.638 E252.98049
G0 F7200 X110.525 Y111.049
G1 F1320 X108.698 Y110.466 E253.44076
G1 X107.006 Y109.313 E253.93216
G1 X105.729 Y107.34 E254.49621
G1 X105.805 Y104.446 E255.19101
G1 X107.493 Y102.655 E255.78167
