;FLAVOR:UltiGCode
;TIME:2164
;MATERIAL:9617
;MATERIAL2:0
;NOZZLE_DIAMETER:0.6
;MINX:84.615
;MINY:87.516
;MINZ:0.4
;MAXX:138.384
;MAXY:134.685
;MAXZ:20.05
;TARGET_MACHINE.NAME:Ultimaker 2+
;Generated with Cura_SteamEngine 5.10.0
G0 F3000 Y50 ;avoid prime blob
M104 S230 ; Régler la température de l'extrudeur à 230°C
M140 S58 ; Régle la température du plateau à 58°C
M42 P8 S255 ; Allume les LED à pleine 100%
M82 ;absolute extrusion mode
G92 E0
G92 E0
G10
;LAYER_COUNT:132
;LAYER:0
M107
G0 F7200 X86.985 Y88.57 Z0.4
;TYPE:SKIRT
G11
G1 F2400 X88.557 Y87.776 E0.42267
G1 X90.137 Y87.517 E0.80693
G1 X133.462 Y87.516 E11.20493
G1 X135.321 Y88.142 E11.67571
G1 X136.761 Y89.208 E12.1057
G1 X137.768 Y90.612 E12.52037
G1 X138.177 Y91.778 E12.81693
G1 X138.384 Y93.039 E13.12362
G1 X138.361 Y109.107 E16.97995
G1 X137.948 Y112.012 E17.68416
G1 X137.652 Y114.62 E18.31409
G1 X137.422 Y117.32 E18.96444
G1 X137.274 Y119.932 E19.59233
G1 X137.194 Y122.712 E20.2598
G1 X137.185 Y124.026 E20.57517
G1 X137.185 Y129.101 E21.79317
G1 X136.904 Y130.811 E22.20907
G1 X136.078 Y132.388 E22.63633
G1 X134.813 Y133.632 E23.06214
G1 X133.228 Y134.427 E23.4877
G1 X131.661 Y134.684 E23.86881
G1 X91.388 Y134.685 E33.53433
G1 X89.707 Y134.411 E33.94309
G1 X88.12 Y133.585 E34.37247
G1 X86.869 Y132.317 E34.79997
G1 X86.075 Y130.746 E35.22243
G1 X85.816 Y129.159 E35.60835
G1 X85.815 Y124.063 E36.83139
G1 X85.775 Y121.305 E37.49338
G1 X85.664 Y118.726 E38.11291
G1 X85.47 Y115.982 E38.77312
G1 X85.208 Y113.324 E39.41413
G1 X84.813 Y110.312 E40.1432
G1 X84.641 Y109.136 E40.42844
G1 X84.615 Y92.436 E44.43645
G1 X85.139 Y90.879 E44.83072
G1 X85.747 Y89.791 E45.12985
G1 X86.985 Y88.57 E45.54716
G0 F7200 X87.338 Y89.064
G1 F2400 X88.746 Y88.353 E45.92572
G1 X90.185 Y88.117 E46.2757
G1 X133.363 Y88.116 E56.63842
G1 X135.041 Y88.681 E57.06335
G1 X136.327 Y89.633 E57.44736
G1 X137.231 Y90.894 E57.81974
G1 X137.594 Y91.927 E58.08252
G1 X137.784 Y93.087 E58.36463
G1 X137.767 Y109.023 E62.18927
G1 X137.354 Y111.928 E62.89348
G1 X137.054 Y114.569 E63.5314
G1 X136.824 Y117.269 E64.18174
G1 X136.674 Y119.915 E64.8178
G1 X136.594 Y122.695 E65.48528
G1 X136.585 Y124.022 E65.80377
G1 X136.585 Y129.053 E67.01121
G1 X136.328 Y130.617 E67.3916
G1 X135.59 Y132.026 E67.77334
G1 X134.458 Y133.139 E68.15434
G1 X133.041 Y133.85 E68.53483
G1 X131.613 Y134.084 E68.88212
G1 X91.435 Y134.085 E78.52484
G1 X89.899 Y133.835 E78.89833
G1 X88.48 Y133.096 E79.28231
G1 X87.364 Y131.965 E79.66364
G1 X86.652 Y130.556 E80.04253
G1 X86.416 Y129.111 E80.39392
G1 X86.415 Y124.063 E81.60544
G1 X86.375 Y121.296 E82.26959
G1 X86.263 Y118.684 E82.89705
G1 X86.069 Y115.94 E83.55725
G1 X85.805 Y113.265 E84.20237
G1 X85.408 Y110.234 E84.93602
G1 X85.235 Y109.049 E85.22344
G1 X85.215 Y92.535 E89.1868
G1 X85.691 Y91.123 E89.54442
G1 X86.231 Y90.156 E89.81023
G1 X87.338 Y89.064 E90.18343
G0 F7200 X87.691 Y89.558
G1 F2400 X88.935 Y88.93 E90.51787
G1 X90.233 Y88.717 E90.83356
G1 X133.263 Y88.716 E101.16076
G1 X134.762 Y89.221 E101.54039
G1 X135.894 Y90.059 E101.87841
G1 X136.693 Y91.174 E102.20762
G1 X137.002 Y92.024 E102.42468
G1 X137.184 Y93.135 E102.69488
G1 X137.173 Y108.939 E106.48784
G1 X136.76 Y111.844 E107.19205
G1 X136.456 Y114.518 E107.83794
G1 X136.226 Y117.218 E108.48829
G1 X136.074 Y119.898 E109.13252
G1 X135.994 Y122.678 E109.8
G1 X135.985 Y124.018 E110.12161
G1 X135.985 Y129.005 E111.31849
G1 X135.752 Y130.423 E111.66337
G1 X135.102 Y131.664 E111.99959
G1 X134.103 Y132.646 E112.33579
G1 X132.854 Y133.273 E112.6712
G1 X131.565 Y133.484 E112.98468
G1 X91.483 Y133.485 E122.60436
G1 X90.09 Y133.258 E122.94309
G1 X88.84 Y132.607 E123.28134
G1 X87.859 Y131.613 E123.61651
G1 X87.229 Y130.366 E123.95182
G1 X87.016 Y129.063 E124.26869
G1 X87.015 Y124.063 E125.46869
G1 X86.975 Y121.287 E126.135
G1 X86.862 Y118.642 E126.77038
G1 X86.668 Y115.898 E127.43058
G1 X86.402 Y113.206 E128.07981
G1 X86.003 Y110.156 E128.81804
G1 X85.829 Y108.962 E129.10763
G1 X85.815 Y92.635 E133.02611
G1 X86.26 Y91.315 E133.36043
G1 X86.714 Y90.522 E133.57973
G1 X87.691 Y89.558 E133.90914
G0 F7200 X88.046 Y90.051
G1 F2400 X89.124 Y89.507 E134.19894
G1 X90.281 Y89.317 E134.48033
G1 X133.163 Y89.316 E144.77201
G1 X134.483 Y89.761 E145.10633
G1 X135.459 Y90.484 E145.39784
G1 X136.157 Y91.457 E145.68523
G1 X136.41 Y92.121 E145.85577
G1 X136.584 Y93.183 E146.11405
G1 X136.579 Y108.855 E149.87533
G1 X136.166 Y111.76 E150.57954
G1 X135.858 Y114.467 E151.23341
G1 X135.628 Y117.167 E151.88376
G1 X135.474 Y119.881 E152.53617
G1 X135.394 Y122.661 E153.20364
G1 X135.385 Y124.014 E153.52837
G1 X135.385 Y128.957 E154.71469
G1 X135.176 Y130.229 E155.02406
G1 X134.614 Y131.302 E155.31477
G1 X133.748 Y132.153 E155.60616
G1 X132.667 Y132.696 E155.89649
G1 X131.517 Y132.884 E156.17616
G1 X91.531 Y132.885 E165.7728
G1 X90.281 Y132.681 E166.07677
G1 X89.202 Y132.119 E166.36875
G1 X88.353 Y131.259 E166.65878
G1 X87.806 Y130.176 E166.94997
G1 X87.616 Y129.015 E167.23232
G1 X87.615 Y124.063 E168.4208
G1 X87.575 Y121.278 E169.08927
G1 X87.461 Y118.6 E169.73257
G1 X87.267 Y115.856 E170.39277
G1 X86.999 Y113.147 E171.04611
G1 X86.598 Y110.078 E171.78893
G1 X86.423 Y108.876 E172.08045
G1 X86.415 Y92.735 E175.95429
G1 X86.829 Y91.507 E176.26531
G1 X87.193 Y90.893 E176.43662
G1 X88.046 Y90.051 E176.72428
G0 F7200 X88.399 Y90.545
G1 F2400 X89.313 Y90.084 E176.96996
G1 X90.329 Y89.917 E177.21707
G1 X133.063 Y89.916 E187.47323
G1 X134.204 Y90.301 E187.76224
G1 X135.027 Y90.91 E188.00796
G1 X135.624 Y91.742 E188.25372
G1 X135.818 Y92.218 E188.37709
G1 X135.984 Y93.231 E188.62345
G1 X135.985 Y108.771 E192.35305
G1 X135.572 Y111.676 E193.05726
G1 X135.26 Y114.416 E193.71911
G1 X135.03 Y117.116 E194.36946
G1 X134.874 Y119.864 E195.03004
G1 X134.794 Y122.644 E195.69751
G1 X134.785 Y124.01 E196.02536
G1 X134.785 Y128.909 E197.20112
G1 X134.6 Y130.035 E197.47498
G1 X134.125 Y130.942 E197.72071
G1 X133.395 Y131.659 E197.96628
G1 X132.48 Y132.119 E198.21207
G1 X131.469 Y132.284 E198.45792
G1 X91.579 Y132.285 E208.03152
G1 X90.472 Y132.104 E208.30073
G1 X89.564 Y131.631 E208.54645
G1 X88.845 Y130.903 E208.79201
G1 X88.383 Y129.989 E209.03781
G1 X88.216 Y128.967 E209.28634
G1 X88.215 Y124.063 E210.4633
G1 X88.175 Y121.269 E211.13393
G1 X88.06 Y118.558 E211.78515
G1 X87.866 Y115.814 E212.44536
G1 X87.596 Y113.088 E213.1028
G1 X87.193 Y110 E213.8502
G1 X87.017 Y108.79 E214.14366
G1 X87.015 Y92.835 E217.97286
G1 X87.398 Y91.699 E218.26058
G1 X87.67 Y91.264 E218.38371
G1 X88.399 Y90.545 E218.62945
G0 F7200 X90.615 Y93.516
G1 F2400 X132.385 Y93.516 E228.65425
G1 X132.385 Y108.135 E232.16281
G1 X90.615 Y108.135 E242.18761
G1 X90.615 Y93.516 E245.69617
G10
G0 F7200 X99.392 Y112.464
G11
G1 F2400 X100.647 Y112.219 E246.00305
G1 X101.603 Y112.169 E246.2328
G1 X103.118 Y112.326 E246.59835
G1 X104.367 Y112.799 E246.91889
G1 X105.406 Y113.396 E247.20648
G1 X106.345 Y114.181 E247.50022
G1 X106.88 Y114.788 E247.69441
G1 X107.474 Y115.682 E247.95201
G1 X108.036 Y116.892 E248.2722
G1 X108.281 Y118.147 E248.57909
G1 X108.331 Y119.103 E248.80884
G1 X108.174 Y120.621 E249.17511
G1 X107.703 Y121.862 E249.49368
G1 X107.103 Y122.906 E249.78267
G1 X106.323 Y123.841 E250.0749
G1 X105.708 Y124.383 E250.27164
G1 X104.816 Y124.974 E250.52844
G1 X103.606 Y125.537 E250.84874
G1 X102.353 Y125.781 E251.15511
G1 X101.397 Y125.831 E251.38486
G1 X99.882 Y125.674 E251.75041
G1 X98.633 Y125.201 E252.07095
G1 X97.594 Y124.604 E252.35854
G1 X96.655 Y123.819 E252.65228
G1 X96.12 Y123.212 E252.84646
G1 X95.526 Y122.318 E253.10407
G1 X94.964 Y121.108 E253.42426
G1 X94.719 Y119.853 E253.73115
G1 X94.669 Y118.895 E253.96138
G1 X94.826 Y117.382 E254.32645
G1 X95.299 Y116.133 E254.64699
G1 X95.896 Y115.094 E254.93458
G1 X96.681 Y114.155 E255.22832
G1 X97.288 Y113.62 E255.4225
G1 X98.182 Y113.026 E255.68011
G1 X99.392 Y112.464 E256.0003
G10
G0 F7200 X114.826 Y117.382
G11
G1 F2400 X115.299 Y116.133 E256.32084
G1 X115.896 Y115.094 E256.60843
G1 X116.681 Y114.155 E256.90217
G1 X117.288 Y113.62 E257.09636
G1 X118.182 Y113.026 E257.35396
G1 X119.392 Y112.464 E257.67415
G1 X120.647 Y112.219 E257.98104
G1 X121.603 Y112.169 E258.21079
G1 X123.118 Y112.326 E258.57634
G1 X124.367 Y112.799 E258.89688
G1 X125.406 Y113.396 E259.18447
G1 X126.345 Y114.181 E259.47821
G1 X126.88 Y114.788 E259.6724
G1 X127.474 Y115.682 E259.93
G1 X128.036 Y116.892 E260.25019
G1 X128.281 Y118.147 E260.55708
G1 X128.331 Y119.103 E260.78683
G1 X128.174 Y120.621 E261.1531
G1 X127.703 Y121.862 E261.47167
G1 X127.103 Y122.906 E261.76066
G1 X126.323 Y123.841 E262.05289
G1 X125.708 Y124.383 E262.24963
G1 X124.816 Y124.974 E262.50643
G1 X123.606 Y125.537 E262.82673
G1 X122.353 Y125.781 E263.1331
G1 X121.397 Y125.831 E263.36285
G1 X119.882 Y125.674 E263.7284
G1 X118.633 Y125.201 E264.04893
G1 X117.594 Y124.604 E264.33653
G1 X116.655 Y123.819 E264.63026
G1 X116.12 Y123.212 E264.82445
G1 X115.526 Y122.318 E265.08206
G1 X114.964 Y121.108 E265.40225
G1 X114.719 Y119.853 E265.70914
G1 X114.669 Y118.895 E265.93937
G1 X114.826 Y117.382 E266.30444
G0 F7200 X115.415 Y117.511
;TYPE:SUPPORT
G1 F2400 X115.269 Y118.92 E266.64441
G1 X115.315 Y119.767 E266.84799
G1 X115.54 Y120.927 E267.13158
G1 X116.043 Y122.012 E267.4186
G1 X116.81 Y123.161 E267.75016
G1 X117.937 Y124.108 E268.10345
G1 X118.901 Y124.659 E268.36993
G1 X120.01 Y125.081 E268.65471
G1 X121.42 Y125.227 E268.99492
G1 X122.267 Y125.181 E269.1985
G1 X123.426 Y124.956 E269.48186
G1 X124.52 Y124.449 E269.77124
G1 X125.663 Y123.687 E270.10093
G1 X126.604 Y122.559 E270.45348
G1 X127.16 Y121.595 E270.72057
G1 X127.581 Y120.486 E271.00526
G1 X127.727 Y119.076 E271.34547
G1 X127.681 Y118.229 E271.54905
G1 X127.456 Y117.069 E271.83264
G1 X126.953 Y115.983 E272.11988
G1 X126.19 Y114.835 E272.4507
G1 X125.059 Y113.892 E272.80411
G1 X124.095 Y113.336 E273.0712
G1 X122.986 Y112.915 E273.35589
G1 X121.576 Y112.769 E273.6961
G1 X120.729 Y112.815 E273.89968
G1 X119.57 Y113.04 E274.18303
G1 X118.479 Y113.547 E274.47176
G1 X117.335 Y114.306 E274.80126
G1 X116.392 Y115.437 E275.15467
G1 X115.836 Y116.405 E275.42259
G1 X115.415 Y117.511 E275.70661
G0 F7200 X117 Y115.551
G1 F2400 X117 Y122.472 E277.36765
G1 X116.515 Y121.747 E277.57699
G1 X116.057 Y120.759 E277.83835
G1 X115.909 Y120 E278.02394
G1 X127.089 Y120 E280.70714
G1 X127.052 Y120.36 E280.79399
G1 X126.671 Y121.361 E281.05105
G1 X126.157 Y122.251 E281.29771
G1 X126 Y122.44 E281.35668
G1 X126 Y115.526 E283.01604
G1 X126.482 Y116.25 E283.22478
G1 X126.83 Y117 E283.42322
G1 X116.188 Y117 E285.9773
G1 X116.326 Y116.636 E286.07073
G1 X116.837 Y115.747 E286.31682
G1 X117.698 Y114.714 E286.63957
G1 X118.772 Y114 E286.94909
G1 X124.165 Y114 E288.24341
G1 X123.861 Y113.825 E288.32759
G1 X123 Y113.498 E288.54864
G1 X123 Y124.49 E291.18672
G1 X123.258 Y124.439 E291.24983
G1 X124.253 Y123.979 E291.51292
G1 X125.297 Y123.282 E291.81419
G1 X125.532 Y123 E291.90229
G1 X117.458 Y123 E293.84005
G1 X118.25 Y123.665 E294.08825
G1 X119.132 Y124.169 E294.33205
G1 X120 Y124.5 E294.555
G1 X120 Y113.506 E297.19356
G1 X121.568 Y113.311 E297.57278
G10
G0 F7200 X107.456 Y117.069
G11
G1 F2400 X106.953 Y115.983 E297.86002
G1 X106.19 Y114.835 E298.19084
G1 X105.059 Y113.892 E298.54426
G1 X104.095 Y113.336 E298.81134
G1 X102.986 Y112.915 E299.09603
G1 X101.576 Y112.769 E299.43624
G1 X100.729 Y112.815 E299.63982
G1 X99.57 Y113.04 E299.92317
G1 X98.479 Y113.547 E300.21191
G1 X97.335 Y114.306 E300.5414
G1 X96.392 Y115.437 E300.89481
G1 X95.836 Y116.405 E301.16273
G1 X95.415 Y117.511 E301.44675
G1 X95.269 Y118.92 E301.78672
G1 X95.315 Y119.767 E301.9903
G1 X95.54 Y120.927 E302.27389
G1 X96.043 Y122.012 E302.56091
G1 X96.81 Y123.161 E302.89246
G1 X97.937 Y124.108 E303.24576
G1 X98.901 Y124.659 E303.51224
G1 X100.01 Y125.081 E303.79702
G1 X101.42 Y125.227 E304.13723
G1 X102.267 Y125.181 E304.34081
G1 X103.426 Y124.956 E304.62416
G1 X104.52 Y124.449 E304.91355
G1 X105.663 Y123.687 E305.24324
G1 X106.604 Y122.559 E305.59579
G1 X107.16 Y121.595 E305.86288
G1 X107.581 Y120.486 E306.14757
G1 X107.727 Y119.076 E306.48778
G1 X107.681 Y118.229 E306.69136
G1 X107.456 Y117.069 E306.97495
G10
G0 F7200 X101.568 Y113.311
G11
G1 F2400 X100.791 Y113.352 E307.16169
G1 X99.737 Y113.558 E307.41943
G1 X98.783 Y114 E307.67177
G1 X104.165 Y114 E308.96345
G1 X103.861 Y113.825 E309.04764
G1 X102.86 Y113.444 E309.30469
G1 X102 Y113.356 E309.51217
G1 X102 Y124.684 E312.23089
G1 X103.258 Y124.439 E312.53848
G1 X104.253 Y123.979 E312.80157
G1 X105 Y123.481 E313.01703
G1 X105 Y114.547 E315.16119
G1 X105.782 Y115.198 E315.4054
G1 X106.482 Y116.25 E315.70866
G1 X106.83 Y117 E315.90709
G1 X96.188 Y117 E318.46117
G1 X96 Y117.49 E318.58713
G1 X96 Y120.324 E319.26729
G1 X107.089 Y120 E321.92979
G1 X107.052 Y120.36 E322.01664
G1 X106.671 Y121.361 E322.2737
G1 X106.157 Y122.251 E322.52036
G1 X105.532 Y123 E322.75448
G1 X97.458 Y123 E324.69224
G1 X98.25 Y123.665 E324.94044
G1 X99 Y124.093 E325.14769
G1 X99 Y113.899 E327.59425
G10
G0 F7200 X99 Y107.532
G11
G1 F2400 X131.784 Y107.532 E335.46241
G1 X131.784 Y94.116 E338.68225
G1 X91.212 Y94.116 E348.41953
G1 X91.212 Y107.532 E351.63937
G1 X99 Y107.532 E353.50849
G10
G0 F7200 X93 Y94.656
G11
G1 F2400 X93 Y106.992 E356.46913
G1 X91.752 Y106.992 E356.76865
G1 X91.752 Y105 E357.24673
G1 X131.244 Y105 E366.72481
G1 X131.244 Y102 E367.44481
G1 X91.752 Y102 E376.92289
G1 X91.752 Y99 E377.64289
G1 X131.244 Y99 E387.12097
G1 X131.244 Y96 E387.84097
G1 X91.752 Y96 E397.31905
G1 X91.752 Y94.656 E397.64161
G1 X96 Y94.656 E398.66113
G1 X96 Y106.992 E401.62177
G1 X99 Y106.992 E402.34177
G1 X99 Y94.656 E405.30241
G1 X102 Y94.656 E406.02241
G1 X102 Y106.992 E408.98305
G1 X105 Y106.992 E409.70305
G1 X105 Y94.656 E412.66369
G1 X108 Y94.656 E413.38369
G1 X108 Y106.992 E416.34433
G1 X111 Y106.992 E417.06433
G1 X111 Y94.656 E420.02497
G1 X114 Y94.656 E420.74497
G1 X114 Y106.992 E423.70561
G1 X117 Y106.992 E424.42561
G1 X117 Y94.656 E427.38625
G1 X120 Y94.656 E428.10625
G1 X120 Y106.992 E431.06689
G1 X123 Y106.992 E431.78689
G1 X123 Y94.656 E434.74753
G1 X126 Y94.656 E435.46753
G1 X126 Y106.992 E438.42817
G1 X129 Y106.992 E439.14817
G1 X129 Y94.656 E442.10881
G1 X131.244 Y94.656 E442.64737
G10
;MESH:brique_lego_yek_support_max.STL
G0 F7200 X121.345 Y127.131
;TYPE:WALL-OUTER
G11
G1 F2400 X119.574 Y126.947 E443.11743
G1 X118.033 Y126.36 E443.55277
G1 X116.841 Y125.668 E443.91664
G1 X115.752 Y124.757 E444.29147
G1 X115.104 Y124.033 E444.54798
G1 X114.375 Y122.934 E444.89615
G1 X113.716 Y121.51 E445.31039
G1 X113.424 Y119.981 E445.72134
G1 X113.365 Y118.836 E446.02402
G1 X113.549 Y117.074 E446.49172
G1 X114.136 Y115.533 E446.92706
G1 X114.858 Y114.298 E447.30473
G1 X115.744 Y113.251 E447.66682
G1 X116.48 Y112.596 E447.92693
G1 X117.565 Y111.875 E448.27084
G1 X118.985 Y111.216 E448.68413
G1 X120.507 Y110.924 E449.09326
G1 X121.656 Y110.865 E449.397
G1 X123.422 Y111.049 E449.86575
G1 X124.963 Y111.636 E450.30109
G1 X126.197 Y112.357 E450.67839
G1 X127.253 Y113.243 E451.0423
G1 X127.931 Y114.018 E451.31415
G1 X128.621 Y115.065 E451.64518
G1 X129.28 Y116.485 E452.05847
G1 X129.571 Y117.986 E452.46211
G1 X129.632 Y119.128 E452.76403
G1 X129.448 Y120.904 E453.2354
G1 X128.864 Y122.455 E453.67293
G1 X128.139 Y123.697 E454.05259
G1 X127.243 Y124.762 E454.42002
G1 X126.479 Y125.43 E454.68794
G1 X125.434 Y126.121 E455.01868
G1 X124.009 Y126.78 E455.43316
G1 X122.489 Y127.072 E455.84178
G1 X121.345 Y127.131 E456.1442
G0 F7200 X121.047 Y127.101
G10
G0 X111.5 Y128.564
G11
G1 F2400 X131.064 Y128.564 E461.30909
G1 X131.064 Y109.432 E466.35994
G1 X91.932 Y109.432 E476.69079
G1 X91.932 Y128.564 E481.74164
G1 X111.5 Y128.564 E486.90759
G0 F7200 X111.8 Y128.564
G10
G0 X101.345 Y127.131
G11
G1 F2400 X99.574 Y126.947 E487.37765
G1 X98.033 Y126.36 E487.81299
G1 X96.841 Y125.668 E488.17686
G1 X95.761 Y124.767 E488.54817
G1 X95.104 Y124.032 E488.80843
G1 X94.375 Y122.934 E489.15638
G1 X93.716 Y121.51 E489.57062
G1 X93.424 Y119.981 E489.98157
G1 X93.365 Y118.836 E490.28425
G1 X93.549 Y117.074 E490.75195
G1 X94.136 Y115.533 E491.18729
G1 X94.858 Y114.298 E491.56496
G1 X95.744 Y113.251 E491.92705
G1 X96.48 Y112.596 E492.18716
