;FLAVOR:UltiGCode
;TIME:660
;MATERIAL:2459
;MATERIAL2:0
;NOZZLE_DIAMETER:0.6
;MINX:55.135
;MINY:55.135
;MINZ:0.4
;MAXX:167.865
;MAXY:167.865
;MAXZ:2.05
;TARGET_MACHINE.NAME:Ultimaker 2+
;Generated with Cura_SteamEngine 5.10.0
G0 F3000 Y50 ;avoid prime blob
M104 S230 ; Régler la température de l'extrudeur à 230°C
M140 S58 ; Régle la température du plateau à 58°C
M221 S100 ; Augmente le material flow de +x%
M207 S10 F3000 ; Rétraction à 10 mm, à une vitesse de rétration de 25 mm/s
M82 ;absolute extrusion mode
G92 E0
G92 E0
G10
;LAYER_COUNT:12
;LAYER:0
M107
G0 F7200 X56.132 Y56.739 Z0.4
;TYPE:SKIRT
G11
G1 F2100 X58.011 Y55.135 E0.59292
G1 X164.082 Y55.135 E26.04996
G1 X164.948 Y55.334 E26.26322
G1 X166.261 Y56.132 E26.63198
G1 X167.865 Y58.011 E27.2249
G1 X167.865 Y164.08 E52.68146
G1 X167.224 Y165.878 E53.13958
G1 X165.068 Y167.865 E53.84326
G1 X58.85 Y167.864 E79.33558
G1 X57.941 Y167.598 E79.56289
G1 X56.739 Y166.868 E79.9004
G1 X55.135 Y164.989 E80.49333
G1 X55.135 Y58.918 E105.95037
G1 X55.334 Y58.052 E106.16362
G1 X56.132 Y56.739 E106.53238
G0 F7200 X56.596 Y57.132
G1 F2100 X58.232 Y55.735 E107.04869
G1 X164.013 Y55.735 E132.43613
G1 X164.718 Y55.897 E132.60974
G1 X165.868 Y56.596 E132.93273
G1 X167.265 Y58.232 E133.44904
G1 X167.265 Y163.977 E158.82784
G1 X166.709 Y165.537 E159.22531
G1 X164.834 Y167.265 E159.83727
G1 X58.936 Y167.264 E185.25279
G1 X58.187 Y167.045 E185.44007
G1 X57.132 Y166.404 E185.73634
G1 X55.735 Y164.768 E186.25266
G1 X55.735 Y58.987 E211.6401
G1 X55.897 Y58.282 E211.81371
G1 X56.596 Y57.132 E212.13669
G0 F7200 X57.06 Y57.525
G1 F2100 X58.453 Y56.335 E212.57639
G1 X163.944 Y56.335 E237.89423
G1 X164.488 Y56.46 E238.02819
G1 X165.475 Y57.06 E238.30541
G1 X166.665 Y58.453 E238.74511
G1 X166.665 Y163.874 E264.04615
G1 X166.194 Y165.196 E264.38297
G1 X164.6 Y166.665 E264.90321
G1 X59.023 Y166.664 E290.24169
G1 X58.432 Y166.491 E290.38948
G1 X57.525 Y165.94 E290.64418
G1 X56.335 Y164.547 E291.08388
G1 X56.335 Y59.056 E316.40172
G1 X56.46 Y58.512 E316.53568
G1 X57.06 Y57.525 E316.8129
G0 F7200 X57.524 Y57.918
G1 F2100 X57.022 Y58.744 E317.04488
G1 X56.935 Y59.056 E317.12261
G1 X56.935 Y164.326 E342.38741
G1 X57.918 Y165.476 E342.7505
G1 X58.744 Y165.978 E342.98248
G1 X59.056 Y166.065 E343.06022
G1 X164.366 Y166.065 E368.33462
G1 X165.679 Y164.854 E368.76331
G1 X166.065 Y163.771 E369.03924
G1 X166.065 Y58.674 E394.26252
G1 X165.082 Y57.524 E394.62561
G1 X164.256 Y57.022 E394.85759
G1 X163.944 Y56.935 E394.93533
G1 X58.674 Y56.935 E420.20013
G1 X57.524 Y57.918 E420.56322
G0 F7200 X57.988 Y58.311
G1 F2100 X58.896 Y57.535 E420.84988
G1 X163.944 Y57.535 E446.0614
G1 X164.689 Y57.988 E446.27066
G1 X165.465 Y58.896 E446.55732
G1 X165.465 Y163.668 E471.7026
G1 X165.164 Y164.513 E471.91788
G1 X164.132 Y165.465 E472.25485
G1 X59.056 Y165.465 E497.47309
G1 X58.311 Y165.012 E497.68235
G1 X57.535 Y164.104 E497.96901
G1 X57.535 Y59.056 E523.18053
G1 X57.988 Y58.311 E523.38979
G0 F7200 X58.45 Y58.706
G1 F2100 X59.118 Y58.135 E523.6007
G1 X163.777 Y58.135 E548.71886
G1 X164.294 Y58.45 E548.86416
G1 X164.865 Y59.118 E549.07507
G1 X164.865 Y163.565 E574.14235
G1 X164.649 Y164.172 E574.29697
G1 X163.898 Y164.865 E574.54223
G1 X59.223 Y164.865 E599.66423
G1 X58.706 Y164.55 E599.80952
G1 X58.135 Y163.882 E600.02043
G1 X58.135 Y59.223 E625.13859
G1 X58.45 Y58.706 E625.28389
G0 F7200 X59.335 Y59.525
G1 F2100 X59.524 Y59.335 E625.34821
G1 X163.475 Y59.335 E650.29645
G1 X163.665 Y59.524 E650.36077
G1 X163.665 Y163.475 E675.30901
G1 X163.476 Y163.665 E675.37333
G1 X59.525 Y163.665 E700.32157
G1 X59.335 Y163.476 E700.38588
G1 X59.335 Y59.525 E725.33412
G0 F7200 X58.91 Y59.102
G1 F2100 X59.34 Y58.735 E725.4698
G1 X163.628 Y58.735 E750.49892
G1 X163.898 Y58.91 E750.57614
G1 X164.265 Y59.34 E750.71182
G1 X164.265 Y163.565 E775.72582
G1 X164.171 Y163.797 E775.7859
G1 X163.665 Y164.265 E775.95131
G1 X59.372 Y164.265 E800.98163
G1 X59.102 Y164.09 E801.05886
G1 X58.735 Y163.66 E801.19453
G1 X58.735 Y59.372 E826.22365
G1 X58.91 Y59.102 E826.30087
G10
;MESH:Pi??ce2.STL
G0 F7200 X161.684 Y161.928
;TYPE:WALL-OUTER
G11
G1 F1500 X61.364 Y161.932 E852.78535
G1 X61.151 Y161.845 E852.8461
G1 X61.068 Y161.684 E852.89392
G1 X61.064 Y61.364 E879.3784
G1 X61.151 Y61.151 E879.43914
G1 X61.312 Y61.068 E879.48696
G1 X161.632 Y61.064 E905.97144
G1 X161.844 Y61.152 E906.03203
G1 X161.932 Y61.364 E906.09263
G1 X161.928 Y161.684 E932.57711
G1 X161.684 Y161.928 E932.66821
G0 F7200 X161.384 Y161.928
G0 X163.064 Y163.064
G1 F1500 X163.064 Y59.932 E959.89506
G1 X59.933 Y59.933 E987.12164
G1 X59.933 Y163.063 E1014.34796
G1 X163.064 Y163.064 E1041.57455
G0 F7200 X163.064 Y162.764
G0 X162.349 Y162.349
;TYPE:WALL-INNER
G1 F1807.5 X162.492 Y161.782 E1041.7272
G1 F2342.5 X162.493 Y147.437 E1044.68715
G1 F2351.9 X162.494 Y133.092 E1047.6362
G1 F2356.7 X162.495 Y118.747 E1050.57979
G1 F2366.2 X162.495 Y104.402 E1053.51248
G1 F2375.8 X162.496 Y90.057 E1056.43427
G1 F2380.7 X162.497 Y75.712 E1059.35061
G1 F2390.4 X162.498 Y61.367 E1062.25605
G1 F1825.2 X162.349 Y60.647 E1062.44632
G1 X161.632 Y60.498 E1062.63582
G1 F2390.4 X149.08 Y60.499 E1065.17811
G1 F2380.7 X136.528 Y60.499 E1067.72993
G1 F2375.8 X123.976 Y60.5 E1070.28652
G1 F2366.2 X111.424 Y60.501 E1072.85265
G1 F2356.7 X98.872 Y60.502 E1075.42832
G1 F2347.2 X86.32 Y60.502 E1078.01353
G1 F2342.5 X73.768 Y60.503 E1080.60351
G1 F2333.1 X61.216 Y60.504 E1083.20303
G1 F1807.5 X60.647 Y60.647 E1083.35619
G1 F1828.2 X60.498 Y61.364 E1083.54542
G1 F2390.4 X60.499 Y73.916 E1086.08771
G1 F2380.7 X60.499 Y86.468 E1088.63953
G1 F2375.8 X60.5 Y99.02 E1091.19612
G1 F2366.2 X60.501 Y111.572 E1093.76225
G1 F2356.7 X60.502 Y124.124 E1096.33792
G1 F2347.2 X60.502 Y136.676 E1098.92313
G1 F2342.5 X60.503 Y149.228 E1101.51311
G1 F2333.1 X60.504 Y161.78 E1104.11263
G1 F1807.5 X60.647 Y162.349 E1104.26579
G1 F1828.2 X61.364 Y162.498 E1104.45502
G1 F2390.4 X73.916 Y162.497 E1106.9973
G1 F2380.7 X86.468 Y162.497 E1109.54913
G1 F2375.8 X99.02 Y162.496 E1112.10572
G1 F2366.2 X111.572 Y162.495 E1114.67185
G1 F2356.7 X124.124 Y162.494 E1117.24752
G1 F2347.2 X136.676 Y162.494 E1119.83273
G1 F2342.5 X149.228 Y162.493 E1122.42271
G1 F2333.1 X161.78 Y162.492 E1125.02223
G1 F1804.5 X162.349 Y162.349 E1125.17561
;MESH:NONMESH
G0 F600 X162.349 Y162.349 Z0.55
G0 F7200 X161.564 Y161.808
;TIME_ELAPSED:146.141513
;LAYER:1
M106 S255
;TYPE:WALL-OUTER
;MESH:Pi??ce2.STL
G1 F1500 X61.484 Y161.812 E1134.18281
G1 X61.271 Y161.725 E1134.20352
G1 X61.188 Y161.564 E1134.21982
G1 X61.184 Y61.484 E1143.22702
G1 X61.271 Y61.271 E1143.24773
G1 X61.432 Y61.188 E1143.26403
G1 X161.512 Y61.184 E1152.27123
G1 X161.725 Y61.271 E1152.29194
G1 X161.812 Y61.484 E1152.31265
G1 X161.808 Y161.564 E1161.31985
G1 X161.564 Y161.808 E1161.3509
G0 F7200 X161.264 Y161.808
G0 X161.264 Y162.225
G0 X162.805 Y162.805
G0 X163.184 Y163.184
G1 F1500 X163.184 Y59.812 E1170.65438
G1 X59.812 Y59.812 E1179.95786
G1 X59.812 Y163.184 E1189.26134
G1 X163.184 Y163.184 E1198.56482
G0 F7200 X163.184 Y162.884
G0 X162.607 Y162.657
;TYPE:WALL-INNER
G1 F2197.5 X162.607 Y162.329 E1198.59498
G1 F1991.4 X162.491 Y161.683 E1198.66094
G1 X162.133 Y162.133 E1198.71873
G1 F1984.8 X161.683 Y162.491 E1198.7767
G1 F1809.2 X162.607 Y162.657 E1198.8795
G0 F7200 X161.683 Y162.491
G1 F1678.8 X161.512 Y162.498 E1198.89952
G1 F1698.6 X61.484 Y162.498 E1210.48276
G1 F2011.4 X60.863 Y162.133 E1210.55451
G1 F1984.8 X60.505 Y161.683 E1210.61247
G1 F1739.3 X60.331 Y162.652 E1210.72411
G1 F1760.3 X61.484 Y162.498 E1210.85463
G0 F7200 X60.505 Y161.683
G1 F1678.8 X60.498 Y161.512 E1210.87465
G1 F1698.6 X60.498 Y61.484 E1222.45789
G1 F2011.4 X60.863 Y60.863 E1222.52964
G1 F1984.8 X61.313 Y60.505 E1222.5876
G1 F1739.3 X60.344 Y60.331 E1222.69924
G1 F1760.3 X60.498 Y61.484 E1222.82976
G0 F7200 X61.313 Y60.505
G1 F1678.8 X61.484 Y60.498 E1222.84978
G1 F1698.6 X161.512 Y60.498 E1234.43302
G1 F2011.4 X162.133 Y60.863 E1234.50477
G1 X162.498 Y61.484 E1234.57651
G1 F1771 X162.65 Y60.346 E1234.70464
G1 X161.512 Y60.498 E1234.83277
G0 F7200 X162.498 Y61.484
G1 F1698.6 X162.498 Y161.512 E1246.41601
G1 F1681.3 X162.491 Y161.683 E1246.43601
;MESH:NONMESH
G0 F600 X162.491 Y161.683 Z0.7
G0 F7200 X161.564 Y161.808
;TIME_ELAPSED:193.752962
;LAYER:2
;TYPE:WALL-OUTER
;MESH:Pi??ce2.STL
G1 F1500 X61.484 Y161.812 E1255.44321
G1 X61.271 Y161.725 E1255.46392
G1 X61.188 Y161.564 E1255.48022
G1 X61.184 Y61.484 E1264.48742
G1 X61.271 Y61.271 E1264.50813
G1 X61.432 Y61.188 E1264.52443
G1 X161.512 Y61.184 E1273.53163
G1 X161.725 Y61.271 E1273.55234
G1 X161.812 Y61.484 E1273.57304
G1 X161.808 Y161.564 E1282.58024
G1 X161.564 Y161.808 E1282.6113
G0 F7200 X161.264 Y161.808
G0 X161.264 Y162.225
G0 X162.805 Y162.805
G0 X163.184 Y163.184
G1 F1500 X163.184 Y59.812 E1291.91478
G1 X59.812 Y59.812 E1301.21826
G1 X59.812 Y163.184 E1310.52174
G1 X163.184 Y163.184 E1319.82522
G0 F7200 X163.184 Y162.884
G0 X162.607 Y162.657
;TYPE:WALL-INNER
G1 F2344 X162.607 Y162.329 E1319.85538
G1 F2124.2 X162.491 Y161.683 E1319.92134
G1 X162.133 Y162.133 E1319.97913
G1 F2117.1 X161.683 Y162.491 E1320.0371
G1 F1929.9 X162.607 Y162.657 E1320.13989
G0 F7200 X161.683 Y162.491
G1 F1790.8 X161.512 Y162.498 E1320.15992
G1 F1811.8 X61.484 Y162.498 E1331.74316
G1 F2145.5 X60.863 Y162.133 E1331.8149
G1 F2117.1 X60.505 Y161.683 E1331.87287
G1 F1855.2 X60.331 Y162.652 E1331.98451
G1 F1877.6 X61.484 Y162.498 E1332.11503
G0 F7200 X60.505 Y161.683
G1 F1790.8 X60.498 Y161.512 E1332.13505
G1 F1811.8 X60.498 Y61.484 E1343.71829
G1 F2145.5 X60.863 Y60.863 E1343.79004
G1 F2117.1 X61.313 Y60.505 E1343.848
G1 F1855.2 X60.344 Y60.331 E1343.95964
G1 F1877.6 X60.498 Y61.484 E1344.09016
G0 F7200 X61.313 Y60.505
G1 F1790.8 X61.484 Y60.498 E1344.11018
G1 F1811.8 X161.512 Y60.498 E1355.69342
G1 F2145.5 X162.133 Y60.863 E1355.76517
G1 X162.498 Y61.484 E1355.83691
G1 F1889 X162.65 Y60.346 E1355.96504
G1 X161.512 Y60.498 E1356.09317
G0 F7200 X162.498 Y61.484
G1 F1811.8 X162.498 Y161.512 E1367.67641
G1 F1793.4 X162.491 Y161.683 E1367.69641
;MESH:NONMESH
G0 F600 X162.491 Y161.683 Z0.85
G0 F7200 X161.564 Y161.808
;TIME_ELAPSED:240.458697
;LAYER:3
;TYPE:WALL-OUTER
;MESH:Pi??ce2.STL
G1 F1500 X61.484 Y161.812 E1376.70361
G1 X61.271 Y161.725 E1376.72432
G1 X61.188 Y161.564 E1376.74062
G1 X61.184 Y61.484 E1385.74782
G1 X61.271 Y61.271 E1385.76853
G1 X61.432 Y61.188 E1385.78483
G1 X161.512 Y61.184 E1394.79203
G1 X161.725 Y61.271 E1394.81274
G1 X161.812 Y61.484 E1394.83344
G1 X161.808 Y161.564 E1403.84064
G1 X161.564 Y161.808 E1403.8717
G0 F7200 X161.264 Y161.808
G0 X161.264 Y162.225
G0 X162.805 Y162.805
G0 X163.184 Y163.184
G1 F1500 X163.184 Y59.812 E1413.17518
G1 X59.812 Y59.812 E1422.47866
G1 X59.812 Y163.184 E1431.78214
G1 X163.184 Y163.184 E1441.08562
G0 F7200 X163.184 Y162.884
G0 X162.607 Y162.657
;TYPE:WALL-INNER
G1 F2344 X162.607 Y162.329 E1441.11578
G1 F2124.2 X162.491 Y161.683 E1441.18174
G1 X162.133 Y162.133 E1441.23953
G1 F2117.1 X161.683 Y162.491 E1441.29749
G1 F1929.9 X162.607 Y162.657 E1441.40029
G0 F7200 X161.683 Y162.491
G1 F1790.8 X161.512 Y162.498 E1441.42032
G1 F1811.8 X61.484 Y162.498 E1453.00356
G1 F2145.5 X60.863 Y162.133 E1453.0753
G1 F2117.1 X60.505 Y161.683 E1453.13327
G1 F1855.2 X60.331 Y162.652 E1453.24491
G1 F1877.6 X61.484 Y162.498 E1453.37542
G0 F7200 X60.505 Y161.683
G1 F1790.8 X60.498 Y161.512 E1453.39545
G1 F1811.8 X60.498 Y61.484 E1464.97869
G1 F2145.5 X60.863 Y60.863 E1465.05043
G1 F2117.1 X61.313 Y60.505 E1465.1084
G1 F1855.2 X60.344 Y60.331 E1465.22004
G1 F1877.6 X60.498 Y61.484 E1465.35056
G0 F7200 X61.313 Y60.505
G1 F1790.8 X61.484 Y60.498 E1465.37058
G1 F1811.8 X161.512 Y60.498 E1476.95382
G1 F2145.5 X162.133 Y60.863 E1477.02557
G1 X162.498 Y61.484 E1477.09731
G1 F1889 X162.65 Y60.346 E1477.22544
G1 X161.512 Y60.498 E1477.35357
G0 F7200 X162.498 Y61.484
G1 F1811.8 X162.498 Y161.512 E1488.93681
G1 F1793.4 X162.491 Y161.683 E1488.95681
;MESH:NONMESH
G0 F600 X162.491 Y161.683 Z1
G0 F7200 X161.564 Y161.808
;TIME_ELAPSED:287.164433
;LAYER:4
;TYPE:WALL-OUTER
;MESH:Pi??ce2.STL
G1 F1500 X61.484 Y161.812 E1497.96401
G1 X61.271 Y161.725 E1497.98471
G1 X61.188 Y161.564 E1498.00102
G1 X61.184 Y61.484 E1507.00822
G1 X61.271 Y61.271 E1507.02892
G1 X61.432 Y61.188 E1507.04523
G1 X161.512 Y61.184 E1516.05243
G1 X161.725 Y61.271 E1516.07313
G1 X161.812 Y61.484 E1516.09384
G1 X161.808 Y161.564 E1525.10104
G1 X161.564 Y161.808 E1525.1321
G0 F7200 X161.264 Y161.808
G0 X161.264 Y162.225
G0 X162.805 Y162.805
G0 X163.184 Y163.184
G1 F1500 X163.184 Y59.812 E1534.43558
G1 X59.812 Y59.812 E1543.73906
G1 X59.812 Y163.184 E1553.04254
G1 X163.184 Y163.184 E1562.34602
G0 F7200 X163.184 Y162.884
G0 X162.607 Y162.657
;TYPE:WALL-INNER
G1 F2344 X162.607 Y162.329 E1562.37618
G1 F2124.2 X162.491 Y161.683 E1562.44214
G1 X162.133 Y162.133 E1562.49993
G1 F2117.1 X161.683 Y162.491 E1562.55789
G1 F1929.9 X162.607 Y162.657 E1562.66069
G0 F7200 X161.683 Y162.491
G1 F1790.8 X161.512 Y162.498 E1562.68071
G1 F1811.8 X61.484 Y162.498 E1574.26396
G1 F2145.5 X60.863 Y162.133 E1574.3357
G1 F2117.1 X60.505 Y161.683 E1574.39366
G1 F1855.2 X60.331 Y162.652 E1574.50531
G1 F1877.6 X61.484 Y162.498 E1574.63582
G0 F7200 X60.505 Y161.683
G1 F1790.8 X60.498 Y161.512 E1574.65585
G1 F1811.8 X60.498 Y61.484 E1586.23909
G1 F2145.5 X60.863 Y60.863 E1586.31083
G1 F2117.1 X61.313 Y60.505 E1586.3688
G1 F1855.2 X60.344 Y60.331 E1586.48044
G1 F1877.6 X60.498 Y61.484 E1586.61095
G0 F7200 X61.313 Y60.505
G1 F1790.8 X61.484 Y60.498 E1586.63098
G1 F1811.8 X161.512 Y60.498 E1598.21422
G1 F2145.5 X162.133 Y60.863 E1598.28596
G1 X162.498 Y61.484 E1598.35771
G1 F1889 X162.65 Y60.346 E1598.48584
G1 X161.512 Y60.498 E1598.61397
G0 F7200 X162.498 Y61.484
G1 F1811.8 X162.498 Y161.512 E1610.19721
G1 F1793.4 X162.491 Y161.683 E1610.21721
;MESH:NONMESH
G0 F600 X162.491 Y161.683 Z1.15
G0 F7200 X161.564 Y161.808
;TIME_ELAPSED:333.870169
;LAYER:5
;TYPE:WALL-OUTER
;MESH:Pi??ce2.STL
G1 F1500 X61.484 Y161.812 E1619.22441
G1 X61.271 Y161.725 E1619.24511
G1 X61.188 Y161.564 E1619.26142
G1 X61.184 Y61.484 E1628.26862
G1 X61.271 Y61.271 E1628.28932
G1 X61.432 Y61.188 E1628.30563
G1 X161.512 Y61.184 E1637.31283
G1 X161.725 Y61.271 E1637.33353
G1 X161.812 Y61.484 E1637.35424
G1 X161.808 Y161.564 E1646.36144
G1 X161.564 Y161.808 E1646.3925
G0 F7200 X161.264 Y161.808
G0 X161.264 Y162.225
G0 X162.805 Y162.805
G0 X163.184 Y163.184
G1 F1500 X163.184 Y59.812 E1655.69598
G1 X59.812 Y59.812 E1664.99946
G1 X59.812 Y163.184 E1674.30294
G1 X163.184 Y163.184 E1683.60642
G0 F7200 X163.184 Y162.884
G0 X162.607 Y162.657
;TYPE:WALL-INNER
G1 F2344 X162.607 Y162.329 E1683.63658
G1 F2124.2 X162.491 Y161.683 E1683.70254
G1 X162.133 Y162.133 E1683.76033
G1 F2117.1 X161.683 Y162.491 E1683.81829
G1 F1929.9 X162.607 Y162.657 E1683.92109
G0 F7200 X161.683 Y162.491
G1 F1790.8 X161.512 Y162.498 E1683.94111
G1 F1811.8 X61.484 Y162.498 E1695.52436
G1 F2145.5 X60.863 Y162.133 E1695.5961
G1 F2117.1 X60.505 Y161.683 E1695.65406
G1 F1855.2 X60.331 Y162.652 E1695.76571
G1 F1877.6 X61.484 Y162.498 E1695.89622
G0 F7200 X60.505 Y161.683
G1 F1790.8 X60.498 Y161.512 E1695.91624
G1 F1811.8 X60.498 Y61.484 E1707.49949
G1 F2145.5 X60.863 Y60.863 E1707.57123
G1 F2117.1 X61.313 Y60.505 E1707.62919
G1 F1855.2 X60.344 Y60.331 E1707.74084
G1 F1877.6 X60.498 Y61.484 E1707.87135
G0 F7200 X61.313 Y60.505
G1 F1790.8 X61.484 Y60.498 E1707.89138
G1 F1811.8 X161.512 Y60.498 E1719.47462
G1 F2145.5 X162.133 Y60.863 E1719.54636
G1 X162.498 Y61.484 E1719.61811
G1 F1889 X162.65 Y60.346 E1719.74624
G1 X161.512 Y60.498 E1719.87436
G0 F7200 X162.498 Y61.484
G1 F1811.8 X162.498 Y161.512 E1731.45761
G1 F1793.4 X162.491 Y161.683 E1731.4776
;MESH:NONMESH
G0 F600 X162.491 Y161.683 Z1.3
G0 F7200 X161.564 Y161.808
;TIME_ELAPSED:380.575905
;LAYER:6
;TYPE:WALL-OUTER
;MESH:Pi??ce2.STL
G1 F1500 X61.484 Y161.812 E1740.4848
G1 X61.271 Y161.725 E1740.50551
G1 X61.188 Y161.564 E1740.52181
G1 X61.184 Y61.484 E1749.52901
G1 X61.271 Y61.271 E1749.54972
G1 X61.432 Y61.188 E1749.56602
G1 X161.512 Y61.184 E1758.57322
G1 X161.725 Y61.271 E1758.59393
G1 X161.812 Y61.484 E1758.61464
G1 X161.808 Y161.564 E1767.62184
