;FLAVOR:UltiGCode
;TIME:2272
;MATERIAL:7694
;MATERIAL2:0
;NOZZLE_DIAMETER:0.6
;MINX:87.77
;MINY:65.853
;MINZ:0.4
;MAXX:138.398
;MAXY:156.698
;MAXZ:8.05
;TARGET_MACHINE.NAME:Ultimaker 2+
;Generated with Cura_SteamEngine 5.10.0
G0 F3000 Y50 ;avoid prime blob
M104 S230 ; Régler la température de l'extrudeur à 230°C
M140 S58 ; Régle la température du plateau à 58°C
M221 S100 ; Augmente le material flow de +x%
M221 S100 ;M207 S10 F3000  Rétraction à 10 mm, à une vitesse de rétration de 25 mm/s
M82 ;absolute extrusion mode
G92 E0
G92 E0
G10
;LAYER_COUNT:52
;LAYER:0
M107
G0 F7200 X100.287 Y68.167 Z0.4
;TYPE:SKIRT
G11
G1 F2100 X101.483 Y66.95 E0.40952
G1 X103.706 Y65.853 E1.00446
G1 X121.88 Y69.547 E5.45541
G1 X123.835 Y72.298 E6.26539
G1 X123.836 Y95.838 E11.91499
G1 X123.893 Y97.473 E12.30763
G1 X124.052 Y98.963 E12.66726
G1 X124.301 Y100.365 E13.009
G1 X124.678 Y101.866 E13.38043
G1 X125.134 Y103.255 E13.7313
G1 X125.702 Y104.64 E14.09056
G1 X126.98 Y107.474 E14.83668
G1 X127.648 Y108.833 E15.20011
G1 X128.42 Y110.156 E15.56774
G1 X129.206 Y111.403 E15.92151
G1 X130.534 Y113.736 E16.56579
G1 X131.692 Y115.737 E17.12065
G1 X132.357 Y116.668 E17.39523
G1 X134.275 Y119.434 E18.20306
G1 X135.405 Y121.225 E18.7113
G1 X136.223 Y122.671 E19.11002
G1 X136.764 Y123.828 E19.41656
G1 X137.466 Y125.723 E19.90156
G1 X137.882 Y127.243 E20.27978
G1 X138.12 Y128.448 E20.57456
G1 X138.339 Y130.335 E21.03048
G1 X138.398 Y131.949 E21.4181
G1 X138.121 Y133.737 E21.85234
G1 X137.744 Y135.523 E22.29043
G1 X137.325 Y137.048 E22.66999
G1 X136.124 Y140.998 E23.66084
G1 X135.61 Y142.442 E24.0287
G1 X134.937 Y143.944 E24.42371
G1 X134.54 Y144.735 E24.63612
G1 X133.744 Y146.155 E25.02682
G1 X133.023 Y147.247 E25.34087
G1 X132.012 Y148.555 E25.73763
G1 X131.011 Y149.743 E26.11047
G1 X129.683 Y151.152 E26.57516
G1 X128.265 Y152.407 E27.02962
G1 X127.1 Y153.283 E27.37945
G1 X125.362 Y154.364 E27.87067
G1 X124.058 Y155.026 E28.22165
G1 X122.126 Y155.77 E28.71852
G1 X120.595 Y156.206 E29.10057
G1 X118.474 Y156.698 E29.62312
G1 X113.389 Y156.183 E30.84977
G1 X111.548 Y155.89 E31.29717
G1 X109.873 Y155.471 E31.71156
G1 X108.853 Y155.164 E31.9672
G1 X107.295 Y154.605 E32.36446
G1 X105.773 Y153.911 E32.76592
G1 X103.856 Y152.754 E33.30331
G1 X102.383 Y151.712 E33.73634
G1 X100.675 Y150.312 E34.26637
G1 X99.317 Y149.033 E34.71408
G1 X95.956 Y145.656 E35.85756
G1 X93.569 Y141.878 E36.9301
G1 X92.586 Y140.174 E37.40223
G1 X91.523 Y137.953 E37.99317
G1 X90.806 Y136.11 E38.46779
G1 X90.019 Y133.57 E39.10598
G1 X90.027 Y122.572 E41.7455
G1 X90.145 Y120.127 E42.33298
G1 X90.462 Y117.737 E42.91161
G1 X90.906 Y115.669 E43.41924
G1 X91.684 Y113.096 E44.06437
G1 X92.504 Y111.032 E44.59739
G1 X93.061 Y109.791 E44.92385
G1 X93.767 Y108.034 E45.3783
G1 X94.237 Y106.508 E45.76152
G1 X94.662 Y104.607 E46.22902
G1 X97.04 Y91.45 E49.43786
G1 X99.818 Y69.455 E54.7586
G1 X100.287 Y68.167 E55.08758
G0 F7200 X100.806 Y68.495
G1 F2100 X101.841 Y67.442 E55.44194
G1 X103.787 Y66.482 E55.96271
G1 X121.528 Y70.088 E60.30762
G1 X123.235 Y72.49 E61.01484
G1 X123.236 Y95.859 E66.6234
G1 X123.294 Y97.516 E67.02133
G1 X123.457 Y99.045 E67.39037
G1 X123.713 Y100.488 E67.74209
G1 X124.101 Y102.031 E68.12394
G1 X124.57 Y103.459 E68.48467
G1 X125.155 Y104.887 E68.85504
G1 X126.441 Y107.739 E69.60588
G1 X127.115 Y109.111 E69.97275
G1 X127.912 Y110.476 E70.35211
G1 X128.698 Y111.723 E70.70588
G1 X130.015 Y114.037 E71.34488
G1 X131.187 Y116.062 E71.90641
G1 X131.864 Y117.01 E72.18599
G1 X133.782 Y119.776 E72.99382
G1 X134.883 Y121.521 E73.48901
G1 X135.679 Y122.925 E73.87636
G1 X136.22 Y124.082 E74.18289
G1 X136.887 Y125.882 E74.6436
G1 X137.293 Y127.359 E75.01123
G1 X137.531 Y128.564 E75.30601
G1 X137.739 Y130.357 E75.73922
G1 X137.796 Y131.915 E76.11339
G1 X137.528 Y133.645 E76.53354
G1 X137.157 Y135.399 E76.96382
G1 X136.751 Y136.874 E77.33098
G1 X135.559 Y140.797 E78.31501
G1 X135.062 Y142.197 E78.67155
G1 X134.4 Y143.675 E79.06023
G1 X134.016 Y144.442 E79.26609
G1 X133.243 Y145.824 E79.64613
G1 X132.522 Y146.916 E79.96018
G1 X131.553 Y148.168 E80.34014
G1 X130.552 Y149.356 E80.71298
G1 X129.285 Y150.703 E81.1568
G1 X127.904 Y151.927 E81.59968
G1 X126.739 Y152.803 E81.94951
G1 X125.09 Y153.829 E82.41562
G1 X123.786 Y154.491 E82.7666
G1 X121.961 Y155.193 E83.23589
G1 X120.458 Y155.622 E83.61101
G1 X118.447 Y156.092 E84.10666
G1 X113.483 Y155.59 E85.30409
G1 X111.642 Y155.297 E85.7515
G1 X110.046 Y154.896 E86.14644
G1 X109.026 Y154.589 E86.40209
G1 X107.544 Y154.059 E86.77983
G1 X106.022 Y153.365 E87.18129
G1 X104.203 Y152.264 E87.69159
G1 X102.73 Y151.222 E88.12462
G1 X101.086 Y149.875 E88.63471
G1 X99.742 Y148.61 E89.07767
G1 X96.429 Y145.281 E90.20486
G1 X94.089 Y141.578 E91.25616
G1 X93.106 Y139.874 E91.72829
G1 X92.082 Y137.735 E92.29744
G1 X91.379 Y135.932 E92.76189
G1 X90.619 Y133.479 E93.37822
G1 X90.626 Y122.601 E95.98894
G1 X90.74 Y120.205 E96.56463
G1 X91.049 Y117.863 E97.13158
G1 X91.493 Y115.795 E97.63921
G1 X92.242 Y113.318 E98.26027
G1 X93.062 Y111.254 E98.7933
G1 X93.618 Y110.015 E99.11922
G1 X94.33 Y108.242 E99.57777
G1 X94.82 Y106.653 E99.97685
G1 X95.248 Y104.738 E100.44779
G1 X97.633 Y91.539 E103.66685
G1 X100.404 Y69.599 E108.97428
G1 X100.806 Y68.495 E109.25626
G0 F7200 X101.325 Y68.823
G1 F2100 X102.199 Y67.934 E109.55546
G1 X103.867 Y67.111 E110.00186
G1 X121.176 Y70.629 E114.24096
G1 X122.635 Y72.682 E114.84543
G1 X122.636 Y95.88 E120.41295
G1 X122.695 Y97.559 E120.81615
G1 X122.862 Y99.127 E121.1946
G1 X123.125 Y100.611 E121.55631
G1 X123.524 Y102.196 E121.94858
G1 X124.007 Y103.668 E122.32039
G1 X124.608 Y105.134 E122.70065
G1 X125.894 Y107.986 E123.4515
G1 X126.589 Y109.4 E123.82964
G1 X127.404 Y110.796 E124.21759
G1 X128.19 Y112.043 E124.57136
G1 X129.496 Y114.337 E125.20489
G1 X130.685 Y116.392 E125.7747
G1 X131.371 Y117.352 E126.05788
G1 X133.289 Y120.118 E126.8657
G1 X134.361 Y121.817 E127.34784
G1 X135.135 Y123.179 E127.72382
G1 X135.676 Y124.336 E128.03035
G1 X136.309 Y126.041 E128.46685
G1 X136.704 Y127.475 E128.82382
G1 X136.942 Y128.68 E129.11861
G1 X137.139 Y130.379 E129.5291
G1 X137.194 Y131.881 E129.88982
G1 X136.935 Y133.553 E130.29589
G1 X136.578 Y135.24 E130.70974
G1 X136.177 Y136.7 E131.07311
G1 X134.993 Y140.597 E132.05061
G1 X134.514 Y141.952 E132.39553
G1 X133.863 Y143.406 E132.77787
G1 X133.479 Y144.173 E132.98373
G1 X132.742 Y145.493 E133.34656
G1 X132.021 Y146.585 E133.66062
G1 X131.094 Y147.781 E134.02378
G1 X130.093 Y148.969 E134.39662
G1 X128.887 Y150.254 E134.81957
G1 X127.543 Y151.447 E135.25088
G1 X126.378 Y152.323 E135.6007
G1 X124.818 Y153.294 E136.0417
G1 X123.514 Y153.956 E136.39268
G1 X121.796 Y154.616 E136.83438
G1 X120.293 Y155.045 E137.20951
G1 X118.409 Y155.485 E137.67383
G1 X113.576 Y154.997 E138.83965
G1 X111.788 Y154.715 E139.27408
G1 X110.219 Y154.321 E139.66233
G1 X109.199 Y154.014 E139.91798
G1 X107.793 Y153.513 E140.2762
G1 X106.271 Y152.819 E140.67766
G1 X104.55 Y151.774 E141.16088
G1 X103.077 Y150.732 E141.59391
G1 X101.497 Y149.438 E142.08406
G1 X100.167 Y148.187 E142.52227
G1 X96.902 Y144.906 E143.63317
G1 X94.609 Y141.278 E144.66322
G1 X93.626 Y139.574 E145.13535
G1 X92.641 Y137.516 E145.68293
G1 X91.952 Y135.754 E146.13699
G1 X91.219 Y133.388 E146.73145
G1 X91.225 Y122.629 E149.31361
G1 X91.335 Y120.283 E149.87727
G1 X91.636 Y117.989 E150.43255
G1 X92.08 Y115.921 E150.94018
G1 X92.8 Y113.54 E151.53718
G1 X93.62 Y111.476 E152.0702
G1 X94.175 Y110.239 E152.39559
G1 X94.894 Y108.45 E152.85833
G1 X95.403 Y106.798 E153.2732
G1 X95.834 Y104.869 E153.74758
G1 X98.226 Y91.628 E156.97686
G1 X100.99 Y69.743 E162.27098
G1 X101.325 Y68.823 E162.50596
G0 F7200 X101.844 Y69.151
G1 F2100 X102.556 Y68.427 E162.74967
G1 X103.948 Y67.74 E163.12222
G1 X120.824 Y71.17 E167.25527
G1 X122.035 Y72.874 E167.75699
G1 X122.036 Y95.901 E173.28347
G1 X122.096 Y97.602 E173.69196
G1 X122.267 Y99.206 E174.0791
G1 X122.538 Y100.739 E174.45273
G1 X122.946 Y102.358 E174.85344
G1 X123.443 Y103.872 E175.23587
G1 X124.061 Y105.381 E175.62723
G1 X125.355 Y108.251 E176.3828
G1 X126.056 Y109.678 E176.76437
G1 X126.896 Y111.116 E177.16406
G1 X127.682 Y112.363 E177.51783
G1 X128.977 Y114.638 E178.14609
G1 X130.18 Y116.717 E178.72257
G1 X130.878 Y117.694 E179.01074
G1 X132.796 Y120.46 E179.81856
G1 X133.84 Y122.114 E180.28799
G1 X134.591 Y123.433 E180.65226
G1 X135.132 Y124.59 E180.9588
G1 X135.731 Y126.201 E181.3713
G1 X136.115 Y127.591 E181.71739
G1 X136.353 Y128.796 E182.01218
G1 X136.539 Y130.401 E182.39996
G1 X136.592 Y131.847 E182.74723
G1 X136.342 Y133.461 E183.13921
G1 X135.999 Y135.081 E183.53663
G1 X135.603 Y136.526 E183.89622
G1 X134.427 Y140.397 E184.86718
G1 X133.948 Y141.752 E185.21211
G1 X133.326 Y143.137 E185.57649
G1 X132.942 Y143.904 E185.78235
G1 X132.241 Y145.162 E186.12798
G1 X131.52 Y146.254 E186.44203
G1 X130.635 Y147.395 E186.78859
G1 X129.655 Y148.559 E187.15378
G1 X128.488 Y149.806 E187.56367
G1 X127.182 Y150.967 E187.98306
G1 X126.017 Y151.843 E188.33288
G1 X124.546 Y152.759 E188.74877
G1 X123.242 Y153.421 E189.09975
G1 X121.631 Y154.039 E189.51387
G1 X120.128 Y154.468 E189.88899
G1 X118.371 Y154.878 E190.322
G1 X113.669 Y154.404 E191.4562
G1 X111.934 Y154.133 E191.87765
G1 X110.365 Y153.739 E192.2659
G1 X109.399 Y153.448 E192.50803
G1 X108.042 Y152.967 E192.85357
G1 X106.52 Y152.273 E193.25503
G1 X104.897 Y151.284 E193.71117
G1 X103.424 Y150.242 E194.1442
G1 X101.908 Y149.001 E194.6144
G1 X100.592 Y147.764 E195.04787
G1 X97.373 Y144.53 E196.14298
G1 X95.129 Y140.978 E197.15133
G1 X94.146 Y139.274 E197.62346
G1 X93.2 Y137.297 E198.14946
G1 X92.511 Y135.535 E198.60352
G1 X91.819 Y133.298 E199.1655
G1 X91.824 Y122.657 E201.71934
G1 X91.93 Y120.361 E202.27097
G1 X92.223 Y118.115 E202.81458
G1 X92.667 Y116.047 E203.32221
G1 X93.358 Y113.762 E203.89514
G1 X94.178 Y111.698 E204.42816
G1 X94.732 Y110.463 E204.75301
G1 X95.458 Y108.658 E205.21994
G1 X95.986 Y106.943 E205.65061
G1 X96.42 Y105 E206.12842
G1 X98.819 Y91.717 E209.36791
G1 X101.576 Y69.887 E214.64873
G1 X101.844 Y69.151 E214.83672
G0 F7200 X102.363 Y69.479
G1 F2100 X102.914 Y68.919 E215.02527
G1 X104.029 Y68.369 E215.32365
G1 X120.472 Y71.711 E219.35066
G1 X121.435 Y73.066 E219.74962
G1 X121.436 Y95.922 E225.23506
G1 X121.497 Y97.645 E225.64884
G1 X121.672 Y99.288 E226.04539
G1 X121.951 Y100.865 E226.42975
G1 X122.368 Y102.52 E226.83936
G1 X122.879 Y104.076 E227.23242
G1 X123.514 Y105.628 E227.63488
G1 X124.808 Y108.498 E228.39045
G1 X125.53 Y109.967 E228.78329
G1 X126.388 Y111.436 E229.19158
G1 X127.174 Y112.683 E229.54535
G1 X128.458 Y114.939 E230.16835
G1 X129.675 Y117.042 E230.75149
G1 X130.385 Y118.036 E231.04465
G1 X132.303 Y120.802 E231.85248
G1 X133.319 Y122.411 E232.30918
G1 X134.047 Y123.687 E232.66176
G1 X134.588 Y124.844 E232.96829
G1 X135.153 Y126.361 E233.35681
G1 X135.526 Y127.707 E233.69202
G1 X135.764 Y128.912 E233.98681
G1 X135.939 Y130.423 E234.35187
G1 X135.99 Y131.813 E234.6857
G1 X135.749 Y133.369 E235.06359
G1 X135.42 Y134.923 E235.44481
G1 X135.029 Y136.352 E235.80038
G1 X133.861 Y140.197 E236.76482
G1 X133.382 Y141.552 E237.10974
G1 X132.789 Y142.868 E237.45616
G1 X132.405 Y143.635 E237.66203
G1 X131.74 Y144.831 E237.99045
G1 X131.019 Y145.923 E238.3045
G1 X130.176 Y147.009 E238.63445
G1 X129.216 Y148.15 E238.99233
G1 X128.089 Y149.358 E239.38883
G1 X126.821 Y150.487 E239.79629
G1 X125.656 Y151.363 E240.14612
G1 X124.274 Y152.224 E240.5369
G1 X122.97 Y152.886 E240.88788
G1 X121.466 Y153.462 E241.27441
G1 X119.99 Y153.884 E241.64284
G1 X118.344 Y154.272 E242.04871
G1 X113.761 Y153.811 E243.15418
G1 X112.08 Y153.551 E243.56242
G1 X110.511 Y153.157 E243.95067
G1 X109.599 Y152.882 E244.17928
G1 X108.242 Y152.401 E244.52482
G1 X106.832 Y151.761 E244.89644
G1 X105.244 Y150.794 E245.34267
G1 X103.771 Y149.752 E245.7757
G1 X102.319 Y148.564 E246.22596
G1 X101.017 Y147.341 E246.65467
G1 X97.846 Y144.155 E247.73349
G1 X95.649 Y140.678 E248.7206
G1 X94.666 Y138.974 E249.19273
G1 X93.759 Y137.078 E249.69716
G1 X93.07 Y135.316 E250.15122
G1 X92.419 Y133.208 E250.68071
G1 X92.423 Y122.684 E253.20647
G1 X92.525 Y120.438 E253.74607
G1 X92.81 Y118.241 E254.27777
G1 X93.254 Y116.173 E254.7854
G1 X93.916 Y113.984 E255.33426
G1 X94.736 Y111.92 E255.86728
G1 X95.289 Y110.687 E256.1916
G1 X96.021 Y108.866 E256.66263
G1 X96.569 Y107.088 E257.10915
G1 X97.006 Y105.131 E257.5904
G1 X99.412 Y91.806 E260.84012
G1 X102.162 Y70.031 E266.10763
G1 X102.363 Y69.479 E266.24862
G0 F7200 X102.882 Y69.807
G1 F2100 X103.269 Y69.413 E266.38116
G1 X104.11 Y68.998 E266.60624
G1 X120.12 Y72.252 E270.5272
G1 X120.835 Y73.258 E270.82341
G1 X120.836 Y95.943 E276.26781
G1 X120.898 Y97.687 E276.68663
G1 X121.077 Y99.371 E277.09307
G1 X121.364 Y100.991 E277.48792
G1 X121.79 Y102.682 E277.90644
G1 X122.315 Y104.28 E278.31013
G1 X122.967 Y105.875 E278.72368
G1 X124.261 Y108.745 E279.47925
G1 X125.004 Y110.256 E279.88337
G1 X125.87 Y111.739 E280.29553
G1 X126.653 Y112.98 E280.64769
G1 X127.939 Y115.239 E281.27155
G1 X129.173 Y117.372 E281.86297
G1 X129.892 Y118.378 E282.15973
G1 X131.81 Y121.144 E282.96756
G1 X132.798 Y122.709 E283.41174
G1 X133.503 Y123.941 E283.75241
G1 X134.044 Y125.098 E284.05895
G1 X134.575 Y126.522 E284.4237
G1 X134.937 Y127.823 E284.7478
G1 X135.175 Y129.028 E285.04258
G1 X135.339 Y130.445 E285.38493
G1 X135.388 Y131.78 E285.70555
G1 X135.162 Y133.245 E286.06131
G1 X134.841 Y134.765 E286.43415
G1 X134.455 Y136.178 E286.7857
G1 X133.295 Y139.997 E287.74361
G1 X132.816 Y141.352 E288.08853
G1 X132.252 Y142.6 E288.41722
G1 X131.88 Y143.344 E288.61685
G1 X131.239 Y144.5 E288.93409
G1 X130.518 Y145.592 E289.24814
G1 X129.717 Y146.623 E289.56148
G1 X128.777 Y147.741 E289.91204
G1 X127.689 Y148.91 E290.29531
G1 X126.46 Y150.007 E290.69068
G1 X125.295 Y150.883 E291.04051
G1 X124.002 Y151.689 E291.40618
G1 X122.698 Y152.351 E291.75716
G1 X121.301 Y152.885 E292.1161
G1 X119.852 Y153.3 E292.47784
G1 X118.304 Y153.665 E292.85955
G1 X113.852 Y153.218 E293.9334
G1 X112.226 Y152.969 E294.32819
G1 X110.657 Y152.575 E294.71644
G1 X109.799 Y152.316 E294.93154
G1 X108.442 Y151.835 E295.27708
G1 X107.144 Y151.248 E295.61897
G1 X105.591 Y150.304 E296.05515
G1 X104.118 Y149.262 E296.48818
G1 X102.73 Y148.127 E296.91849
G1 X101.442 Y146.918 E297.34246
G1 X98.317 Y143.779 E298.4055
G1 X96.169 Y140.378 E299.37091
G1 X95.186 Y138.674 E299.84303
G1 X94.318 Y136.859 E300.32589
G1 X93.629 Y135.097 E300.77995
G1 X93.019 Y133.119 E301.27673
G1 X93.022 Y122.711 E303.77465
G1 X93.12 Y120.515 E304.30221
G1 X93.397 Y118.367 E304.822
G1 X93.841 Y116.299 E305.32963
G1 X94.474 Y114.206 E305.85442
G1 X95.294 Y112.142 E306.38744
G1 X95.846 Y110.911 E306.71123
G1 X96.584 Y109.074 E307.18636
G1 X97.152 Y107.233 E307.64875
G1 X97.592 Y105.262 E308.13343
G1 X100.005 Y91.895 E311.39336
G1 X102.757 Y70.106 E316.66427
G1 X102.882 Y69.807 E316.74205
G0 F7200 X103.928 Y70.405
G1 F2100 X104.272 Y70.256 E316.83202
G1 X119.5 Y73.351 E320.56146
G1 X119.635 Y73.55 E320.61917
G1 X119.636 Y95.985 E326.00357
G1 X119.7 Y97.771 E326.43249
G1 X119.887 Y99.533 E326.85774
G1 X120.19 Y101.249 E327.27595
G1 X120.634 Y103.006 E327.71089
G1 X121.191 Y104.7 E328.13886
G1 X121.864 Y106.349 E328.56631
G1 X123.167 Y109.239 E329.32715
G1 X123.952 Y110.834 E329.7538
G1 X124.845 Y112.363 E330.17876
G1 X125.611 Y113.574 E330.52267
G1 X126.901 Y115.839 E331.14825
G1 X128.169 Y118.032 E331.75621
G1 X128.906 Y119.062 E332.06018
G1 X130.824 Y121.828 E332.868
G1 X131.758 Y123.307 E333.28782
G1 X132.415 Y124.449 E333.60402
G1 X132.956 Y125.606 E333.91055
G1 X133.419 Y126.845 E334.228
G1 X133.759 Y128.055 E334.52964
G1 X133.997 Y129.26 E334.82443
G1 X134.139 Y130.489 E335.12135
G1 X134.184 Y131.714 E335.41555
G1 X133.976 Y133.061 E335.74266
G1 X133.683 Y134.449 E336.08312
G1 X133.307 Y135.83 E336.42663
G1 X132.163 Y139.6 E337.37217
G1 X131.722 Y140.858 E337.6921
G1 X131.178 Y142.065 E338.00985
G1 X130.83 Y142.764 E338.19725
G1 X130.236 Y143.841 E338.49243
G1 X129.57 Y144.856 E338.78379
G1 X128.799 Y145.851 E339.08589
G1 X127.878 Y146.947 E339.42948
G1 X126.889 Y148.015 E339.77882
G1 X125.699 Y149.08 E340.16209
