;FLAVOR:UltiGCode
;TIME:996
;MATERIAL:4082
;MATERIAL2:0
;NOZZLE_DIAMETER:0.6
;MINX:49.673
;MINY:78.582
;MINZ:0.4
;MAXX:173.328
;MAXY:144.418
;MAXZ:1.45
;TARGET_MACHINE.NAME:Ultimaker 2+
;Generated with Cura_SteamEngine 5.10.0
G0 F3000 Y50 ;avoid prime blob
M104 S230 ; Régler la température de l'extrudeur à 230°C
M140 S58 ; Régle la température du plateau à 58°C
M221 S100 ; Augmente le material flow de +x%
M207 S10 F1500 ; Rétraction à 10 mm, à une vitesse de rétration de 25 mm/s
M82 ;absolute extrusion mode
G92 E0
G92 E0
G10
;LAYER_COUNT:8
;LAYER:0
M107
G0 F7200 X52.217 Y79.647 Z0.4
;TYPE:SKIRT
G11
G1 F2400 X54.197 Y78.898 E0.50806
G1 X104.503 Y78.897 E12.5815
G1 X104.716 Y78.956 E12.63455
G1 X105.286 Y78.582 E12.79817
G1 X167.909 Y78.59 E27.82769
G1 X168.673 Y78.759 E28.01548
G1 X171.236 Y80.106 E28.71038
G1 X172.529 Y82.865 E29.44165
G1 X172.511 Y86.529 E30.32102
G1 X172.467 Y86.853 E30.39949
G1 X172.464 Y94.981 E32.35021
G1 X170.557 Y96.989 E33.01483
G1 X169.924 Y97.432 E33.20026
G1 X168.665 Y97.782 E33.51388
G1 X159.135 Y97.782 E35.80108
G1 X157.127 Y95.875 E36.4657
G1 X156.684 Y95.242 E36.65112
G1 X156.334 Y93.983 E36.96474
G1 X156.334 Y90.755 E37.73946
G1 X122.758 Y90.757 E45.7977
G1 X121.774 Y90.941 E46.03796
G1 X121.162 Y91.148 E46.19301
G1 X120.567 Y91.409 E46.34894
G1 X119.862 Y91.859 E46.54967
G1 X119.1 Y92.514 E46.79083
G1 X118.501 Y93.3 E47.02801
G1 X118.145 Y93.924 E47.20043
G1 X117.772 Y94.894 E47.44984
G1 X117.585 Y95.917 E47.69943
G1 X117.585 Y126.067 E54.93543
G1 X117.746 Y126.92 E55.14377
G1 X117.968 Y127.693 E55.33679
G1 X118.458 Y128.615 E55.58737
G1 X118.854 Y129.177 E55.75238
G1 X118.854 Y128.246 E55.97582
G1 X120.761 Y126.238 E56.64043
G1 X121.394 Y125.795 E56.82586
G1 X122.653 Y125.445 E57.13948
G1 X133.113 Y125.445 E59.64988
G1 X133.685 Y125.92 E59.82832
G1 X133.994 Y125.743 E59.91379
G1 X135.064 Y125.445 E60.18036
G1 X145.524 Y125.445 E62.69076
G1 X146.097 Y125.921 E62.86954
G1 X146.406 Y125.743 E62.95513
G1 X147.476 Y125.445 E63.2217
G1 X157.936 Y125.445 E65.7321
G1 X158.508 Y125.92 E65.91054
G1 X158.817 Y125.743 E65.99601
G1 X159.887 Y125.445 E66.26258
G1 X170.417 Y125.445 E68.78978
G1 X172.425 Y127.352 E69.4544
G1 X172.868 Y127.985 E69.63983
G1 X173.218 Y129.244 E69.95345
G1 X173.222 Y135.001 E71.33513
G1 X173.328 Y135.686 E71.50148
G1 X173.328 Y139.978 E72.53156
G1 X172.287 Y142.558 E73.19927
G1 X169.492 Y144.418 E74.00503
G1 X106.006 Y144.417 E89.24167
G1 X105.216 Y144.169 E89.44039
G1 X103.055 Y142.898 E90.04208
G1 X101.774 Y140.457 E90.70369
G1 X101.705 Y139.853 E90.8496
G1 X54.61 Y139.852 E102.1524
G1 X52.862 Y139.472 E102.58171
G1 X50.729 Y138.007 E103.20275
G1 X49.673 Y135.477 E103.86072
G1 X49.677 Y82.427 E116.59272
G1 X51.256 Y80.448 E117.20034
G1 X52.217 Y79.647 E117.50059
G0 F7200 X52.524 Y80.172
G1 F2400 X54.306 Y79.498 E117.95784
G1 X104.503 Y79.497 E130.00512
G1 X104.78 Y79.662 E130.0825
G1 X105.407 Y79.182 E130.27201
G1 X167.909 Y79.19 E145.27249
G1 X168.394 Y79.29 E145.39134
G1 X170.78 Y80.544 E146.03825
G1 X171.928 Y82.996 E146.68803
G1 X171.916 Y86.448 E147.51652
G1 X171.867 Y86.809 E147.60395
G1 X171.864 Y94.742 E149.50787
G1 X170.122 Y96.576 E150.11494
G1 X169.665 Y96.881 E150.2468
G1 X168.583 Y97.182 E150.51635
G1 X159.374 Y97.182 E152.72651
G1 X157.54 Y95.44 E153.33357
G1 X157.235 Y94.983 E153.46544
G1 X156.934 Y93.901 E153.73498
G1 X156.934 Y90.155 E154.63402
G1 X122.702 Y90.157 E162.8497
G1 X121.626 Y90.358 E163.11241
G1 X120.935 Y90.592 E163.2875
G1 X120.284 Y90.877 E163.45805
G1 X119.505 Y91.375 E163.67995
G1 X118.661 Y92.1 E163.94698
G1 X118.001 Y92.966 E164.2083
G1 X117.601 Y93.667 E164.40201
G1 X117.192 Y94.731 E164.67558
G1 X116.985 Y95.864 E164.952
G1 X116.985 Y126.125 E172.21464
G1 X117.161 Y127.059 E172.44275
G1 X117.408 Y127.917 E172.65703
G1 X117.946 Y128.93 E172.93231
G1 X118.508 Y129.727 E173.16637
G1 X119.454 Y130.614 E173.4776
G1 X119.454 Y128.485 E173.98856
G1 X121.196 Y126.651 E174.59563
G1 X121.653 Y126.346 E174.72749
G1 X122.735 Y126.045 E174.99703
G1 X132.946 Y126.045 E177.44767
G1 X133.634 Y126.699 E177.67549
G1 X134.155 Y126.321 E177.82997
G1 X135.146 Y126.045 E178.07686
G1 X145.357 Y126.045 E180.5275
G1 X146.045 Y126.699 E180.75532
G1 X146.567 Y126.321 E180.91
G1 X147.558 Y126.045 E181.15689
G1 X157.769 Y126.045 E183.60753
G1 X158.457 Y126.699 E183.83535
G1 X158.978 Y126.321 E183.98983
G1 X159.969 Y126.045 E184.23672
G1 X170.178 Y126.045 E186.68688
G1 X172.012 Y127.787 E187.29395
G1 X172.317 Y128.244 E187.42582
G1 X172.618 Y129.326 E187.69536
G1 X172.622 Y135.048 E189.06864
G1 X172.728 Y135.733 E189.23499
G1 X172.728 Y139.862 E190.22595
G1 X171.8 Y142.162 E190.82119
G1 X169.312 Y143.818 E191.53849
G1 X106.098 Y143.817 E206.70985
G1 X105.52 Y143.652 E206.85411
G1 X103.507 Y142.468 E207.4146
G1 X102.305 Y140.178 E208.03531
G1 X102.305 Y139.253 E208.25731
G1 X54.674 Y139.252 E219.68875
G1 X53.106 Y138.911 E220.07387
G1 X51.214 Y137.612 E220.62467
G1 X50.273 Y135.356 E221.21132
G1 X50.277 Y82.637 E233.86388
G1 X51.687 Y80.87 E234.40643
G1 X52.524 Y80.172 E234.66799
G0 F7200 X52.831 Y80.697
G1 F2400 X52.118 Y81.292 E234.89087
G1 X50.877 Y82.847 E235.36835
G1 X50.873 Y135.235 E247.94147
G1 X51.7 Y137.217 E248.4569
G1 X53.35 Y138.35 E248.93727
G1 X54.738 Y138.652 E249.27818
G1 X102.905 Y138.653 E260.83826
G1 X102.905 Y140.03 E261.16874
G1 X103.959 Y142.038 E261.71302
G1 X105.824 Y143.135 E262.23231
G1 X106.128 Y143.218 E262.30794
G1 X169.13 Y143.218 E277.42842
G1 X171.314 Y141.765 E278.05798
G1 X172.128 Y139.747 E278.58022
G1 X172.128 Y135.733 E279.54358
G1 X172.022 Y135.099 E279.69785
G1 X172.018 Y129.408 E281.06369
G1 X171.764 Y128.496 E281.2909
G1 X171.599 Y128.222 E281.36766
G1 X169.939 Y126.645 E281.91718
G1 X160.051 Y126.645 E284.2903
G1 X159.139 Y126.899 E284.51751
G1 X158.44 Y127.511 E284.74048
G1 X157.529 Y126.645 E285.04215
G1 X147.64 Y126.645 E287.41551
G1 X146.728 Y126.899 E287.64272
G1 X146.028 Y127.511 E287.86587
G1 X145.117 Y126.645 E288.16754
G1 X135.228 Y126.645 E290.5409
G1 X134.316 Y126.899 E290.76811
G1 X133.617 Y127.511 E290.99108
G1 X132.706 Y126.645 E291.29274
G1 X122.817 Y126.645 E293.6661
G1 X121.905 Y126.899 E293.89331
G1 X121.631 Y127.064 E293.97008
G1 X120.054 Y128.724 E294.51959
G1 X120.054 Y131.657 E295.22351
G1 X119.492 Y131.355 E295.37663
G1 X118.743 Y130.77 E295.60473
G1 X118.052 Y130.122 E295.83208
G1 X117.433 Y129.243 E296.0901
G1 X116.848 Y128.143 E296.38911
G1 X116.576 Y127.198 E296.62512
G1 X116.426 Y126.399 E296.82023
G1 X116.385 Y125.711 E296.98564
G1 X116.385 Y96.286 E304.04764
G1 X116.418 Y95.63 E304.20528
G1 X116.611 Y94.571 E304.46363
G1 X117.057 Y93.41 E304.76212
G1 X117.501 Y92.632 E304.97711
G1 X118.222 Y91.686 E305.26257
G1 X119.148 Y90.891 E305.55548
G1 X119.996 Y90.349 E305.79702
G1 X120.718 Y90.032 E305.98626
G1 X121.479 Y89.775 E306.17904
G1 X122.434 Y89.596 E306.41223
G1 X123.11 Y89.557 E306.57474
G1 X157.534 Y89.555 E314.8365
G1 X157.534 Y93.819 E315.85986
G1 X157.788 Y94.731 E316.08707
G1 X157.953 Y95.005 E316.16383
G1 X159.613 Y96.582 E316.71335
G1 X168.501 Y96.582 E318.84647
G1 X169.413 Y96.328 E319.07368
G1 X169.687 Y96.163 E319.15044
G1 X171.264 Y94.503 E319.69996
G1 X171.267 Y86.765 E321.55708
G1 X171.321 Y86.367 E321.65348
G1 X171.328 Y83.127 E322.43108
G1 X170.324 Y80.982 E322.99948
G1 X168.188 Y79.859 E323.57865
G1 X167.909 Y79.79 E323.64763
G1 X105.563 Y79.782 E338.61067
G1 X104.82 Y80.419 E338.84555
G1 X104.355 Y80.097 E338.9813
G1 X54.415 Y80.098 E350.9669
G1 X52.831 Y80.697 E351.37333
G0 F7200 X53.138 Y81.222
G1 F2400 X54.524 Y80.698 E351.72895
G1 X104.198 Y80.697 E363.65071
G1 X104.84 Y81.192 E363.84527
G1 X105.785 Y80.382 E364.14399
G1 X167.909 Y80.39 E379.05375
G1 X169.867 Y81.42 E379.58472
G1 X170.728 Y83.259 E380.07206
G1 X170.726 Y86.286 E380.79854
G1 X170.667 Y86.721 E380.9039
G1 X170.664 Y94.264 E382.71422
G1 X169.252 Y95.75 E383.20618
G1 X168.419 Y95.982 E383.41371
G1 X159.852 Y95.982 E385.46979
G1 X158.366 Y94.57 E385.96176
G1 X158.134 Y93.737 E386.16929
G1 X158.134 Y88.955 E387.31697
G1 X123.093 Y88.957 E395.72681
G1 X122.358 Y88.999 E395.9035
G1 X121.326 Y89.193 E396.15551
G1 X120.511 Y89.468 E396.36195
G1 X119.713 Y89.818 E396.57108
G1 X118.786 Y90.411 E396.83519
G1 X117.981 Y91.101 E397.08965
G1 X117.523 Y91.613 E397.25452
G1 X117.001 Y92.298 E397.46121
G1 X116.513 Y93.153 E397.69748
G1 X116.144 Y94.115 E397.94476
G1 X115.963 Y94.782 E398.11063
G1 X115.821 Y95.562 E398.30091
G1 X115.785 Y96.276 E398.47249
G1 X115.785 Y125.729 E405.54121
G1 X115.829 Y126.475 E405.72056
G1 X115.989 Y127.328 E405.92885
G1 X116.291 Y128.374 E406.19014
G1 X116.92 Y129.556 E406.51149
G1 X117.596 Y130.517 E406.79348
G1 X118.352 Y131.226 E407.04222
G1 X119.161 Y131.858 E407.28861
G1 X120.158 Y132.394 E407.56027
G1 X120.654 Y132.579 E407.68732
G1 X120.654 Y128.963 E408.55516
G1 X122.066 Y127.477 E409.04713
G1 X122.899 Y127.245 E409.25466
G1 X132.466 Y127.245 E411.55074
G1 X133.639 Y128.359 E411.93899
G1 X134.477 Y127.477 E412.23097
G1 X135.31 Y127.245 E412.4385
G1 X144.877 Y127.245 E414.73458
G1 X146.05 Y128.359 E415.12283
G1 X146.889 Y127.477 E415.41498
G1 X147.722 Y127.245 E415.62251
G1 X157.289 Y127.245 E417.91859
G1 X158.462 Y128.359 E418.30684
G1 X159.3 Y127.477 E418.59883
G1 X160.133 Y127.245 E418.80636
G1 X169.7 Y127.245 E421.10244
G1 X171.186 Y128.657 E421.5944
G1 X171.418 Y129.49 E421.80193
G1 X171.422 Y135.152 E423.16081
G1 X171.528 Y135.733 E423.30256
G1 X171.528 Y139.631 E424.23808
G1 X170.827 Y141.368 E424.68762
G1 X168.948 Y142.618 E425.22926
G1 X106.128 Y142.618 E440.30606
G1 X104.411 Y141.608 E440.78414
G1 X103.505 Y139.882 E441.25198
G1 X103.505 Y138.053 E441.69094
G1 X54.802 Y138.052 E453.37966
G1 X53.594 Y137.789 E453.67638
G1 X52.186 Y136.822 E454.08632
G1 X51.473 Y135.114 E454.53052
G1 X51.477 Y83.057 E467.0242
G1 X52.549 Y81.714 E467.43661
G1 X53.138 Y81.222 E467.6208
G0 F7200 X53.445 Y81.747
G1 F2400 X54.633 Y81.298 E467.9256
G1 X104.035 Y81.297 E479.78208
G1 X104.842 Y81.98 E480.03582
G1 X106.007 Y80.982 E480.40398
G1 X167.761 Y80.99 E495.22494
G1 X169.409 Y81.857 E495.67186
G1 X170.128 Y83.392 E496.07867
G1 X170.126 Y86.286 E496.77323
G1 X170.067 Y86.677 E496.86813
G1 X170.064 Y94.025 E498.63165
G1 X168.919 Y95.23 E499.03059
G1 X168.336 Y95.382 E499.17519
G1 X160.091 Y95.382 E501.15399
G1 X158.886 Y94.237 E501.55293
G1 X158.734 Y93.654 E501.69753
G1 X158.734 Y88.355 E502.96929
G1 X123.077 Y88.357 E511.52697
G1 X122.282 Y88.402 E511.71807
G1 X121.173 Y88.611 E511.98892
G1 X120.295 Y88.907 E512.21129
G1 X119.435 Y89.284 E512.43665
G1 X118.424 Y89.931 E512.72472
G1 X117.561 Y90.67 E512.9974
G1 X117.058 Y91.233 E513.1786
G1 X116.499 Y91.967 E513.40003
G1 X115.97 Y92.893 E513.65597
G1 X115.573 Y93.929 E513.92225
G1 X115.378 Y94.648 E514.10104
G1 X115.224 Y95.492 E514.30694
G1 X115.185 Y96.266 E514.49294
G1 X115.185 Y125.747 E521.56838
G1 X115.232 Y126.551 E521.76167
G1 X115.402 Y127.458 E521.98314
G1 X115.631 Y128.251 E522.18124
G1 X115.884 Y128.887 E522.34551
G1 X116.407 Y129.869 E522.61253
G1 X116.922 Y130.601 E522.82733
G1 X117.348 Y131.107 E522.98608
G1 X117.961 Y131.682 E523.18779
G1 X118.832 Y132.362 E523.453
G1 X119.907 Y132.941 E523.74604
G1 X121.254 Y133.442 E524.09096
G1 X121.254 Y129.202 E525.10856
G1 X122.399 Y127.997 E525.50749
G1 X122.982 Y127.845 E525.65209
G1 X132.227 Y127.845 E527.87089
G1 X133.432 Y128.99 E528.26983
G1 X133.584 Y129.573 E528.41443
G1 X133.584 Y133.645 E529.39171
G1 X133.665 Y133.645 E529.41115
G1 X133.665 Y129.202 E530.47747
G1 X134.81 Y127.997 E530.87641
G1 X135.393 Y127.845 E531.021
G1 X144.638 Y127.845 E533.2398
G1 X145.843 Y128.99 E533.63874
G1 X145.995 Y129.573 E533.78334
G1 X145.995 Y133.645 E534.76062
G1 X146.077 Y133.645 E534.7803
G1 X146.077 Y129.202 E535.84662
G1 X147.222 Y127.997 E536.24556
G1 X147.805 Y127.845 E536.39015
G1 X157.05 Y127.845 E538.60895
G1 X158.255 Y128.99 E539.00789
G1 X158.407 Y129.573 E539.15249
G1 X158.407 Y133.645 E540.12977
G1 X158.488 Y133.645 E540.14921
G1 X158.488 Y129.202 E541.21553
G1 X159.633 Y127.997 E541.61447
G1 X160.216 Y127.845 E541.75906
G1 X169.461 Y127.845 E543.97786
G1 X170.666 Y128.99 E544.3768
G1 X170.818 Y129.573 E544.5214
G1 X170.822 Y135.213 E545.875
G1 X170.928 Y135.733 E546.00237
G1 X170.928 Y139.516 E546.91029
G1 X170.341 Y140.971 E547.28683
G1 X168.766 Y142.018 E547.74073
G1 X106.291 Y142.018 E562.73473
G1 X104.863 Y141.178 E563.13235
G1 X104.105 Y139.734 E563.52376
G1 X104.105 Y137.453 E564.0712
G1 X54.866 Y137.452 E575.88856
G1 X53.838 Y137.228 E576.14107
G1 X52.672 Y136.427 E576.48058
G1 X52.073 Y134.993 E576.85356
G1 X52.077 Y83.267 E589.2678
G1 X53.018 Y82.088 E589.62983
G1 X53.445 Y81.747 E589.76098
G0 F7200 X53.744 Y82.275
G1 F2400 X54.742 Y81.898 E590.01702
G1 X103.815 Y81.897 E601.79454
G1 X104.956 Y82.861 E602.15303
G1 X105.099 Y82.55 E602.23518
G1 X106.229 Y81.582 E602.59229
G1 X167.613 Y81.59 E617.32445
G1 X168.951 Y82.294 E617.6873
G1 X169.528 Y83.525 E618.01359
G1 X169.526 Y86.286 E618.67623
G1 X169.467 Y86.627 E618.75928
G1 X169.464 Y93.785 E620.4772
G1 X168.587 Y94.707 E620.7826
G1 X168.259 Y94.782 E620.86335
G1 X160.331 Y94.782 E622.76607
G1 X159.409 Y93.905 E623.07147
G1 X159.334 Y93.577 E623.15222
G1 X159.334 Y87.755 E624.5495
G1 X123.061 Y87.757 E633.25502
G1 X122.206 Y87.805 E633.46054
G1 X121.019 Y88.029 E633.75045
G1 X120.088 Y88.343 E633.98626
G1 X119.147 Y88.756 E634.23289
G1 X118.063 Y89.449 E634.54167
G1 X117.145 Y90.236 E634.83187
G1 X116.592 Y90.854 E635.0309
G1 X115.998 Y91.635 E635.2664
G1 X115.428 Y92.631 E635.54181
G1 X115.001 Y93.747 E635.82859
G1 X114.793 Y94.512 E636.01886
G1 X114.627 Y95.424 E636.24133
G1 X114.585 Y96.256 E636.44127
G1 X114.585 Y125.765 E643.52343
G1 X114.635 Y126.627 E643.73065
G1 X114.816 Y127.591 E643.96606
G1 X115.063 Y128.445 E644.17942
G1 X115.34 Y129.141 E644.3592
G1 X115.898 Y130.188 E644.64394
G1 X116.444 Y130.964 E644.87166
G1 X116.913 Y131.521 E645.04642
G1 X117.57 Y132.138 E645.26273
G1 X118.503 Y132.866 E645.54675
G1 X119.656 Y133.488 E645.86117
G1 X120.561 Y133.824 E646.09285
G1 X121.854 Y134.175 E646.4144
G1 X121.854 Y129.442 E647.55032
G1 X122.731 Y128.52 E647.85572
G1 X123.059 Y128.445 E647.93647
G1 X131.987 Y128.445 E650.07919
G1 X132.909 Y129.322 E650.38459
G1 X132.984 Y129.65 E650.46534
G1 X132.984 Y134.245 E651.56814
G1 X134.265 Y134.245 E651.87558
G1 X134.265 Y129.442 E653.0283
G1 X135.142 Y128.52 E653.33369
G1 X135.47 Y128.445 E653.41445
G1 X144.398 Y128.445 E655.55717
G1 X145.32 Y129.322 E655.86256
G1 X145.395 Y129.65 E655.94331
G1 X145.395 Y134.245 E657.04611
G1 X146.677 Y134.245 E657.35379
G1 X146.677 Y129.442 E658.50651
G1 X147.554 Y128.52 E658.81191
G1 X147.882 Y128.445 E658.89266
G1 X156.81 Y128.445 E661.03538
G1 X157.732 Y129.322 E661.34078
G1 X157.807 Y129.65 E661.42153
G1 X157.807 Y134.245 E662.52433
G1 X159.088 Y134.245 E662.83177
G1 X159.088 Y129.442 E663.98449
G1 X159.965 Y128.52 E664.28988
G1 X160.293 Y128.445 E664.37064
G1 X169.221 Y128.445 E666.51336
G1 X170.143 Y129.322 E666.81875
G1 X170.218 Y129.65 E666.8995
G1 X170.222 Y135.283 E668.25142
G1 X170.328 Y135.733 E668.36238
G1 X170.328 Y139.401 E669.2427
G1 X169.855 Y140.574 E669.54625
G1 X168.584 Y141.418 E669.91242
G1 X106.454 Y141.418 E684.82362
G1 X105.315 Y140.748 E685.14076
G1 X104.705 Y139.586 E685.45573
G1 X104.705 Y136.083 E686.29645
G1 X103.866 Y136.853 E686.56976
G1 X54.93 Y136.852 E698.3144
G1 X54.082 Y136.667 E698.52271
G1 X53.157 Y136.032 E698.79198
G1 X52.673 Y134.872 E699.09365
G1 X52.677 Y83.477 E711.42845
G1 X53.487 Y82.462 E711.74011
G1 X53.744 Y82.275 E711.81639
G0 F7200 X54.322 Y83.339
G1 F2400 X54.96 Y83.098 E711.98007
G1 X103.377 Y83.097 E723.60015
G1 X103.958 Y83.589 E723.78287
G1 X104.146 Y84.089 E723.91107
G1 X104.146 Y101.862 E728.17659
G1 X105.904 Y101.613 E728.60272
G1 X105.904 Y83.736 E732.8932
G1 X106.074 Y83.296 E733.00641
G1 X106.673 Y82.782 E733.19584
G1 X167.317 Y82.79 E747.7504
G1 X168.036 Y83.168 E747.94535
G1 X168.328 Y83.791 E748.11048
G1 X168.326 Y86.286 E748.70928
G1 X168.267 Y86.469 E748.75543
G1 X168.264 Y93.392 E750.41695
G1 X168.075 Y93.582 E750.48127
