;FLAVOR:UltiGCode
;TIME:907
;MATERIAL:1658
;MATERIAL2:0
;NOZZLE_DIAMETER:0.6
;MINX:103.044
;MINY:86.465
;MINZ:0.4
;MAXX:119.961
;MAXY:136.583
;MAXZ:13
;TARGET_MACHINE.NAME:Ultimaker 2+
;Generated with Cura_SteamEngine 5.10.0
G0 F3000 Y50 ;avoid prime blob
M104 S230 ; Régler la température de l'extrudeur à 230°C
M140 S58 ; Régle la température du plateau à 58°C
M221 S100 ; Augmente le material flow de +x%

M82 ;absolute extrusion mode
G92 E0
G92 E0
G10
;LAYER_COUNT:85
;LAYER:0
M107
G0 F7200 X104.221 Y89.405 Z0.4
;TYPE:SKIRT
G11
G1 F2400 X105.275 Y88.229 E0.37901
G1 X106.215 Y87.568 E0.6548
G1 X107.768 Y86.836 E1.06685
G1 X108.822 Y86.64 E1.32415
G1 X110.551 Y86.465 E1.74123
G1 X112.735 Y86.693 E2.26824
G1 X114.623 Y87.21 E2.73804
G1 X116.285 Y87.914 E3.17123
G1 X117.984 Y89.217 E3.6851
G1 X118.729 Y90.133 E3.96847
G1 X119.622 Y91.807 E4.42382
G1 X119.961 Y93.294 E4.78985
G1 X119.928 Y95.073 E5.21689
G1 X119.913 Y97.844 E5.88194
G1 X119.953 Y100.084 E6.41962
G1 X119.914 Y103.388 E7.21264
G1 X119.951 Y105.091 E7.62146
G1 X119.957 Y105.911 E7.81826
G1 X119.933 Y107.189 E8.12503
G1 X119.913 Y107.761 E8.2624
G1 X119.895 Y110.412 E8.89865
G1 X119.916 Y112.182 E9.32348
G1 X119.899 Y114.941 E9.98566
G1 X119.938 Y116.358 E10.32586
G1 X119.93 Y116.559 E10.37414
G1 X119.956 Y117.998 E10.71956
G1 X119.914 Y120.216 E11.25197
G1 X119.936 Y123.126 E11.95039
G1 X119.954 Y124.1 E12.18419
G1 X119.914 Y126.411 E12.73892
G1 X119.932 Y129.985 E13.59669
G1 X119.781 Y131.52 E13.96687
G1 X119.307 Y132.727 E14.27808
G1 X118.712 Y133.673 E14.5463
G1 X117.619 Y134.928 E14.94571
G1 X116.111 Y135.763 E15.35941
G1 X115.184 Y136.173 E15.60268
G1 X112.979 Y136.583 E16.14095
G1 X110.545 Y136.341 E16.72799
G1 X109.042 Y135.995 E17.09815
G1 X107.416 Y135.393 E17.51427
G1 X106.533 Y134.947 E17.75169
G1 X104.877 Y133.637 E18.25845
G1 X103.899 Y132.355 E18.64544
G1 X103.149 Y130.309 E19.16843
G1 X103.047 Y128.94 E19.4979
G1 X103.093 Y125.86 E20.23719
G1 X103.07 Y124.681 E20.5202
G1 X103.058 Y123.196 E20.87661
G1 X103.077 Y122.227 E21.10922
G1 X103.094 Y119.451 E21.77547
G1 X103.049 Y117.003 E22.36309
G1 X103.067 Y116.255 E22.54266
G1 X103.094 Y113.52 E23.19909
G1 X103.055 Y110.884 E23.8318
G1 X103.077 Y109.497 E24.16472
G1 X103.081 Y106.782 E24.81632
G1 X103.044 Y104.895 E25.26929
G1 X103.062 Y104.189 E25.43879
G1 X103.09 Y101.499 E26.08442
G1 X103.051 Y98.919 E26.70369
G1 X103.092 Y95.664 E27.48495
G1 X103.067 Y94.454 E27.77542
G1 X103.069 Y92.988 E28.12726
G1 X103.192 Y91.807 E28.41223
G1 X103.629 Y90.41 E28.76353
G1 X104.221 Y89.405 E29.04347
G0 F7200 X104.707 Y89.761
G1 F2400 X105.675 Y88.681 E29.39154
G1 X106.517 Y88.09 E29.63843
G1 X107.954 Y87.412 E30.01977
G1 X108.932 Y87.23 E30.25852
G1 X110.549 Y87.068 E30.64855
G1 X112.626 Y87.285 E31.14974
G1 X114.389 Y87.763 E31.58813
G1 X115.983 Y88.438 E32.00358
G1 X117.56 Y89.648 E32.48063
G1 X118.23 Y90.472 E32.73552
G1 X119.054 Y92.016 E33.15555
G1 X119.36 Y93.356 E33.48543
G1 X119.328 Y95.062 E33.89494
G1 X119.313 Y97.841 E34.56191
G1 X119.353 Y100.077 E35.09863
G1 X119.314 Y103.381 E35.89165
G1 X119.351 Y105.095 E36.3031
G1 X119.357 Y105.9 E36.49631
G1 X119.333 Y107.168 E36.80068
G1 X119.313 Y107.74 E36.93805
G1 X119.295 Y110.408 E37.57838
G1 X119.316 Y112.178 E38.00321
G1 X119.299 Y114.958 E38.67042
G1 X119.338 Y116.375 E39.01063
G1 X119.33 Y116.56 E39.05507
G1 X119.356 Y117.987 E39.39761
G1 X119.314 Y120.205 E39.93003
G1 X119.336 Y123.137 E40.63373
G1 X119.354 Y124.09 E40.86249
G1 X119.314 Y126.401 E41.41721
G1 X119.335 Y129.926 E42.26323
G1 X119.192 Y131.379 E42.61363
G1 X118.769 Y132.455 E42.89111
G1 X118.228 Y133.315 E43.13495
G1 X117.237 Y134.453 E43.49712
G1 X115.82 Y135.238 E43.88589
G1 X115.008 Y135.595 E44.09878
G1 X112.956 Y135.978 E44.59976
G1 X110.678 Y135.756 E45.14907
G1 X109.249 Y135.432 E45.50074
G1 X107.686 Y134.857 E45.90044
G1 X106.854 Y134.437 E46.12412
G1 X105.31 Y133.215 E46.59669
G1 X104.43 Y132.062 E46.9448
G1 X103.741 Y130.182 E47.42535
G1 X103.647 Y128.949 E47.72213
G1 X103.693 Y125.869 E48.46141
G1 X103.67 Y124.676 E48.74778
G1 X103.658 Y123.208 E49.10011
G1 X103.677 Y122.239 E49.33272
G1 X103.694 Y119.455 E50.00089
G1 X103.649 Y117.017 E50.58611
G1 X103.667 Y116.269 E50.76568
G1 X103.694 Y113.526 E51.42403
G1 X103.655 Y110.894 E52.05578
G1 X103.677 Y109.507 E52.3887
G1 X103.681 Y106.783 E53.04247
G1 X103.644 Y104.91 E53.49207
G1 X103.662 Y104.204 E53.66157
G1 X103.69 Y101.505 E54.30936
G1 X103.651 Y98.927 E54.92815
G1 X103.692 Y95.672 E55.70942
G1 X103.667 Y94.454 E56.0018
G1 X103.666 Y93.05 E56.33876
G1 X103.783 Y91.929 E56.60926
G1 X104.182 Y90.653 E56.93012
G1 X104.707 Y89.761 E57.17853
G0 F7200 X105.192 Y90.12
G1 F2400 X106.078 Y89.132 E57.49703
G1 X106.819 Y88.612 E57.71429
G1 X108.141 Y87.988 E58.06514
G1 X109.042 Y87.82 E58.2851
G1 X110.546 Y87.671 E58.64783
G1 X112.519 Y87.877 E59.12393
G1 X114.155 Y88.316 E59.53046
G1 X115.681 Y88.962 E59.92816
G1 X117.138 Y90.08 E60.36892
G1 X117.728 Y90.806 E60.59345
G1 X118.487 Y92.227 E60.98009
G1 X118.759 Y93.418 E61.27328
G1 X118.728 Y95.051 E61.66528
G1 X118.713 Y97.838 E62.33417
G1 X118.753 Y100.07 E62.86993
G1 X118.714 Y103.374 E63.66295
G1 X118.751 Y105.1 E64.07728
G1 X118.757 Y105.889 E64.26665
G1 X118.733 Y107.147 E64.56862
G1 X118.713 Y107.719 E64.70599
G1 X118.695 Y110.404 E65.3504
G1 X118.716 Y112.174 E65.77523
G1 X118.699 Y114.975 E66.44748
G1 X118.738 Y116.351 E66.77786
G1 X118.73 Y116.547 E66.82493
G1 X118.756 Y117.976 E67.16795
G1 X118.714 Y120.194 E67.70037
G1 X118.736 Y123.149 E68.40959
G1 X118.754 Y124.08 E68.63307
G1 X118.714 Y126.391 E69.18779
G1 X118.738 Y129.867 E70.02205
G1 X118.603 Y131.238 E70.35268
G1 X118.231 Y132.183 E70.59642
G1 X117.747 Y132.953 E70.8147
G1 X116.852 Y133.981 E71.14182
G1 X115.578 Y134.689 E71.49162
G1 X114.833 Y135.017 E71.68699
G1 X112.928 Y135.373 E72.1521
G1 X110.809 Y135.17 E72.66299
G1 X109.455 Y134.868 E72.99593
G1 X107.957 Y134.321 E73.37867
G1 X107.177 Y133.927 E73.5884
G1 X105.741 Y132.791 E74.02784
G1 X104.961 Y131.769 E74.3364
G1 X104.333 Y130.055 E74.7745
G1 X104.247 Y128.958 E75.03859
G1 X104.293 Y125.878 E75.77787
G1 X104.27 Y124.671 E76.0676
G1 X104.258 Y123.22 E76.41585
G1 X104.277 Y122.251 E76.64846
G1 X104.294 Y119.459 E77.31855
G1 X104.249 Y117.031 E77.90137
G1 X104.267 Y116.283 E78.08094
G1 X104.294 Y113.532 E78.74121
G1 X104.255 Y110.904 E79.372
G1 X104.277 Y109.517 E79.70493
G1 X104.281 Y106.784 E80.36085
G1 X104.244 Y104.925 E80.8071
G1 X104.262 Y104.219 E80.97659
G1 X104.29 Y101.511 E81.62654
G1 X104.251 Y98.935 E82.24486
G1 X104.292 Y95.68 E83.02612
G1 X104.267 Y94.452 E83.3209
G1 X104.263 Y93.112 E83.6425
G1 X104.374 Y92.051 E83.89853
G1 X104.735 Y90.896 E84.18895
G1 X105.192 Y90.12 E84.40509
G0 F7200 X105.678 Y90.476
G1 F2400 X106.478 Y89.585 E84.69248
G1 X107.121 Y89.133 E84.88111
G1 X108.328 Y88.564 E85.20137
G1 X109.152 Y88.41 E85.40255
G1 X110.542 Y88.274 E85.73774
G1 X112.41 Y88.469 E86.1885
G1 X113.921 Y88.869 E86.56363
G1 X115.379 Y89.486 E86.94359
G1 X116.716 Y90.512 E87.34807
G1 X117.226 Y91.14 E87.54223
G1 X117.92 Y92.438 E87.89548
G1 X118.158 Y93.48 E88.152
G1 X118.128 Y95.039 E88.52623
G1 X118.113 Y97.835 E89.19728
G1 X118.153 Y100.063 E89.73208
G1 X118.114 Y103.367 E90.5251
G1 X118.151 Y105.105 E90.94231
G1 X118.157 Y105.877 E91.1276
G1 X118.133 Y107.126 E91.42742
G1 X118.113 Y107.698 E91.56478
G1 X118.095 Y110.4 E92.21327
G1 X118.116 Y112.17 E92.6381
G1 X118.099 Y114.992 E93.3154
G1 X118.138 Y116.368 E93.64577
G1 X118.13 Y116.547 E93.68877
G1 X118.156 Y117.965 E94.02915
G1 X118.114 Y120.183 E94.56156
G1 X118.136 Y123.161 E95.2763
G1 X118.154 Y124.07 E95.49451
G1 X118.114 Y126.381 E96.04923
G1 X118.131 Y128.338 E96.51893
G1 X118.125 Y128.437 E96.54273
G1 X118.141 Y129.808 E96.87179
G1 X118.014 Y131.096 E97.18241
G1 X117.693 Y131.911 E97.39264
G1 X117.263 Y132.596 E97.58674
G1 X116.47 Y133.506 E97.87643
G1 X115.336 Y134.14 E98.18824
G1 X114.656 Y134.439 E98.36652
G1 X112.905 Y134.768 E98.79412
G1 X110.94 Y134.584 E99.26778
G1 X109.586 Y134.282 E99.60072
G1 X108.227 Y133.785 E99.94801
G1 X107.502 Y133.419 E100.14292
G1 X106.172 Y132.367 E100.54991
G1 X105.492 Y131.476 E100.81891
G1 X104.925 Y129.928 E101.21457
G1 X104.847 Y128.967 E101.44596
G1 X104.893 Y125.887 E102.18525
G1 X104.87 Y124.666 E102.47834
G1 X104.858 Y123.232 E102.82251
G1 X104.877 Y122.263 E103.05512
G1 X104.894 Y119.463 E103.72713
G1 X104.849 Y117.045 E104.30755
G1 X104.867 Y116.297 E104.48712
G1 X104.894 Y113.538 E105.14931
G1 X104.855 Y110.914 E105.77914
G1 X104.877 Y109.527 E106.11206
G1 X104.881 Y106.785 E106.77014
G1 X104.844 Y104.94 E107.21303
G1 X104.862 Y104.234 E107.38253
G1 X104.89 Y101.517 E108.03464
G1 X104.851 Y98.943 E108.65247
G1 X104.892 Y95.688 E109.43374
G1 X104.867 Y94.449 E109.73116
G1 X104.86 Y93.175 E110.03692
G1 X104.965 Y92.173 E110.27872
G1 X105.288 Y91.139 E110.5387
G1 X105.678 Y90.476 E110.72331
G0 F7200 X106.124 Y90.877
G1 F2400 X106.88 Y90.035 E110.99489
G1 X107.377 Y89.676 E111.14204
G1 X108.517 Y89.139 E111.44447
G1 X109.21 Y89.007 E111.61378
G1 X110.538 Y88.877 E111.93403
G1 X112.301 Y89.061 E112.35945
G1 X113.687 Y89.422 E112.70318
G1 X115.077 Y90.01 E113.0654
G1 X116.294 Y90.944 E113.43359
G1 X116.724 Y91.474 E113.59739
G1 X117.353 Y92.649 E113.91725
G1 X117.557 Y93.542 E114.13709
G1 X117.528 Y95.027 E114.49356
G1 X117.513 Y97.832 E115.16677
G1 X117.553 Y100.056 E115.70061
G1 X117.514 Y103.36 E116.49363
G1 X117.551 Y105.11 E116.91372
G1 X117.557 Y105.865 E117.09493
G1 X117.533 Y107.105 E117.39258
G1 X117.513 Y107.677 E117.52995
G1 X117.495 Y110.396 E118.18252
G1 X117.516 Y112.166 E118.60735
G1 X117.499 Y115.009 E119.28969
G1 X117.538 Y116.385 E119.62006
G1 X117.53 Y116.547 E119.65899
G1 X117.556 Y117.954 E119.99672
G1 X117.514 Y120.172 E120.52914
G1 X117.536 Y123.173 E121.2494
G1 X117.554 Y124.06 E121.46232
G1 X117.514 Y126.371 E122.01704
G1 X117.531 Y128.343 E122.49034
G1 X117.525 Y128.423 E122.5096
G1 X117.544 Y129.749 E122.82787
G1 X117.425 Y130.954 E123.11848
G1 X117.155 Y131.639 E123.29519
G1 X116.779 Y132.239 E123.46512
G1 X116.087 Y133.033 E123.7179
G1 X115.094 Y133.591 E123.99127
G1 X114.48 Y133.861 E124.15225
G1 X112.88 Y134.164 E124.54307
G1 X111.071 Y133.998 E124.97906
G1 X109.717 Y133.696 E125.312
G1 X108.497 Y133.249 E125.62384
G1 X107.823 Y132.909 E125.80501
G1 X106.605 Y131.945 E126.17781
G1 X106.023 Y131.183 E126.40793
G1 X105.517 Y129.801 E126.76115
G1 X105.447 Y128.976 E126.95986
G1 X105.493 Y125.896 E127.69914
G1 X105.47 Y124.661 E127.99559
G1 X105.458 Y123.244 E128.33568
G1 X105.477 Y122.275 E128.56829
G1 X105.494 Y119.467 E129.24222
G1 X105.449 Y117.059 E129.82024
G1 X105.467 Y116.311 E129.99981
G1 X105.494 Y113.544 E130.66392
G1 X105.455 Y110.924 E131.29279
G1 X105.477 Y109.537 E131.62572
G1 X105.481 Y106.786 E132.28596
G1 X105.444 Y104.955 E132.72549
G1 X105.462 Y104.249 E132.89498
G1 X105.49 Y101.523 E133.54926
G1 X105.451 Y98.951 E134.16661
G1 X105.492 Y95.696 E134.94787
G1 X105.467 Y94.444 E135.24841
G1 X105.457 Y93.238 E135.53786
G1 X105.556 Y92.295 E135.76542
G1 X105.861 Y91.318 E136.01106
G1 X106.124 Y90.877 E136.13429
G10
;MESH:ressort.STL
G0 F7200 X109.41 Y93.952
G0 X110.284 Y94.618
G0 X111.042 Y94.857
G0 X111.937 Y94.976
G0 X112.034 Y93.858
;TYPE:WALL-OUTER
G11
G1 F2404.4 X112.592 Y93.716 E136.28605
G1 X112.349 Y93.472 E136.37681
G1 X111.722 Y93.229 E136.55404
G1 F2400 X110.985 Y93.142 E136.74996
G1 F2391.2 X110.383 Y93.285 E136.91385
G1 X110.805 Y93.604 E137.05397
G1 X111.439 Y93.803 E137.22999
G1 F2400 X112.034 Y93.858 E137.38774
G0 F7200 X112.324 Y93.785
G10
G0 X112.52 Y94.913
G0 X112.65 Y98.371
G0 X112.095 Y99.914
G11
G1 F2477 X112.613 Y99.692 E137.5323
G1 F2467.7 X112.437 Y99.476 E137.60402
G1 F2435.7 X111.734 Y99.231 E137.79794
G1 F2453.9 X110.822 Y99.137 E138.03514
G1 F2500.5 X110.376 Y99.262 E138.15294
G1 X110.572 Y99.496 E138.23057
G1 X111.137 Y99.742 E138.38729
G1 F2491 X112.095 Y99.914 E138.63568
G0 F7200 X112.37 Y99.796
G10
G0 X112.81 Y100.82
G0 X113.204 Y104.71
G0 X112.292 Y105.831
G11
G1 F2373.9 X112.612 Y105.683 E138.72969
G1 X112.262 Y105.392 E138.85105
G1 F2365.3 X111.251 Y105.114 E139.13156
G1 F2361 X110.511 Y105.215 E139.33168
G1 X110.397 Y105.304 E139.37044
G1 X110.78 Y105.618 E139.50315
G1 F2365.3 X111.492 Y105.809 E139.70036
G1 F2373.9 X112.292 Y105.831 E139.91375
G0 F7200 X112.563 Y105.706
G10
G0 X113.036 Y106.725
G0 X112.03 Y110.161
G0 X111.5 Y111.795
G11
G1 F2426.7 X111.681 Y111.842 E139.96263
G1 F2435.7 X112.42 Y111.818 E140.15522
G1 X112.613 Y111.733 E140.21015
G1 X112.228 Y111.401 E140.34258
G1 F2422.2 X111.61 Y111.204 E140.51239
G1 F2408.8 X110.706 Y111.138 E140.75088
G1 X110.398 Y111.314 E140.84422
G1 X110.821 Y111.619 E140.98144
G1 F2413.3 X111.5 Y111.795 E141.16569
G0 F7200 X111.681 Y111.842
G0 X111.794 Y111.839
G10
G0 X111.831 Y112.955
G0 X111.807 Y116.118
G0 X111.5 Y117.795
G11
G1 F2514.8 X112.322 Y117.843 E141.37401
G1 F2519.6 X112.607 Y117.739 E141.45063
G1 X112.536 Y117.597 E141.49073
G1 X111.867 Y117.255 E141.68049
G1 F2495.8 X111.215 Y117.142 E141.84907
G1 F2472.3 X110.538 Y117.188 E142.02343
G1 X110.386 Y117.302 E142.07226
G1 X110.614 Y117.56 E142.16073
G1 F2440.2 X111.364 Y117.787 E142.3645
G1 F2458.5 X111.5 Y117.795 E142.39968
G0 F7200 X111.799 Y117.812
G10
G0 X111.749 Y118.93
G0 X111.979 Y122.165
G0 X111.5 Y123.801
G11
G1 F2640 X112.074 Y123.885 E142.54007
G1 F2671.8 X112.649 Y123.728 E142.68274
G1 X112.247 Y123.383 E142.80954
G1 F2524.4 X111.436 Y123.176 E143.02057
G1 F2400 X110.753 Y123.153 E143.20098
G1 F2404.4 X110.389 Y123.274 E143.30208
G1 F2467.7 X110.956 Y123.722 E143.48808
G1 F2568.5 X111.5 Y123.801 E143.6245
G0 F7200 X111.796 Y123.844
G10
G0 X111.676 Y124.941
G0 X111.56 Y128.076
G0 X111.5 Y129.798
G11
G1 F2400 X112.154 Y129.853 E143.79776
G1 F2395.6 X112.618 Y129.709 E143.92624
G1 X112.196 Y129.395 E144.06533
G1 X111.572 Y129.199 E144.23829
G1 F2400 X110.691 Y129.166 E144.47104
G1 F2408.8 X110.412 Y129.29 E144.55137
G1 X110.493 Y129.412 E144.58991
G1 X111.354 Y129.786 E144.8369
G1 X111.5 Y129.798 E144.87545
G0 F7200 X111.799 Y129.823
G10
;MESH:NONMESH
G0 F600 X111.799 Y129.823 Z0.55
G0 F7200 X112.29 Y128.247
G0 X113.693 Y124.264
G0 X113.812 Y123.507
G0 X110.725 Y118.761
G0 X109.992 Y118.532
G0 X109.177 Y117.605
G0 X106.124 Y90.877
;TIME_ELAPSED:23.068614
;LAYER:1
M106 S255
;TYPE:SKIRT
G11
G1 F2400 X106.88 Y90.035 E144.97729
G1 X107.377 Y89.676 E145.03247
G1 X108.517 Y89.139 E145.14588
G1 X109.21 Y89.007 E145.20937
G1 X110.538 Y88.877 E145.32946
G1 X112.301 Y89.061 E145.489
G1 X113.687 Y89.422 E145.6179
G1 X115.077 Y90.01 E145.75373
G1 X116.294 Y90.944 E145.8918
G1 X116.724 Y91.474 E145.95322
G1 X117.353 Y92.649 E146.07317
G1 X117.557 Y93.542 E146.15561
G1 X117.528 Y95.027 E146.28929
G1 X117.513 Y97.832 E146.54174
G1 X117.553 Y100.056 E146.74194
G1 X117.514 Y103.36 E147.03932
G1 X117.551 Y105.11 E147.19685
G1 X117.557 Y105.865 E147.2648
G1 X117.533 Y107.105 E147.37642
G1 X117.513 Y107.677 E147.42794
G1 X117.495 Y110.396 E147.67265
G1 X117.516 Y112.166 E147.83196
G1 X117.499 Y115.009 E148.08784
G1 X117.538 Y116.385 E148.21173
G1 X117.53 Y116.547 E148.22632
G1 X117.556 Y117.954 E148.35298
G1 X117.514 Y120.172 E148.55263
G1 X117.536 Y123.173 E148.82273
G1 X117.554 Y124.06 E148.90258
G1 X117.514 Y126.371 E149.1106
G1 X117.531 Y128.343 E149.28808
G1 X117.525 Y128.423 E149.2953
G1 X117.544 Y129.749 E149.41466
G1 X117.425 Y130.954 E149.52363
G1 X117.155 Y131.639 E149.5899
G1 X116.779 Y132.239 E149.65363
G1 X116.087 Y133.033 E149.74842
G1 X115.094 Y133.591 E149.85093
G1 X114.48 Y133.861 E149.9113
G1 X112.88 Y134.164 E150.05786
G1 X111.071 Y133.998 E150.22135
G1 X109.717 Y133.696 E150.34621
G1 X108.497 Y133.249 E150.46314
G1 X107.823 Y132.909 E150.53108
G1 X106.605 Y131.945 E150.67088
G1 X106.023 Y131.183 E150.75718
G1 X105.517 Y129.801 E150.88963
G1 X105.447 Y128.976 E150.96415
G1 X105.493 Y125.896 E151.24138
G1 X105.47 Y124.661 E151.35255
G1 X105.458 Y123.244 E151.48009
G1 X105.477 Y122.275 E151.56731
G1 X105.494 Y119.467 E151.82004
G1 X105.449 Y117.059 E152.03679
G1 X105.467 Y116.311 E152.10413
G1 X105.494 Y113.544 E152.35318
