;FLAVOR:UltiGCode
;TIME:1925
;MATERIAL:6127
;MATERIAL2:0
;NOZZLE_DIAMETER:0.6
;MINX:86.813
;MINY:86.813
;MINZ:0.4
;MAXX:136.187
;MAXY:136.187
;MAXZ:18.05
;TARGET_MACHINE.NAME:Ultimaker 2+
;Generated with Cura_SteamEngine 5.10.0
G0 F3000 Y50 ;avoid prime blob
M104 S230 ; Régler la température de l'extrudeur à 230°C
M140 S58 ; Régle la température du plateau à 58°C
M221 S100 ; Augmente le material flow de +x%
M207 S10 F3000 ; Rétraction à 10 mm, à une vitesse de rétration de 25 mm/s
M82 ;absolute extrusion mode
G92 E0
G92 E0
G10
;LAYER_COUNT:112
;LAYER:0
M107
G1 F600 Z1.4
G0 F7200 X94.069 Y94.011 Z1.4
;TYPE:SKIRT
G1 F600 Z0.4
G11
G1 F1800 X94.961 Y93.166 E0.29489
G1 X95.717 Y92.518 E0.53386
G1 X96.423 Y91.95 E0.75133
G1 X97.284 Y91.316 E1.00794
G1 X98.515 Y90.5 E1.3624
G1 X99.225 Y90.079 E1.5605
G1 X100.392 Y89.449 E1.87879
G1 X101.147 Y89.084 E2.08005
G1 X101.897 Y88.753 E2.2768
G1 X103.085 Y88.287 E2.58307
G1 X103.977 Y87.985 E2.80909
G1 X104.812 Y87.734 E3.01835
G1 X105.658 Y87.513 E3.2282
G1 X106.906 Y87.244 E3.5346
G1 X107.799 Y87.092 E3.752
G1 X109.033 Y86.937 E4.05049
G1 X110.311 Y86.836 E4.35817
G1 X110.973 Y86.813 E4.51714
G1 X112.036 Y86.813 E4.77226
G1 X112.77 Y86.84 E4.94854
G1 X113.772 Y86.917 E5.18973
G1 X114.589 Y87.006 E5.38697
G1 X115.472 Y87.13 E5.60097
G1 X116.285 Y87.276 E5.79921
G1 X117.547 Y87.559 E6.10961
G1 X118.237 Y87.744 E6.28106
G1 X119.27 Y88.063 E6.54054
G1 X120.217 Y88.398 E6.78162
G1 X121.677 Y89.004 E7.161
G1 X122.583 Y89.436 E7.4019
G1 X123.927 Y90.167 E7.76908
G1 X124.971 Y90.81 E8.06335
G1 X125.774 Y91.355 E8.29627
G1 X126.722 Y92.059 E8.57966
G1 X127.447 Y92.649 E8.804
G1 X128.041 Y93.166 E8.99299
G1 X128.989 Y94.071 E9.30754
G1 X129.891 Y95.025 E9.62264
G1 X130.469 Y95.698 E9.83555
G1 X131.05 Y96.423 E10.05853
G1 X131.683 Y97.282 E10.31462
G1 X132.5 Y98.515 E10.66961
G1 X132.921 Y99.225 E10.86771
G1 X133.551 Y100.392 E11.186
G1 X133.916 Y101.147 E11.38726
G1 X134.247 Y101.897 E11.58401
G1 X134.713 Y103.085 E11.89028
G1 X135.015 Y103.977 E12.1163
G1 X135.259 Y104.787 E12.31933
G1 X135.492 Y105.682 E12.54129
G1 X135.755 Y106.901 E12.84058
G1 X135.908 Y107.802 E13.05991
G1 X136.066 Y109.063 E13.36492
G1 X136.164 Y110.305 E13.66393
G1 X136.187 Y110.966 E13.82266
G1 X136.187 Y112.039 E14.08018
G1 X136.154 Y112.89 E14.28458
G1 X136.105 Y113.589 E14.45275
G1 X135.991 Y114.597 E14.69621
G1 X135.868 Y115.471 E14.90804
G1 X135.709 Y116.355 E15.1236
G1 X135.489 Y117.346 E15.36723
G1 X135.204 Y118.404 E15.6302
G1 X134.939 Y119.265 E15.84641
G1 X134.602 Y120.216 E16.08856
G1 X133.996 Y121.677 E16.46816
G1 X133.564 Y122.583 E16.70906
G1 X132.835 Y123.924 E17.07538
G1 X132.19 Y124.971 E17.37051
G1 X131.645 Y125.774 E17.60343
G1 X130.941 Y126.722 E17.88682
G1 X130.351 Y127.447 E18.11116
G1 X129.834 Y128.041 E18.30016
G1 X128.931 Y128.989 E18.61437
G1 X128.039 Y129.834 E18.90926
G1 X127.283 Y130.482 E19.14823
G1 X126.577 Y131.05 E19.3657
G1 X125.716 Y131.684 E19.62232
G1 X124.485 Y132.5 E19.97677
G1 X123.775 Y132.921 E20.17488
G1 X122.608 Y133.551 E20.49316
G1 X121.853 Y133.916 E20.69443
G1 X121.103 Y134.247 E20.89118
G1 X119.915 Y134.713 E21.19745
G1 X119.023 Y135.015 E21.42347
G1 X118.188 Y135.266 E21.63272
G1 X117.342 Y135.487 E21.84258
G1 X116.094 Y135.756 E22.14898
G1 X115.201 Y135.908 E22.36638
G1 X113.967 Y136.063 E22.66487
G1 X112.689 Y136.164 E22.97254
G1 X112.027 Y136.187 E23.13152
G1 X110.961 Y136.187 E23.38736
G1 X110.11 Y136.154 E23.59175
G1 X109.411 Y136.105 E23.75992
G1 X108.4 Y135.991 E24.0041
G1 X107.526 Y135.868 E24.21593
G1 X106.644 Y135.709 E24.43102
G1 X105.529 Y135.459 E24.70526
G1 X104.701 Y135.237 E24.911
G1 X103.761 Y134.946 E25.14717
G1 X102.503 Y134.493 E25.46806
G1 X101.401 Y134.032 E25.75475
G1 X100.411 Y133.561 E26.01787
G1 X99.068 Y132.831 E26.38473
G1 X98.028 Y132.19 E26.67793
G1 X97.221 Y131.642 E26.91205
G1 X96.312 Y130.967 E27.18378
G1 X95.545 Y130.343 E27.42108
G1 X94.953 Y129.825 E27.60987
G1 X93.932 Y128.845 E27.94953
G1 X93.089 Y127.952 E28.24426
G1 X92.527 Y127.297 E28.45139
G1 X91.946 Y126.572 E28.67437
G1 X91.332 Y125.739 E28.92273
G1 X90.5 Y124.483 E29.28431
G1 X90.066 Y123.751 E29.48854
G1 X89.449 Y122.608 E29.80028
G1 X89.073 Y121.83 E30.00766
G1 X88.752 Y121.102 E30.19861
G1 X88.293 Y119.932 E30.50025
G1 X87.985 Y119.023 E30.73059
G1 X87.734 Y118.188 E30.93985
G1 X87.513 Y117.342 E31.1497
G1 X87.244 Y116.095 E31.45587
G1 X87.091 Y115.199 E31.67402
G1 X86.939 Y113.992 E31.96599
G1 X86.836 Y112.69 E32.27945
G1 X86.813 Y112.035 E32.43674
G1 X86.813 Y110.961 E32.6945
G1 X86.846 Y110.11 E32.8989
G1 X86.895 Y109.411 E33.06707
G1 X87.009 Y108.403 E33.31053
G1 X87.132 Y107.529 E33.52236
G1 X87.291 Y106.645 E33.73792
G1 X87.517 Y105.629 E33.98772
G1 X87.796 Y104.596 E34.24452
G1 X88.061 Y103.735 E34.46073
G1 X88.398 Y102.784 E34.70288
G1 X89.004 Y101.323 E35.08248
G1 X89.436 Y100.417 E35.32338
G1 X90.165 Y99.076 E35.6897
G1 X90.81 Y98.029 E35.98483
G1 X91.355 Y97.226 E36.21775
G1 X92.059 Y96.278 E36.50115
G1 X92.649 Y95.553 E36.72548
G1 X93.166 Y94.959 E36.91448
G1 X94.069 Y94.011 E37.22869
G0 F7200 X94.482 Y94.447
G1 F1800 X95.374 Y93.602 E37.52358
G1 X96.093 Y92.985 E37.75097
G1 X96.779 Y92.433 E37.96229
G1 X97.64 Y91.799 E38.21891
G1 X98.822 Y91.016 E38.55918
G1 X99.51 Y90.607 E38.75128
G1 X100.653 Y89.989 E39.06313
G1 X101.389 Y89.633 E39.25935
G1 X102.116 Y89.312 E39.45008
G1 X103.304 Y88.846 E39.75635
G1 X104.15 Y88.56 E39.97068
G1 X104.964 Y88.315 E40.17469
G1 X105.81 Y88.094 E40.38455
G1 X107.007 Y87.835 E40.67848
G1 X107.874 Y87.687 E40.88957
G1 X109.08 Y87.535 E41.1813
G1 X110.332 Y87.436 E41.48271
G1 X110.994 Y87.413 E41.64169
G1 X112.014 Y87.413 E41.88649
G1 X112.748 Y87.44 E42.06277
G1 X113.707 Y87.513 E42.29359
G1 X114.505 Y87.6 E42.48625
G1 X115.366 Y87.721 E42.69492
G1 X116.179 Y87.867 E42.89316
G1 X117.392 Y88.139 E43.19151
G1 X118.082 Y88.324 E43.36296
G1 X119.07 Y88.629 E43.61112
G1 X120.017 Y88.964 E43.8522
G1 X121.419 Y89.546 E44.21652
G1 X122.325 Y89.978 E44.45742
G1 X123.612 Y90.678 E44.80903
G1 X124.656 Y91.321 E45.1033
G1 X125.416 Y91.837 E45.32377
G1 X126.364 Y92.541 E45.60716
G1 X127.053 Y93.102 E45.8204
G1 X127.647 Y93.619 E46.0094
G1 X128.553 Y94.483 E46.30986
G1 X129.436 Y95.416 E46.61816
G1 X130.001 Y96.073 E46.82613
G1 X130.567 Y96.779 E47.0433
G1 X131.183 Y97.614 E47.29233
G1 X131.984 Y98.822 E47.6402
G1 X132.393 Y99.51 E47.83229
G1 X133.011 Y100.653 E48.14414
G1 X133.367 Y101.389 E48.34036
G1 X133.688 Y102.116 E48.53109
G1 X134.154 Y103.304 E48.83736
G1 X134.44 Y104.15 E49.05169
G1 X134.684 Y104.96 E49.25472
G1 X134.906 Y105.809 E49.46533
G1 X135.164 Y107.002 E49.75827
G1 X135.313 Y107.877 E49.97129
G1 X135.468 Y109.11 E50.26954
G1 X135.564 Y110.326 E50.56229
G1 X135.587 Y110.987 E50.72102
G1 X135.587 Y112.016 E50.96798
G1 X135.555 Y112.848 E51.16781
G1 X135.506 Y113.547 E51.33598
G1 X135.397 Y114.514 E51.56953
G1 X135.278 Y115.365 E51.77576
G1 X135.123 Y116.225 E51.98548
G1 X134.903 Y117.216 E52.22911
G1 X134.631 Y118.227 E52.48038
G1 X134.373 Y119.065 E52.69082
G1 X134.036 Y120.016 E52.93297
G1 X133.454 Y121.419 E53.29751
G1 X133.022 Y122.325 E53.5384
G1 X132.324 Y123.609 E53.88915
G1 X131.679 Y124.656 E54.18429
G1 X131.163 Y125.416 E54.40475
G1 X130.459 Y126.364 E54.68815
G1 X129.898 Y127.053 E54.90139
G1 X129.381 Y127.647 E55.09039
G1 X128.518 Y128.553 E55.39068
G1 X127.626 Y129.398 E55.68557
G1 X126.907 Y130.015 E55.91296
G1 X126.221 Y130.567 E56.12428
G1 X125.36 Y131.201 E56.3809
G1 X124.178 Y131.984 E56.72117
G1 X123.49 Y132.393 E56.91327
G1 X122.347 Y133.011 E57.22512
G1 X121.611 Y133.367 E57.42134
G1 X120.884 Y133.688 E57.61207
G1 X119.696 Y134.154 E57.91834
G1 X118.85 Y134.44 E58.13267
G1 X118.036 Y134.685 E58.33668
G1 X117.19 Y134.906 E58.54654
G1 X115.993 Y135.165 E58.84047
G1 X115.126 Y135.313 E59.05155
G1 X113.92 Y135.465 E59.34328
G1 X112.668 Y135.564 E59.6447
G1 X112.006 Y135.587 E59.80368
G1 X110.984 Y135.587 E60.04896
G1 X110.152 Y135.555 E60.24879
G1 X109.453 Y135.506 E60.41696
G1 X108.484 Y135.397 E60.65098
G1 X107.632 Y135.277 E60.85748
G1 X106.775 Y135.123 E61.06646
G1 X105.684 Y134.879 E61.33477
G1 X104.856 Y134.657 E61.5405
G1 X103.964 Y134.381 E61.7646
G1 X102.735 Y133.939 E62.07805
G1 X101.633 Y133.478 E62.36474
G1 X100.669 Y133.019 E62.62099
G1 X99.383 Y132.32 E62.97228
G1 X98.343 Y131.679 E63.26548
G1 X97.579 Y131.16 E63.48714
G1 X96.67 Y130.485 E63.75888
G1 X95.94 Y129.891 E63.98475
G1 X95.348 Y129.373 E64.17354
G1 X94.368 Y128.433 E64.49945
G1 X93.544 Y127.561 E64.78738
G1 X92.995 Y126.922 E64.98957
G1 X92.429 Y126.216 E65.20674
G1 X91.832 Y125.407 E65.44804
G1 X91.016 Y124.176 E65.8025
G1 X90.594 Y123.466 E66.00072
G1 X89.989 Y122.347 E66.30602
G1 X89.622 Y121.588 E66.50836
G1 X89.311 Y120.883 E66.69329
G1 X88.852 Y119.713 E66.99493
G1 X88.56 Y118.85 E67.21358
G1 X88.315 Y118.036 E67.4176
G1 X88.094 Y117.19 E67.62745
G1 X87.835 Y115.994 E67.92114
G1 X87.686 Y115.124 E68.13298
G1 X87.537 Y113.945 E68.4182
G1 X87.436 Y112.669 E68.72539
G1 X87.413 Y112.014 E68.88269
G1 X87.413 Y110.984 E69.12989
G1 X87.445 Y110.152 E69.32972
G1 X87.494 Y109.453 E69.49789
G1 X87.603 Y108.486 E69.73144
G1 X87.722 Y107.635 E69.93767
G1 X87.877 Y106.775 E70.14739
G1 X88.103 Y105.759 E70.39719
G1 X88.369 Y104.773 E70.64229
G1 X88.627 Y103.935 E70.85273
G1 X88.964 Y102.984 E71.09487
G1 X89.546 Y101.581 E71.45942
G1 X89.978 Y100.675 E71.70031
G1 X90.676 Y99.391 E72.05106
G1 X91.321 Y98.344 E72.3462
G1 X91.837 Y97.584 E72.56666
G1 X92.541 Y96.636 E72.85006
G1 X93.102 Y95.947 E73.0633
G1 X93.619 Y95.353 E73.25229
G1 X94.482 Y94.447 E73.55259
G0 F7200 X94.895 Y94.883
G1 F1800 X95.787 Y94.038 E73.84748
G1 X96.469 Y93.452 E74.06328
G1 X97.135 Y92.916 E74.26846
G1 X97.972 Y92.299 E74.51802
G1 X99.129 Y91.532 E74.85117
G1 X99.796 Y91.135 E75.03746
G1 X100.915 Y90.529 E75.34288
G1 X101.631 Y90.182 E75.53383
G1 X102.335 Y89.871 E75.71854
G1 X103.523 Y89.405 E76.02481
G1 X104.323 Y89.134 E76.22753
G1 X105.116 Y88.895 E76.42631
G1 X105.937 Y88.68 E76.62999
G1 X107.108 Y88.426 E76.91757
G1 X107.949 Y88.282 E77.12235
G1 X109.127 Y88.133 E77.40732
G1 X110.353 Y88.036 E77.70248
G1 X111.015 Y88.013 E77.86145
G1 X111.992 Y88.013 E78.09593
G1 X112.726 Y88.04 E78.27221
G1 X113.642 Y88.109 E78.49268
G1 X114.421 Y88.194 E78.68074
G1 X115.26 Y88.312 E78.88409
G1 X116.073 Y88.458 E79.08233
G1 X117.237 Y88.719 E79.36862
G1 X117.927 Y88.904 E79.54007
G1 X118.87 Y89.195 E79.77692
G1 X119.817 Y89.53 E80.01801
G1 X121.161 Y90.088 E80.36726
G1 X122.067 Y90.52 E80.60816
G1 X123.297 Y91.189 E80.94419
G1 X124.341 Y91.832 E81.23846
G1 X125.058 Y92.319 E81.44649
G1 X125.985 Y93.007 E81.72354
G1 X126.659 Y93.555 E81.93202
G1 X127.253 Y94.072 E82.12102
G1 X128.117 Y94.895 E82.4074
G1 X128.981 Y95.808 E82.70908
G1 X129.533 Y96.449 E82.9121
G1 X130.084 Y97.135 E83.12327
G1 X130.7 Y97.97 E83.3723
G1 X131.468 Y99.129 E83.70599
G1 X131.865 Y99.796 E83.89228
G1 X132.471 Y100.915 E84.19769
G1 X132.818 Y101.631 E84.38865
G1 X133.129 Y102.335 E84.57336
G1 X133.595 Y103.523 E84.87963
G1 X133.866 Y104.323 E85.08235
G1 X134.104 Y105.112 E85.28014
G1 X134.32 Y105.936 E85.48458
G1 X134.573 Y107.103 E85.77117
G1 X134.718 Y107.952 E85.97788
G1 X134.87 Y109.157 E86.26937
G1 X134.964 Y110.347 E86.55586
G1 X134.987 Y111.008 E86.71459
G1 X134.987 Y111.993 E86.95099
G1 X134.956 Y112.806 E87.14626
G1 X134.907 Y113.505 E87.31443
G1 X134.803 Y114.431 E87.53807
G1 X134.688 Y115.258 E87.73845
G1 X134.537 Y116.095 E87.94258
G1 X134.317 Y117.086 E88.18621
G1 X134.058 Y118.05 E88.42577
G1 X133.807 Y118.865 E88.63044
G1 X133.47 Y119.816 E88.87259
G1 X132.912 Y121.161 E89.22206
G1 X132.48 Y122.067 E89.46296
G1 X131.813 Y123.294 E89.79813
G1 X131.168 Y124.341 E90.09327
G1 X130.681 Y125.058 E90.30129
G1 X129.993 Y125.985 E90.57835
G1 X129.445 Y126.659 E90.78683
G1 X128.928 Y127.253 E90.97582
G1 X128.105 Y128.117 E91.2622
G1 X127.213 Y128.962 E91.55709
G1 X126.531 Y129.548 E91.77289
G1 X125.865 Y130.084 E91.97807
G1 X125.028 Y130.701 E92.22763
G1 X123.871 Y131.468 E92.56078
G1 X123.204 Y131.865 E92.74707
G1 X122.085 Y132.471 E93.05248
G1 X121.369 Y132.818 E93.24344
G1 X120.665 Y133.129 E93.42815
G1 X119.477 Y133.595 E93.73442
G1 X118.677 Y133.866 E93.93714
G1 X117.884 Y134.105 E94.13592
G1 X117.063 Y134.32 E94.3396
G1 X115.892 Y134.574 E94.62718
G1 X115.051 Y134.718 E94.83195
G1 X113.873 Y134.867 E95.11693
G1 X112.647 Y134.964 E95.41209
G1 X111.985 Y134.987 E95.57106
G1 X111.007 Y134.987 E95.80578
G1 X110.194 Y134.956 E96.00104
G1 X109.495 Y134.907 E96.16922
G1 X108.567 Y134.803 E96.39333
G1 X107.738 Y134.687 E96.59423
G1 X106.906 Y134.537 E96.79713
G1 X105.839 Y134.299 E97.0595
G1 X105.011 Y134.077 E97.26524
G1 X104.167 Y133.816 E97.47726
G1 X102.967 Y133.385 E97.78328
G1 X101.865 Y132.924 E98.06997
G1 X100.927 Y132.477 E98.31934
G1 X99.698 Y131.809 E98.65506
G1 X98.68 Y131.182 E98.942
G1 X97.937 Y130.678 E99.15747
G1 X97.028 Y130.003 E99.4292
G1 X96.335 Y129.439 E99.64364
G1 X95.743 Y128.921 E99.83244
G1 X94.804 Y128.021 E100.1446
G1 X93.999 Y127.17 E100.42574
G1 X93.463 Y126.547 E100.62298
G1 X92.912 Y125.86 E100.83434
G1 X92.315 Y125.051 E101.07564
G1 X91.532 Y123.869 E101.41592
G1 X91.122 Y123.18 E101.60834
G1 X90.529 Y122.085 E101.9072
G1 X90.171 Y121.346 E102.10428
G1 X89.87 Y120.664 E102.28319
G1 X89.411 Y119.494 E102.58483
G1 X89.134 Y118.677 E102.79187
G1 X88.895 Y117.884 E102.99065
G1 X88.68 Y117.063 E103.19433
G1 X88.426 Y115.893 E103.48167
G1 X88.281 Y115.048 E103.68744
G1 X88.135 Y113.898 E103.96565
G1 X88.036 Y112.648 E104.26659
G1 X88.013 Y111.993 E104.42389
G1 X88.013 Y111.007 E104.66053
G1 X88.044 Y110.194 E104.85579
G1 X88.093 Y109.495 E105.02396
G1 X88.197 Y108.569 E105.2476
G1 X88.312 Y107.742 E105.44799
G1 X88.463 Y106.905 E105.65211
G1 X88.689 Y105.889 E105.90191
G1 X88.942 Y104.95 E106.13531
G1 X89.193 Y104.135 E106.33997
G1 X89.53 Y103.184 E106.58212
G1 X90.088 Y101.839 E106.9316
G1 X90.52 Y100.933 E107.17249
G1 X91.187 Y99.706 E107.50767
G1 X91.832 Y98.659 E107.8028
G1 X92.319 Y97.942 E108.01082
G1 X93.007 Y97.015 E108.28788
G1 X93.555 Y96.341 E108.49636
G1 X94.072 Y95.747 E108.68536
G1 X94.895 Y94.883 E108.97174
G0 F7200 X95.308 Y95.319
G1 F1800 X96.2 Y94.474 E109.26662
G1 X96.845 Y93.919 E109.47084
G1 X97.491 Y93.399 E109.66987
G1 X98.328 Y92.782 E109.91943
G1 X99.436 Y92.048 E110.23841
G1 X100.103 Y91.651 E110.4247
G1 X101.176 Y91.069 E110.71766
G1 X101.874 Y90.731 E110.90379
G1 X102.554 Y90.43 E111.08226
G1 X103.742 Y89.964 E111.38853
G1 X104.497 Y89.708 E111.57986
G1 X105.268 Y89.475 E111.77317
G1 X106.065 Y89.266 E111.97092
G1 X107.21 Y89.017 E112.25214
G1 X108.025 Y88.877 E112.4506
G1 X109.174 Y88.731 E112.72858
G1 X110.374 Y88.636 E113.01748
G1 X111.036 Y88.613 E113.17646
G1 X111.97 Y88.613 E113.40062
G1 X112.704 Y88.64 E113.5769
G1 X113.577 Y88.705 E113.787
G1 X114.337 Y88.788 E113.97048
G1 X115.154 Y88.903 E114.16849
G1 X115.967 Y89.049 E114.36674
G1 X117.082 Y89.299 E114.64098
G1 X117.772 Y89.484 E114.81243
G1 X118.67 Y89.761 E115.03797
G1 X119.617 Y90.096 E115.27905
G1 X120.903 Y90.63 E115.61324
G1 X121.809 Y91.062 E115.85414
G1 X122.982 Y91.7 E116.1746
G1 X124.026 Y92.343 E116.46887
G1 X124.7 Y92.801 E116.66445
G1 X125.627 Y93.489 E116.94151
G1 X126.265 Y94.008 E117.13889
G1 X126.859 Y94.525 E117.32789
G1 X127.681 Y95.308 E117.60034
G1 X128.526 Y96.2 E117.89523
G1 X129.078 Y96.841 E118.09825
G1 X129.601 Y97.491 E118.29848
G1 X130.2 Y98.302 E118.54045
G1 X130.952 Y99.436 E118.86702
G1 X131.349 Y100.103 E119.05331
G1 X131.931 Y101.176 E119.34627
G1 X132.269 Y101.874 E119.5324
G1 X132.57 Y102.554 E119.71087
G1 X133.036 Y103.742 E120.01714
G1 X133.292 Y104.497 E120.20848
G1 X133.524 Y105.264 E120.40079
G1 X133.734 Y106.064 E120.5993
G1 X133.982 Y107.204 E120.8793
G1 X134.123 Y108.027 E121.07969
G1 X134.272 Y109.204 E121.36443
G1 X134.364 Y110.368 E121.64466
G1 X134.387 Y111.029 E121.8034
G1 X134.387 Y111.97 E122.02924
G1 X134.357 Y112.764 E122.21993
G1 X134.308 Y113.463 E122.3881
G1 X134.209 Y114.349 E122.60207
G1 X134.098 Y115.151 E122.79638
G1 X133.951 Y115.965 E122.9949
G1 X133.731 Y116.956 E123.23853
