;FLAVOR:UltiGCode
;TIME:4019
;MATERIAL:10992
;MATERIAL2:0
;NOZZLE_DIAMETER:0.6
;MINX:77.892
;MINY:95.545
;MINZ:0.4
;MAXX:141.169
;MAXY:127.454
;MAXZ:47.95
;TARGET_MACHINE.NAME:Ultimaker 2+
;Generated with Cura_SteamEngine 5.10.0
G0 F3000 Y50 ;avoid prime blob
M82 ;absolute extrusion mode
G92 E0
G92 E0
G10
;LAYER_COUNT:318
;LAYER:0
M107
G0 F7200 X81.098 Y99.182 Z0.4
;TYPE:SKIRT
G11
G1 F2400 X83.425 Y97.835 E0.6453
G1 X85.471 Y97.197 E1.15966
G1 X87.142 Y97.066 E1.56193
G1 X110.124 Y95.584 E7.08906
G1 X111.084 Y95.545 E7.31965
G1 X112.387 Y95.559 E7.63239
G1 X113.931 Y95.668 E8.00388
G1 X114.716 Y95.762 E8.19362
G1 X115.697 Y95.919 E8.43206
G1 X116.574 Y96.093 E8.64664
G1 X117.675 Y96.376 E8.91947
G1 X118.566 Y96.639 E9.14243
G1 X119.604 Y97.001 E9.40627
G1 X121.227 Y97.661 E9.82676
G1 X122.621 Y98.367 E10.20178
G1 X124.405 Y99.446 E10.70216
G1 X125.517 Y100.238 E11.02981
G1 X126.429 Y100.967 E11.31003
G1 X127.343 Y101.781 E11.60377
G1 X127.927 Y102.343 E11.79829
G1 X128.822 Y103.297 E12.11223
G1 X129.712 Y104.373 E12.44736
G1 X130.389 Y105.268 E12.71669
G1 X130.998 Y106.161 E12.97611
G1 X132.08 Y107.967 E13.48138
G1 X132.519 Y109.444 E13.85119
G1 X132.805 Y111.53 E14.35651
G1 X132.55 Y113.248 E14.77335
G1 X132.145 Y114.764 E15.14995
G1 X131.459 Y116.101 E15.5106
G1 X130.799 Y117.139 E15.80582
G1 X130.109 Y118.112 E16.0921
G1 X129.186 Y119.287 E16.4507
G1 X128.108 Y120.476 E16.83588
G1 X127.068 Y121.471 E17.18132
G1 X126.021 Y122.356 E17.51034
G1 X125.337 Y122.892 E17.7189
G1 X124.681 Y123.358 E17.91202
G1 X123.516 Y124.122 E18.24638
G1 X122.443 Y124.72 E18.54119
G1 X121.342 Y125.276 E18.83721
G1 X120.4 Y125.694 E19.08455
G1 X119.496 Y126.042 E19.31703
G1 X118.511 Y126.38 E19.56696
G1 X116.961 Y126.811 E19.95308
G1 X116.24 Y126.976 E20.13059
G1 X114.865 Y127.217 E20.46562
G1 X114.062 Y127.323 E20.66001
G1 X112.934 Y127.413 E20.93159
G1 X111.966 Y127.454 E21.16412
G1 X110.938 Y127.439 E21.41087
G1 X109.284 Y127.368 E21.80819
G1 X86.981 Y125.923 E27.17214
G1 X85.286 Y125.791 E27.58017
G1 X82.905 Y124.938 E28.18717
G1 X81.326 Y123.912 E28.63911
G1 X79.644 Y122.153 E29.22321
G1 X78.727 Y120.568 E29.66269
G1 X77.916 Y118.032 E30.30169
G1 X77.892 Y116.212 E30.73853
G1 X77.897 Y106.827 E32.99093
G1 X77.922 Y105.134 E33.39729
G1 X78.708 Y102.423 E34.07473
G1 X79.52 Y101.115 E34.44422
G1 X81.098 Y99.182 E35.04309
G0 F7200 X81.493 Y99.647
G1 F2400 X83.666 Y98.389 E35.6457
G1 X85.587 Y97.79 E36.12864
G1 X87.181 Y97.665 E36.51237
G1 X110.148 Y96.184 E42.0359
G1 X111.108 Y96.145 E42.26649
G1 X112.38 Y96.159 E42.57179
G1 X113.86 Y96.264 E42.92788
G1 X114.645 Y96.358 E43.11763
G1 X115.58 Y96.508 E43.3449
G1 X116.457 Y96.682 E43.55948
G1 X117.506 Y96.952 E43.81944
G1 X118.369 Y97.206 E44.03535
G1 X119.378 Y97.557 E44.29174
G1 X121.001 Y98.217 E44.71224
G1 X122.311 Y98.881 E45.06472
G1 X124.057 Y99.935 E45.55419
G1 X125.142 Y100.707 E45.87378
G1 X126.054 Y101.436 E46.15399
G1 X126.927 Y102.213 E46.43448
G1 X127.489 Y102.754 E46.6217
G1 X128.384 Y103.708 E46.93565
G1 X129.249 Y104.755 E47.26159
G1 X129.893 Y105.606 E47.51772
G1 X130.502 Y106.499 E47.77713
G1 X131.527 Y108.211 E48.25603
G1 X131.932 Y109.573 E48.59705
G1 X132.199 Y111.524 E49.06966
G1 X131.97 Y113.093 E49.45021
G1 X131.581 Y114.55 E49.81214
G1 X130.952 Y115.779 E50.14348
G1 X130.309 Y116.792 E50.43144
G1 X129.637 Y117.741 E50.71052
G1 X128.714 Y118.916 E51.06913
G1 X127.693 Y120.042 E51.43392
G1 X126.653 Y121.037 E51.77935
G1 X125.651 Y121.884 E52.09424
G1 X124.989 Y122.403 E52.29613
G1 X124.351 Y122.857 E52.48406
G1 X123.224 Y123.598 E52.80777
G1 X122.173 Y124.184 E53.09656
G1 X121.072 Y124.74 E53.39259
G1 X120.184 Y125.134 E53.62574
G1 X119.301 Y125.474 E53.85283
G1 X118.316 Y125.812 E54.10276
G1 X116.827 Y126.226 E54.47368
G1 X116.106 Y126.391 E54.65119
G1 X114.786 Y126.622 E54.9728
G1 X113.983 Y126.728 E55.1672
G1 X112.908 Y126.814 E55.42602
G1 X111.974 Y126.854 E55.65039
G1 X110.964 Y126.84 E55.89281
G1 X109.323 Y126.769 E56.28702
G1 X87.028 Y125.325 E61.64903
G1 X85.413 Y125.199 E62.03781
G1 X83.173 Y124.397 E62.60882
G1 X81.713 Y123.448 E63.02674
G1 X80.126 Y121.788 E63.57792
G1 X79.28 Y120.326 E63.98331
G1 X78.515 Y117.933 E64.58626
G1 X78.492 Y116.212 E64.99934
G1 X78.497 Y106.836 E67.24958
G1 X78.521 Y105.222 E67.63698
G1 X79.26 Y102.672 E68.27416
G1 X80.03 Y101.432 E68.62447
G1 X81.493 Y99.647 E69.17838
G0 F7200 X81.887 Y100.112
G1 F2400 X83.907 Y98.943 E69.73851
G1 X85.703 Y98.383 E70.19001
G1 X87.22 Y98.264 E70.55521
G1 X110.172 Y96.784 E76.07513
G1 X111.132 Y96.745 E76.30572
G1 X112.373 Y96.759 E76.60358
G1 X113.789 Y96.86 E76.94428
G1 X114.574 Y96.954 E77.13403
G1 X115.463 Y97.097 E77.35013
G1 X116.34 Y97.271 E77.56472
G1 X117.337 Y97.528 E77.81182
G1 X118.172 Y97.773 E78.02067
G1 X119.152 Y98.113 E78.26962
G1 X120.73 Y98.753 E78.6783
G1 X122.001 Y99.395 E79.02005
G1 X123.709 Y100.424 E79.49861
G1 X124.767 Y101.176 E79.81014
G1 X125.679 Y101.905 E80.09035
G1 X126.511 Y102.645 E80.35758
G1 X127.051 Y103.165 E80.5375
G1 X127.946 Y104.119 E80.85145
G1 X128.771 Y105.117 E81.16221
G1 X129.398 Y105.945 E81.41148
G1 X129.987 Y106.807 E81.66204
G1 X130.974 Y108.455 E82.12307
G1 X131.345 Y109.702 E82.43532
G1 X131.593 Y111.519 E82.87544
G1 X131.39 Y112.938 E83.21947
G1 X131.017 Y114.336 E83.56672
G1 X130.445 Y115.457 E83.86877
G1 X129.802 Y116.47 E84.15673
G1 X129.165 Y117.371 E84.42155
G1 X128.269 Y118.513 E84.76992
G1 X127.278 Y119.608 E85.12437
G1 X126.238 Y120.603 E85.4698
G1 X125.281 Y121.412 E85.77055
G1 X124.641 Y121.914 E85.96577
G1 X124.021 Y122.356 E86.14851
G1 X122.931 Y123.074 E86.46176
G1 X121.903 Y123.648 E86.74434
G1 X120.802 Y124.204 E87.04036
G1 X119.968 Y124.574 E87.25933
G1 X119.106 Y124.906 E87.48103
G1 X118.121 Y125.244 E87.73096
G1 X116.693 Y125.641 E88.08668
G1 X115.972 Y125.806 E88.26419
G1 X114.707 Y126.027 E88.57239
G1 X113.904 Y126.133 E88.76678
G1 X112.882 Y126.215 E89.01285
G1 X111.982 Y126.254 E89.22905
G1 X110.99 Y126.241 E89.46715
G1 X109.362 Y126.17 E89.85824
G1 X87.075 Y124.727 E95.21832
G1 X85.54 Y124.607 E95.58785
G1 X83.441 Y123.856 E96.12288
G1 X82.1 Y122.984 E96.50678
G1 X80.607 Y121.422 E97.02536
G1 X79.834 Y120.086 E97.39581
G1 X79.114 Y117.834 E97.96324
G1 X79.092 Y116.212 E98.35255
G1 X79.097 Y106.845 E100.60063
G1 X79.12 Y105.31 E100.96908
G1 X79.813 Y102.919 E101.56653
G1 X80.54 Y101.748 E101.89733
G1 X81.887 Y100.112 E102.40593
G0 F7200 X82.28 Y100.578
G1 F2400 X84.148 Y99.497 E102.92391
G1 X85.819 Y98.976 E103.34399
G1 X87.259 Y98.863 E103.69065
G1 X110.197 Y97.383 E109.20722
G1 X111.125 Y97.345 E109.43013
G1 X112.366 Y97.359 E109.72798
G1 X113.718 Y97.456 E110.0533
G1 X114.478 Y97.546 E110.23697
G1 X115.346 Y97.686 E110.44798
G1 X116.223 Y97.86 E110.66257
G1 X117.169 Y98.104 E110.89704
G1 X117.976 Y98.34 E111.09883
G1 X118.927 Y98.669 E111.34034
G1 X120.459 Y99.289 E111.73699
G1 X121.73 Y99.931 E112.07874
G1 X123.362 Y100.913 E112.53586
G1 X124.393 Y101.645 E112.83932
G1 X125.28 Y102.353 E113.1117
G1 X126.095 Y103.078 E113.37349
G1 X126.613 Y103.576 E113.54595
G1 X127.508 Y104.53 E113.85989
G1 X128.293 Y105.479 E114.15547
G1 X128.903 Y106.284 E114.39788
G1 X129.472 Y107.115 E114.63959
G1 X130.421 Y108.699 E115.08276
G1 X130.758 Y109.831 E115.36622
G1 X130.988 Y111.516 E115.77437
G1 X130.81 Y112.783 E116.08144
G1 X130.453 Y114.121 E116.41379
G1 X129.938 Y115.135 E116.68674
G1 X129.295 Y116.148 E116.9747
G1 X128.693 Y117.001 E117.22527
G1 X127.824 Y118.111 E117.5636
G1 X126.863 Y119.174 E117.90752
G1 X125.823 Y120.169 E118.25295
G1 X124.911 Y120.94 E118.53957
G1 X124.293 Y121.425 E118.72811
G1 X123.69 Y121.855 E118.90586
G1 X122.638 Y122.55 E119.20846
G1 X121.61 Y123.124 E119.49103
G1 X120.558 Y123.656 E119.77396
G1 X119.753 Y124.014 E119.98541
G1 X118.911 Y124.338 E120.20193
G1 X117.926 Y124.676 E120.45186
G1 X116.559 Y125.056 E120.79238
G1 X115.838 Y125.221 E120.9699
G1 X114.628 Y125.432 E121.26468
G1 X113.825 Y125.538 E121.45907
G1 X112.856 Y125.616 E121.69238
G1 X111.989 Y125.654 E121.90066
G1 X111.016 Y125.642 E122.1342
G1 X109.401 Y125.571 E122.52217
G1 X87.122 Y124.129 E127.88032
G1 X85.667 Y124.015 E128.23059
G1 X83.709 Y123.315 E128.72964
G1 X82.485 Y122.519 E129.08006
G1 X81.091 Y121.06 E129.56435
G1 X80.387 Y119.844 E129.90157
G1 X79.713 Y117.735 E130.43295
G1 X79.692 Y116.212 E130.79851
G1 X79.697 Y106.854 E133.04443
G1 X79.719 Y105.398 E133.39391
G1 X80.365 Y103.168 E133.95111
G1 X81.05 Y102.065 E134.26273
G1 X82.28 Y100.578 E134.72587
G0 F7200 X82.674 Y101.043
G1 F2400 X84.39 Y100.05 E135.2017
G1 X85.934 Y99.569 E135.58982
G1 X87.298 Y99.462 E135.91819
G1 X110.222 Y97.982 E141.4314
G1 X111.118 Y97.945 E141.64663
G1 X112.359 Y97.959 E141.94449
G1 X113.648 Y98.052 E142.25465
G1 X114.382 Y98.138 E142.43202
G1 X115.229 Y98.275 E142.63794
G1 X116.106 Y98.449 E142.85252
G1 X117.001 Y98.68 E143.07436
G1 X117.78 Y98.907 E143.2691
G1 X118.702 Y99.225 E143.50317
G1 X120.188 Y99.825 E143.88778
G1 X121.459 Y100.467 E144.22953
G1 X123.015 Y101.402 E144.6652
G1 X124.019 Y102.114 E144.9606
G1 X124.881 Y102.801 E145.22515
G1 X125.679 Y103.511 E145.4815
G1 X126.197 Y104.009 E145.65395
G1 X127.046 Y104.913 E145.9516
G1 X127.815 Y105.842 E146.24103
G1 X128.408 Y106.623 E146.47638
G1 X128.957 Y107.423 E146.70924
G1 X129.868 Y108.943 E147.13454
G1 X130.171 Y109.96 E147.38923
G1 X130.383 Y111.514 E147.76564
G1 X130.23 Y112.628 E148.03551
G1 X129.889 Y113.906 E148.35296
G1 X129.431 Y114.813 E148.59682
G1 X128.788 Y115.826 E148.88478
G1 X128.22 Y116.632 E149.12143
G1 X127.379 Y117.709 E149.44938
G1 X126.448 Y118.74 E149.78278
G1 X125.408 Y119.735 E150.12821
G1 X124.54 Y120.468 E150.40087
G1 X123.944 Y120.937 E150.58289
G1 X123.359 Y121.355 E150.75545
G1 X122.345 Y122.026 E151.04727
G1 X121.317 Y122.6 E151.32984
G1 X120.287 Y123.121 E151.60687
G1 X119.537 Y123.454 E151.80381
G1 X118.716 Y123.77 E152.01494
G1 X117.731 Y124.108 E152.26487
G1 X116.425 Y124.471 E152.5902
G1 X115.704 Y124.636 E152.76771
G1 X114.549 Y124.837 E153.04908
G1 X113.746 Y124.943 E153.24347
G1 X112.829 Y125.017 E153.46426
G1 X111.996 Y125.054 E153.66438
G1 X111.043 Y125.043 E153.89312
G1 X109.44 Y124.972 E154.27821
G1 X87.169 Y123.531 E159.63443
G1 X85.794 Y123.423 E159.96545
G1 X83.977 Y122.774 E160.42851
G1 X82.873 Y122.055 E160.74471
G1 X81.572 Y120.694 E161.19658
G1 X80.939 Y119.6 E161.49992
G1 X80.312 Y117.639 E161.99403
G1 X80.292 Y116.212 E162.33655
G1 X80.297 Y106.863 E164.58031
G1 X80.318 Y105.486 E164.91082
G1 X80.917 Y103.417 E165.42778
G1 X81.56 Y102.382 E165.72021
G1 X82.674 Y101.043 E166.13824
G0 F7200 X83.067 Y101.509
G1 F2400 X84.632 Y100.603 E166.57224
G1 X86.049 Y100.162 E166.92841
G1 X87.337 Y100.061 E167.23848
G1 X110.247 Y98.581 E172.74834
G1 X111.111 Y98.545 E172.95588
G1 X112.352 Y98.559 E173.25374
G1 X113.579 Y98.648 E173.549
G1 X114.286 Y98.73 E173.71981
G1 X115.112 Y98.864 E173.92064
G1 X115.989 Y99.038 E174.13523
G1 X116.833 Y99.256 E174.34444
G1 X117.612 Y99.483 E174.53917
G1 X118.478 Y99.781 E174.75897
G1 X119.917 Y100.361 E175.13133
G1 X121.188 Y101.003 E175.47308
G1 X122.668 Y101.892 E175.88743
G1 X123.645 Y102.584 E176.17477
G1 X124.482 Y103.25 E176.43148
G1 X125.263 Y103.944 E176.68223
G1 X125.781 Y104.442 E176.85469
G1 X126.584 Y105.296 E177.13602
G1 X127.337 Y106.205 E177.41931
G1 X127.93 Y106.986 E177.65466
G1 X128.442 Y107.731 E177.87161
G1 X129.314 Y109.186 E178.27872
G1 X129.584 Y110.091 E178.50539
G1 X129.778 Y111.511 E178.84935
G1 X129.65 Y112.473 E179.08227
G1 X129.325 Y113.69 E179.38458
G1 X128.924 Y114.491 E179.59957
G1 X128.281 Y115.504 E179.88753
G1 X127.747 Y116.263 E180.11025
G1 X126.933 Y117.307 E180.42797
G1 X126.033 Y118.306 E180.75068
G1 X124.993 Y119.301 E181.09612
G1 X124.169 Y119.997 E181.35498
G1 X123.595 Y120.449 E181.53033
G1 X123.027 Y120.855 E181.69789
G1 X122.052 Y121.502 E181.97873
G1 X121.024 Y122.076 E182.2613
G1 X120.016 Y122.586 E182.53242
G1 X119.322 Y122.894 E182.71465
G1 X118.521 Y123.202 E182.92061
G1 X117.536 Y123.54 E183.17054
G1 X116.291 Y123.886 E183.48067
G1 X115.57 Y124.051 E183.65818
G1 X114.47 Y124.242 E183.92613
G1 X113.667 Y124.348 E184.12052
G1 X112.802 Y124.418 E184.3288
G1 X112.002 Y124.454 E184.521
G1 X111.07 Y124.444 E184.74469
G1 X109.479 Y124.373 E185.12691
G1 X87.216 Y122.933 E190.48119
G1 X85.921 Y122.831 E190.79296
G1 X84.245 Y122.233 E191.22003
G1 X83.261 Y121.592 E191.50188
G1 X82.054 Y120.329 E191.92116
G1 X81.492 Y119.358 E192.19042
G1 X80.911 Y117.54 E192.64848
G1 X80.892 Y116.212 E192.96723
G1 X80.897 Y106.872 E195.20883
G1 X80.917 Y105.574 E195.52039
G1 X81.469 Y103.666 E195.99709
G1 X82.07 Y102.699 E196.27034
G1 X83.067 Y101.509 E196.64293
G0 F7200 X83.46 Y101.974
G1 F2400 X84.872 Y101.157 E197.03445
G1 X86.164 Y100.755 E197.35919
G1 X87.376 Y100.66 E197.65096
G1 X110.272 Y99.18 E203.15747
G1 X111.104 Y99.145 E203.35733
G1 X112.345 Y99.159 E203.65519
G1 X113.511 Y99.244 E203.93577
G1 X114.19 Y99.322 E204.0998
G1 X114.995 Y99.453 E204.29554
G1 X115.872 Y99.627 E204.51013
G1 X116.665 Y99.832 E204.7067
G1 X117.417 Y100.051 E204.89468
G1 X118.254 Y100.338 E205.10704
G1 X119.646 Y100.897 E205.46705
G1 X120.917 Y101.539 E205.8088
G1 X122.322 Y102.382 E206.20204
G1 X123.272 Y103.054 E206.48131
G1 X124.084 Y103.699 E206.73019
G1 X124.848 Y104.377 E206.97534
G1 X125.344 Y104.853 E207.14033
G1 X126.147 Y105.707 E207.42167
G1 X126.859 Y106.568 E207.68981
G1 X127.452 Y107.349 E207.92516
G1 X127.927 Y108.04 E208.1264
G1 X128.761 Y109.431 E208.51565
G1 X128.997 Y110.222 E208.71376
G1 X129.173 Y111.509 E209.02551
G1 X129.055 Y112.394 E209.23979
G1 X128.761 Y113.477 E209.50912
G1 X128.417 Y114.169 E209.69459
G1 X127.774 Y115.182 E209.98255
G1 X127.273 Y115.895 E210.19169
G1 X126.487 Y116.906 E210.49903
G1 X125.618 Y117.872 E210.81088
G1 X124.578 Y118.867 E211.15631
G1 X123.798 Y119.526 E211.40138
G1 X123.246 Y119.961 E211.57005
G1 X122.695 Y120.355 E211.73262
G1 X121.72 Y121.002 E212.01346
G1 X120.753 Y121.541 E212.27915
G1 X119.772 Y122.038 E212.54309
G1 X119.107 Y122.334 E212.71778
G1 X118.326 Y122.634 E212.91857
G1 X117.341 Y122.972 E213.16851
G1 X116.157 Y123.301 E213.46343
G1 X115.436 Y123.466 E213.64095
G1 X114.391 Y123.647 E213.89548
G1 X113.618 Y123.75 E214.08264
G1 X112.775 Y123.819 E214.28564
G1 X112.008 Y123.854 E214.46991
G1 X111.097 Y123.845 E214.68856
G1 X109.518 Y123.774 E215.0679
G1 X87.263 Y122.335 E220.42025
G1 X86.048 Y122.239 E220.71276
G1 X84.513 Y121.691 E221.10394
G1 X83.646 Y121.127 E221.35217
G1 X82.536 Y119.965 E221.73784
G1 X82.046 Y119.118 E221.97269
G1 X81.51 Y117.441 E222.39523
G1 X81.492 Y116.212 E222.69022
G1 X81.497 Y106.881 E224.92966
G1 X81.516 Y105.662 E225.22225
G1 X82.022 Y103.912 E225.65946
G1 X82.53 Y103.084 E225.8926
G1 X83.46 Y101.974 E226.24014
G0 F7200 X83.852 Y102.44
G1 F2400 X85.112 Y101.711 E226.58951
G1 X86.279 Y101.348 E226.88282
G1 X87.415 Y101.259 E227.1563
G1 X110.297 Y99.779 E232.65946
G1 X111.097 Y99.745 E232.85163
G1 X112.338 Y99.759 E233.14949
G1 X113.443 Y99.84 E233.4154
G1 X114.093 Y99.914 E233.57241
G1 X114.878 Y100.042 E233.76329
G1 X115.755 Y100.216 E233.97788
G1 X116.497 Y100.408 E234.16182
G1 X117.222 Y100.619 E234.34304
G1 X118.059 Y100.906 E234.5554
G1 X119.376 Y101.433 E234.89585
G1 X120.609 Y102.054 E235.22718
G1 X121.976 Y102.872 E235.60951
G1 X122.899 Y103.524 E235.88073
G1 X123.686 Y104.148 E236.12178
G1 X124.433 Y104.81 E236.36133
G1 X124.907 Y105.264 E236.51885
G1 X125.685 Y106.09 E236.79118
G1 X126.381 Y106.931 E237.05317
G1 X126.974 Y107.712 E237.28852
G1 X127.412 Y108.349 E237.47406
G1 X128.208 Y109.676 E237.84544
G1 X128.41 Y110.353 E238.015
G1 X128.568 Y111.507 E238.29454
G1 X128.46 Y112.314 E238.48995
G1 X128.198 Y113.263 E238.72623
G1 X127.91 Y113.847 E238.88251
G1 X127.267 Y114.86 E239.17047
G1 X126.799 Y115.527 E239.36602
G1 X126.04 Y116.505 E239.66313
G1 X125.203 Y117.438 E239.96395
G1 X124.163 Y118.433 E240.30939
G1 X123.427 Y119.055 E240.54066
G1 X122.896 Y119.473 E240.70285
G1 X122.362 Y119.856 E240.86056
G1 X121.428 Y120.478 E241.12988
G1 X120.482 Y121.006 E241.38989
G1 X119.527 Y121.49 E241.64685
G1 X118.891 Y121.774 E241.81401
G1 X118.131 Y122.067 E242.0095
