;FLAVOR:UltiGCode
;TIME:331
;MATERIAL:502
;MATERIAL2:0
;NOZZLE_DIAMETER:0.6
;MINX:106.012
;MINY:106.019
;MINZ:0.4
;MAXX:116.984
;MAXY:118.033
;MAXZ:10
;TARGET_MACHINE.NAME:Ultimaker 2+
;Generated with Cura_SteamEngine 5.10.0
G0 F3000 Y50 ;avoid prime blob
M104 S230 ; Régler la température de l'extrudeur à 230°C
M140 S58 ; Régle la température du plateau à 58°C
M221 S100 ; Augmente le material flow de +25%
M82 ;absolute extrusion mode
G92 E0
G92 E0
G10
;LAYER_COUNT:65
;LAYER:0
;note -- min layer time used
M106 S255
;MESH:Accroche_fixation_pi3.STL
G0 F7200 X111.5 Y116.815 Z0.4
;TYPE:WALL-OUTER
G11
G1 F1042 X111.895 Y116.737 E0.10629
G1 X112.191 Y116.395 E0.2257
G1 X112.26 Y116.14 E0.29544
G1 X112.264 Y112.46 E1.26696
G1 X112.459 Y112.265 E1.33977
G1 X116.243 Y112.26 E2.33874
G1 X116.728 Y111.915 E2.49587
G1 X116.847 Y111.531 E2.60201
G1 X116.721 Y111.076 E2.72665
G1 X116.254 Y110.74 E2.87853
G1 X112.459 Y110.731 E3.88041
G1 X112.265 Y110.537 E3.95284
G1 X112.26 Y106.781 E4.94443
G1 X111.965 Y106.323 E5.08825
G1 X111.497 Y106.15 E5.21997
G1 X111.214 Y106.202 E5.29594
G1 X110.892 Y106.45 E5.40324
G1 X110.732 Y106.754 E5.49393
G1 X110.731 Y110.537 E6.49264
G1 X110.536 Y110.732 E6.56544
G1 X106.75 Y110.736 E7.56495
G1 X106.451 Y110.891 E7.65386
G1 X106.168 Y111.313 E7.788
G1 X106.155 Y111.638 E7.87387
G1 X106.432 Y112.095 E8.01495
G1 X106.747 Y112.26 E8.10883
G1 X110.536 Y112.264 E9.10912
G1 X110.732 Y112.46 E9.1823
G1 X110.736 Y116.102 E10.14379
G1 X110.955 Y116.61 E10.28983
G1 X111.373 Y116.84 E10.41579
G1 X111.5 Y116.815 E10.44996
G0 F7200 X111.794 Y116.757
G0 X111.498 Y115.945
;TYPE:WALL-INNER
G1 F636.9 X111.498 Y112.563 E11.64259
G1 F773 X111.743 Y112.152 E11.78514
G1 F931.5 X112.14 Y111.718 E11.93355
G1 F739.6 X112.471 Y111.498 E12.05664
G1 X112.14 Y111.278 E12.17973
G1 F892.5 X111.718 Y110.855 E12.33639
G1 F739.6 X111.498 Y110.525 E12.45922
G1 X111.278 Y110.855 E12.58205
G1 F931.5 X110.844 Y111.253 E12.73063
G1 F773 X110.433 Y111.498 E12.87318
G1 X110.844 Y111.743 E13.01573
G1 F975.4 X111.253 Y112.152 E13.15574
G1 F773 X111.498 Y112.563 E13.29829
G0 F7200 X112.471 Y111.498
G1 F634.5 X116.05 Y111.5 E14.56447
G0 F7200 X116.052 Y109.618
G0 X113.373 Y109.627
G0 X111.498 Y110.525
G1 F631.3 X111.496 Y107.005 E15.81513
G0 F7200 X109.614 Y107.005
G0 X109.626 Y109.627
G0 X110.433 Y111.498
G1 F636.1 X106.961 Y111.498 E17.04081
G0 F7200 X106.959 Y109.617
G0 X109.626 Y109.627
G0 X111.619 Y111.497
;TYPE:SKIN
G1 F600.4 X111.558 Y111.391 E17.0839
G1 X111.436 Y111.391 E17.12689
G1 X111.375 Y111.497 E17.16998
G1 X111.436 Y111.603 E17.21307
G1 X111.558 Y111.603 E17.25605
G1 X111.619 Y111.497 E17.29915
G10
;MESH:NONMESH
G0 F600 X111.619 Y111.497 Z0.55
G0 F7200 X113.373 Y113.373
G0 X113.38 Y116.29
G0 X112.57 Y117.673
G0 X111.5 Y116.933
;TIME_ELAPSED:8.742656
;LAYER:1
;note -- min layer time used
;TYPE:WALL-OUTER
;MESH:Accroche_fixation_pi3.STL
G11
G1 F965.7 X111.853 Y116.895 E17.3311
G1 X112.198 Y116.622 E17.37069
G1 X112.376 Y116.174 E17.41408
G1 X112.383 Y112.581 E17.73745
G1 X112.579 Y112.385 E17.7624
G1 X116.138 Y112.38 E18.08271
G1 X116.463 Y112.297 E18.1129
G1 X116.788 Y112.038 E18.1503
G1 X116.964 Y111.651 E18.18856
G1 X116.964 Y111.356 E18.21511
G1 X116.784 Y110.949 E18.25516
G1 X116.554 Y110.745 E18.28283
G1 X116.19 Y110.624 E18.31736
G1 X112.579 Y110.611 E18.64235
G1 X112.385 Y110.417 E18.66704
G1 X112.38 Y106.718 E18.99995
G1 X112.203 Y106.375 E19.03469
G1 X111.766 Y106.067 E19.0828
G1 X111.236 Y106.061 E19.13051
G1 X110.806 Y106.368 E19.17806
G1 X110.612 Y106.811 E19.22158
G1 X110.611 Y110.417 E19.54612
G1 X110.416 Y110.612 E19.57094
G1 X106.719 Y110.616 E19.90367
G1 X106.376 Y110.797 E19.93858
G1 X106.068 Y111.23 E19.9864
G1 X106.022 Y111.559 E20.0163
G1 X106.097 Y111.854 E20.04369
G1 X106.46 Y112.257 E20.09251
G1 X106.807 Y112.376 E20.12552
G1 X110.416 Y112.384 E20.45033
G1 X110.613 Y112.581 E20.47541
G1 X110.612 Y116.225 E20.80337
G1 X111.029 Y116.837 E20.87002
G1 X111.312 Y116.953 E20.89755
G1 X111.5 Y116.933 E20.91456
G0 F7200 X111.798 Y116.901
G0 X111.397 Y116.349
;TYPE:WALL-INNER
G1 F996.7 X111.5 Y116.338 E20.92362
G1 X111.621 Y116.325 E20.93426
G1 F998.6 X111.785 Y116.06 E20.96147
G1 F994.8 X111.791 Y112.684 E21.25721
G1 F980.1 X111.88 Y112.28 E21.29394
G1 F969.3 X112.28 Y111.88 E21.34468
G1 F976.4 X112.606 Y111.792 E21.37477
G1 F994.8 X116.064 Y111.791 E21.67769
G1 F1006.2 X116.31 Y111.665 E21.70165
G1 X116.375 Y111.524 E21.71512
G1 X116.297 Y111.304 E21.73535
G1 X116.093 Y111.213 E21.75472
G1 F994.8 X112.606 Y111.204 E22.06018
G1 F976.4 X112.28 Y111.116 E22.09027
G1 F969.3 X111.879 Y110.715 E22.14114
G1 F976.4 X111.792 Y110.39 E22.17111
G1 F987.4 X111.788 Y106.799 E22.48784
G1 F991.1 X111.467 Y106.624 E22.51998
G1 F993 X111.204 Y106.935 E22.55572
G1 F987.4 X111.204 Y110.39 E22.86045
G1 F976.4 X111.117 Y110.715 E22.89043
G1 F969.3 X110.716 Y111.116 E22.94129
G1 F980.1 X110.315 Y111.205 E22.97777
G1 F996.7 X106.865 Y111.206 E23.27947
G1 F1002.4 X106.632 Y111.455 E23.30914
G1 F998.6 X106.83 Y111.786 E23.34281
G1 F994.8 X110.315 Y111.791 E23.6481
G1 F980.1 X110.716 Y111.88 E23.68457
G1 F967.5 X111.116 Y112.28 E23.7354
G1 F980.1 X111.205 Y112.684 E23.77214
G1 F994.8 X111.203 Y116.134 E24.07436
G1 F998.6 X111.397 Y116.349 E24.09964
G0 F7200 X111.497 Y111.96
;TYPE:SKIN
G1 F876.5 X111.961 Y111.496 E24.16088
G1 X111.497 Y111.031 E24.2222
G1 X111.033 Y111.497 E24.28358
G1 X111.497 Y111.96 E24.34476
;MESH:NONMESH
G0 F600 X111.497 Y111.96 Z0.7
G0 F7200 X111.455 Y116.529
G0 X111.5 Y116.959
;TIME_ELAPSED:13.858821
;LAYER:2
;note -- min layer time used
;TYPE:WALL-OUTER
;MESH:Accroche_fixation_pi3.STL
G1 F965.4 X111.57 Y116.97 E24.35114
G1 X112.082 Y116.75 E24.40129
G1 X112.242 Y116.568 E24.4231
G1 X112.38 Y116.155 E24.46229
G1 X112.383 Y112.581 E24.78395
G1 X112.579 Y112.385 E24.8089
G1 X116.301 Y112.38 E25.14388
G1 X116.788 Y112.039 E25.19738
G1 X116.979 Y111.53 E25.24631
G1 X116.914 Y111.181 E25.27826
G1 X116.637 Y110.815 E25.31957
G1 X116.168 Y110.62 E25.36529
G1 X112.579 Y110.611 E25.6883
G1 X112.385 Y110.417 E25.71299
G1 X112.384 Y106.838 E26.0351
G1 X112.279 Y106.494 E26.06747
G1 X111.841 Y106.088 E26.12122
G1 X111.186 Y106.079 E26.18018
G1 X110.795 Y106.371 E26.2241
G1 X110.612 Y106.725 E26.25996
G1 X110.611 Y110.417 E26.59224
G1 X110.416 Y110.612 E26.61706
G1 X106.838 Y110.612 E26.93908
G1 X106.505 Y110.717 E26.97051
G1 X106.116 Y111.109 E27.02021
G1 X106.051 Y111.729 E27.07631
G1 X106.253 Y112.096 E27.11402
G1 X106.814 Y112.376 E27.17045
G1 X110.416 Y112.384 E27.49463
G1 X110.613 Y112.581 E27.5197
G1 X110.612 Y116.061 E27.8329
G1 X110.719 Y116.509 E27.87436
G1 X111.133 Y116.899 E27.92554
G1 X111.5 Y116.959 E27.95901
G0 F7200 X111.57 Y116.97
G0 X111.78 Y116.88
G0 X111.495 Y116.358
;TYPE:WALL-INNER
G1 F994.5 X111.5 Y116.356 E27.95948
G1 X111.72 Y116.261 E27.98048
G1 X111.788 Y116.058 E27.99923
G1 X111.791 Y112.684 E28.29479
G1 F979.7 X111.879 Y112.281 E28.33142
G1 F968.9 X112.281 Y111.879 E28.38242
G1 F976.1 X112.606 Y111.792 E28.4124
G1 F992.6 X116.115 Y111.79 E28.72031
G1 F1002 X116.378 Y111.552 E28.75117
G1 X116.263 Y111.298 E28.77543
G1 X116.05 Y111.21 E28.79548
G1 F992.6 X112.606 Y111.204 E29.09769
G1 F976.1 X112.281 Y111.117 E29.12767
G1 F968.9 X111.879 Y110.715 E29.17866
G1 F976.1 X111.792 Y110.39 E29.20864
G1 F987 X111.791 Y106.927 E29.51407
G1 F990.7 X111.646 Y106.66 E29.54078
G1 X111.449 Y106.627 E29.55834
G1 X111.205 Y106.87 E29.58861
G1 F987 X111.204 Y110.39 E29.89907
G1 F976.1 X111.117 Y110.715 E29.92905
G1 F968.9 X110.716 Y111.116 E29.97992
G1 F979.7 X110.315 Y111.205 E30.01639
G1 F992.6 X106.856 Y111.203 E30.31992
G1 F996.3 X106.623 Y111.543 E30.35597
G1 F998.2 X106.712 Y111.704 E30.37203
G1 X106.904 Y111.785 E30.39022
G1 F994.5 X110.315 Y111.791 E30.68902
G1 F979.7 X110.716 Y111.88 E30.7255
G1 F967.1 X111.117 Y112.281 E30.77645
G1 F979.7 X111.205 Y112.684 E30.81308
G1 F994.5 X111.204 Y116.23 E31.12371
G1 X111.495 Y116.358 E31.15156
G0 F7200 X111.497 Y111.96
;TYPE:SKIN
G1 F876.2 X111.961 Y111.496 E31.21281
G1 X111.497 Y111.031 E31.27412
G1 X111.033 Y111.497 E31.3355
G1 X111.497 Y111.96 E31.39668
;MESH:NONMESH
G0 F600 X111.497 Y111.96 Z0.85
G0 F7200 X111.525 Y116.55
G0 X111.5 Y116.958
;TIME_ELAPSED:18.978415
;LAYER:3
;note -- min layer time used
;TYPE:WALL-OUTER
;MESH:Accroche_fixation_pi3.STL
G1 F964.9 X111.983 Y116.822 E31.44184
G1 X112.282 Y116.49 E31.48205
G1 X112.38 Y116.153 E31.51364
G1 X112.384 Y112.58 E31.83521
G1 X112.579 Y112.385 E31.86003
G1 X116.133 Y112.38 E32.17989
G1 X116.558 Y112.244 E32.22005
G1 X116.777 Y112.056 E32.24603
G1 X116.948 Y111.706 E32.28109
G1 X116.882 Y111.105 E32.3355
G1 X116.73 Y110.887 E32.35942
G1 X116.323 Y110.616 E32.40343
G1 X112.579 Y110.611 E32.74039
G1 X112.385 Y110.417 E32.76508
G1 X112.38 Y106.716 E33.09817
G1 X111.975 Y106.157 E33.1603
G1 X111.609 Y106.029 E33.19519
G1 X111.115 Y106.11 E33.24025
G1 X110.887 Y106.266 E33.26511
G1 X110.616 Y106.835 E33.32183
G1 X110.611 Y110.417 E33.64421
G1 X110.416 Y110.612 E33.66903
G1 X106.863 Y110.616 E33.9888
G1 X106.441 Y110.75 E34.02865
G1 X106.201 Y110.968 E34.05783
G1 X106.026 Y111.41 E34.10061
G1 X106.053 Y111.724 E34.12898
G1 X106.365 Y112.186 E34.17915
G1 X106.861 Y112.38 E34.22709
G1 X110.416 Y112.384 E34.54704
G1 X110.612 Y112.58 E34.57198
G1 X110.616 Y116.128 E34.8913
G1 X110.754 Y116.555 E34.93169
G1 X111.116 Y116.884 E34.97571
G1 X111.446 Y116.973 E35.00648
G1 X111.5 Y116.958 E35.01152
G0 F7200 X111.788 Y116.877
G0 X111.442 Y116.36
;TYPE:WALL-INNER
G1 F997.7 X111.5 Y116.344 E35.01677
G1 X111.659 Y116.299 E35.0312
G1 X111.789 Y116.069 E35.05426
G1 F993.9 X111.791 Y112.683 E35.35088
G1 F979.2 X111.879 Y112.281 E35.38742
G1 F968.4 X112.281 Y111.879 E35.43841
G1 F975.6 X112.606 Y111.792 E35.46839
G1 F990.2 X116.041 Y111.789 E35.77033
G1 F997.7 X116.342 Y111.601 E35.80131
G1 X116.311 Y111.321 E35.8259
G1 F993.9 X116.145 Y111.207 E35.84354
G1 F986.5 X112.606 Y111.204 E36.15568
G1 F975.6 X112.281 Y111.117 E36.18566
G1 F968.4 X111.879 Y110.715 E36.23666
G1 F975.6 X111.792 Y110.39 E36.26663
G1 F990.2 X111.789 Y106.874 E36.57569
G1 F995.8 X111.676 Y106.678 E36.59548
G1 X111.341 Y106.672 E36.62478
G1 F993.9 X111.207 Y106.853 E36.6445
G1 F986.5 X111.204 Y110.39 E36.95647
G1 F975.6 X111.117 Y110.715 E36.98644
G1 F968.4 X110.715 Y111.117 E37.03744
G1 F979.2 X110.313 Y111.205 E37.07398
G1 F993.9 X106.955 Y111.207 E37.36814
G1 F995.8 X106.699 Y111.314 E37.39241
G1 X106.629 Y111.52 E37.41143
G1 X106.751 Y111.702 E37.43059
G1 X106.972 Y111.789 E37.45136
G1 F993.9 X110.313 Y111.791 E37.74404
G1 F979.2 X110.715 Y111.879 E37.78058
G1 F966.6 X111.117 Y112.281 E37.83166
G1 F979.2 X111.205 Y112.683 E37.8682
G1 F992.1 X111.207 Y116.176 E38.17471
G1 F995.8 X111.442 Y116.36 E38.20081
G0 F7200 X111.498 Y111.96
;TYPE:SKIN
G1 F875.7 X111.961 Y111.496 E38.262
G1 X111.497 Y111.031 E38.32331
G1 X111.036 Y111.497 E38.38449
G1 X111.498 Y111.96 E38.44554
;MESH:NONMESH
G0 F600 X111.498 Y111.96 Z1
G0 F7200 X111.441 Y116.553
G0 X111.5 Y116.939
;TIME_ELAPSED:24.099582
;LAYER:4
;note -- min layer time used
;TYPE:WALL-OUTER
;MESH:Accroche_fixation_pi3.STL
G1 F967.1 X111.656 Y116.96 E38.45969
G1 F965.3 X112.158 Y116.683 E38.51129
G1 X112.384 Y116.26 E38.55445
G1 X112.384 Y112.58 E38.88565
G1 X112.579 Y112.385 E38.91047
G1 X116.135 Y112.38 E39.23051
G1 X116.713 Y112.127 E39.28729
G1 X116.96 Y111.66 E39.33484
G1 X116.874 Y111.079 E39.3877
G1 X116.652 Y110.816 E39.41868
G1 X116.147 Y110.62 E39.46743
G1 X112.579 Y110.611 E39.78855
G1 X112.385 Y110.417 E39.81324
G1 X112.38 Y106.868 E40.13265
G1 X112.209 Y106.388 E40.17851
G1 X111.971 Y106.158 E40.2083
G1 X111.517 Y106.019 E40.25103
G1 X110.977 Y106.193 E40.30209
G1 X110.612 Y106.68 E40.35687
G1 X110.611 Y110.417 E40.6932
G1 X110.416 Y110.612 E40.71802
G1 X106.699 Y110.616 E41.05255
G1 X106.201 Y110.964 E41.10723
G1 X106.057 Y111.241 E41.13532
G1 X106.035 Y111.665 E41.17353
G1 X106.348 Y112.18 E41.22777
G1 X106.854 Y112.38 E41.27674
G1 X110.416 Y112.384 E41.59732
G1 X110.612 Y112.58 E41.62227
G1 X110.612 Y116.211 E41.94906
G1 X110.873 Y116.715 E42.00014
G1 X111.131 Y116.891 E42.02825
G1 F967.1 X111.5 Y116.939 E42.06168
G0 F7200 X111.656 Y116.96
G0 X111.781 Y116.891
G0 X111.587 Y116.352
;TYPE:WALL-INNER
G1 F990.6 X111.791 Y116.112 E42.08937
G1 X111.791 Y112.684 E42.39069
G1 F979.6 X111.879 Y112.281 E42.42732
G1 F968.8 X112.281 Y111.879 E42.47832
G1 F976 X112.606 Y111.792 E42.50829
G1 F987 X116.224 Y111.79 E42.8274
G1 F998.1 X116.371 Y111.511 E42.85493
G1 F1001.9 X116.298 Y111.312 E42.87337
G1 X116.035 Y111.21 E42.89791
G1 F992.5 X112.606 Y111.204 E43.19881
G1 F976 X112.281 Y111.117 E43.22879
G1 F968.8 X111.879 Y110.715 E43.27978
G1 F976 X111.792 Y110.39 E43.30976
G1 F987 X111.788 Y106.971 E43.61132
G1 F992.5 X111.662 Y106.683 E43.6389
G1 X111.372 Y106.652 E43.66449
G1 F990.6 X111.204 Y106.876 E43.6891
G1 F987 X111.204 Y110.39 E43.99904
G1 F976 X111.117 Y110.715 E44.02902
G1 F968.8 X110.715 Y111.117 E44.08001
G1 F979.6 X110.313 Y111.205 E44.11656
G1 F994.4 X106.885 Y111.207 E44.41685
G1 F998.1 X106.658 Y111.366 E44.44104
G1 X106.632 Y111.581 E44.45995
G1 X106.967 Y111.789 E44.49437
G1 F994.4 X110.313 Y111.791 E44.78748
G1 F979.6 X110.715 Y111.879 E44.82403
G1 F967.1 X111.117 Y112.281 E44.87511
G1 F979.6 X111.205 Y112.684 E44.91174
G1 F990.6 X111.205 Y116.067 E45.2091
G1 X111.331 Y116.31 E45.23316
G1 X111.5 Y116.338 E45.24822
G1 X111.587 Y116.352 E45.25597
G0 F7200 X111.498 Y111.96
;TYPE:SKIN
G1 F876.1 X111.961 Y111.496 E45.31715
G1 X111.497 Y111.031 E45.37846
G1 X111.036 Y111.497 E45.43964
G1 X111.498 Y111.96 E45.50069
;MESH:NONMESH
G0 F600 X111.498 Y111.96 Z1.15
G0 F7200 X111.554 Y116.536
G0 X111.5 Y116.958
;TIME_ELAPSED:29.220646
;LAYER:5
;note -- min layer time used
;TYPE:WALL-OUTER
;MESH:Accroche_fixation_pi3.STL
G1 F964.9 X111.567 Y116.967 E45.50678
G1 X112.075 Y116.755 E45.55632
G1 X112.307 Y116.438 E45.59167
G1 X112.38 Y116.147 E45.61868
G1 X112.383 Y112.581 E45.93962
G1 X112.579 Y112.385 E45.96456
G1 X116.133 Y112.384 E46.28442
G1 X116.693 Y112.141 E46.33936
G1 X116.859 Y111.938 E46.36296
G1 X116.971 Y111.543 E46.39991
G1 X116.8 Y110.974 E46.45339
G1 X116.285 Y110.616 E46.50984
G1 X112.579 Y110.611 E46.84338
G1 X112.385 Y110.417 E46.86807
G1 X112.384 Y106.854 E47.18874
G1 X112.179 Y106.344 E47.23821
G1 X111.643 Y106.038 E47.29376
G1 X111.095 Y106.121 E47.34364
G1 X110.801 Y106.362 E47.37785
G1 X110.612 Y106.715 E47.41389
G1 X110.611 Y110.417 E47.74707
G1 X110.416 Y110.612 E47.77189
G1 X106.845 Y110.612 E48.09328
G1 X106.443 Y110.746 E48.13142
G1 X106.088 Y111.161 E48.18057
G1 X106.056 Y111.738 E48.23258
G1 X106.352 Y112.192 E48.28135
G1 X106.725 Y112.384 E48.31911
G1 X110.416 Y112.384 E48.6513
G1 X110.613 Y112.581 E48.67637
G1 X110.613 Y116.231 E49.00487
G1 X110.789 Y116.614 E49.04281
G1 X111.184 Y116.913 E49.0874
G1 X111.5 Y116.958 E49.11612
G0 F7200 X111.567 Y116.967
G0 X111.781 Y116.878
G0 X111.489 Y116.359
;TYPE:WALL-INNER
G1 F997.7 X111.5 Y116.354 E49.11718
G1 X111.695 Y116.273 E49.13561
G1 F995.8 X111.789 Y116.075 E49.15478
G1 F994 X111.791 Y112.684 E49.45183
G1 F979.2 X111.879 Y112.281 E49.48846
G1 F968.4 X112.281 Y111.879 E49.53946
G1 F975.6 X112.606 Y111.792 E49.56943
G1 F988.4 X116.011 Y111.792 E49.86924
G1 F994 X116.324 Y111.655 E49.89917
G1 X116.274 Y111.281 E49.93223
G1 X116.137 Y111.208 E49.94583
G1 F988.4 X112.606 Y111.204 E50.25673
G1 F975.6 X112.281 Y111.117 E50.28671
G1 F968.4 X111.879 Y110.715 E50.3377
G1 F975.6 X111.792 Y110.39 E50.36768
G1 F986.6 X111.791 Y106.968 E50.6695
G1 F990.2 X111.685 Y106.703 E50.69459
G1 X111.345 Y106.682 E50.72453
G1 X111.205 Y106.864 E50.74471
G1 F986.6 X111.204 Y110.39 E51.05571
G1 F975.6 X111.117 Y110.715 E51.08569
G1 F968.4 X110.715 Y111.117 E51.13668
G1 F979.2 X110.312 Y111.205 E51.17331
G1 F990.2 X106.941 Y111.205 E51.46962
G1 X106.672 Y111.336 E51.49592
G1 X106.657 Y111.625 E51.52136
G1 X106.868 Y111.791 E51.54496
G1 X110.312 Y111.791 E51.84768
G1 F979.2 X110.715 Y111.879 E51.88431
G1 F966.7 X111.117 Y112.281 E51.9354
G1 F979.2 X111.205 Y112.684 E51.97202
G1 F994 X111.205 Y116.2 E52.28003
G1 X111.489 Y116.359 E52.30854
