;FLAVOR:UltiGCode
;TIME:347
;MATERIAL:652
;MATERIAL2:0
;NOZZLE_DIAMETER:0.6
;MINX:98.107
;MINY:98.136
;MINZ:0.4
;MAXX:124.869
;MAXY:124.888
;MAXZ:10
;TARGET_MACHINE.NAME:Ultimaker 2+
;Generated with Cura_SteamEngine 5.10.0
G0 F3000 Y50 ;avoid prime blob
M104 S230 ; Régler la température de l'extrudeur à 230°C
M140 S58 ; Régle la température du plateau à 58°C
M221 S100 ; Augmente le material flow de +25%
M82 ;absolute extrusion mode
G92 E0
G92 E0
G10
;LAYER_COUNT:65
;LAYER:0
M107
G0 F7200 X101.044 Y104.956 Z0.4
;TYPE:SKIRT
G11
G1 F2400 X102.394 Y103.666 E0.44814
G1 X105.47 Y100.539 E1.50086
G1 X106.494 Y99.709 E1.81721
G1 X107.518 Y99.065 E2.10753
G1 X109.036 Y98.468 E2.49901
G1 X110.502 Y98.165 E2.85829
G1 X112.598 Y98.136 E3.36138
G1 X113.949 Y98.479 E3.69591
G1 X115.485 Y99.066 E4.09055
G1 X116.674 Y99.83 E4.42974
G1 X117.691 Y100.686 E4.74877
G1 X119.515 Y102.575 E5.37898
G1 X121.33 Y104.365 E5.99079
G1 X122.35 Y105.34 E6.32944
G1 X123.249 Y106.368 E6.65719
G1 X124.137 Y107.934 E7.08925
G1 X124.593 Y109.341 E7.44422
G1 X124.869 Y110.731 E7.78434
G1 X124.811 Y113.031 E8.33651
G1 X124.322 Y114.667 E8.74632
G1 X123.115 Y116.923 E9.36038
G1 X119.971 Y119.974 E10.41182
G1 X118.659 Y121.315 E10.86208
G1 X117.369 Y122.659 E11.30918
G1 X116.152 Y123.527 E11.66794
G1 X114.799 Y124.27 E12.0384
G1 X113.221 Y124.67 E12.42909
G1 X111.658 Y124.888 E12.80785
G1 X109.967 Y124.788 E13.21439
G1 X107.605 Y123.995 E13.81237
G1 X106.045 Y123.026 E14.25312
G1 X103.114 Y120.041 E15.25714
G1 X100.156 Y117.185 E16.24396
G1 X98.793 Y115.12 E16.83778
G1 X98.158 Y112.637 E17.45288
G1 X98.107 Y111.274 E17.78023
G1 X98.445 Y108.898 E18.35621
G1 X99.293 Y107.165 E18.81926
G1 X100.091 Y105.941 E19.16993
G1 X101.044 Y104.956 E19.49887
G0 F7200 X101.459 Y105.39
G1 F2400 X102.809 Y104.1 E19.94701
G1 X105.898 Y100.96 E21.00414
G1 X106.814 Y100.217 E21.28721
G1 X107.794 Y99.6 E21.56514
G1 X109.202 Y99.047 E21.92819
G1 X110.57 Y98.764 E22.26346
G1 X112.525 Y98.737 E22.7327
G1 X113.801 Y99.061 E23.04866
G1 X115.214 Y99.605 E23.41205
G1 X116.35 Y100.335 E23.73613
G1 X117.259 Y101.103 E24.02173
G1 X119.083 Y102.992 E24.65194
G1 X120.916 Y104.8 E25.26985
G1 X121.898 Y105.735 E25.59528
G1 X122.758 Y106.718 E25.90874
G1 X123.585 Y108.178 E26.31145
G1 X124.004 Y109.458 E26.63469
G1 X124.267 Y110.784 E26.95913
G1 X124.213 Y112.936 E27.47577
G1 X123.764 Y114.438 E27.85201
G1 X122.631 Y116.556 E28.42849
G1 X119.553 Y119.543 E29.45787
G1 X118.23 Y120.895 E29.91186
G1 X116.975 Y122.203 E30.34691
G1 X115.863 Y123.001 E30.6754
G1 X114.578 Y123.707 E31.02728
G1 X113.074 Y124.088 E31.39964
G1 X111.633 Y124.285 E31.7487
G1 X110.083 Y124.194 E32.12134
G1 X107.864 Y123.449 E32.68311
G1 X106.42 Y122.552 E33.0911
G1 X103.531 Y119.609 E34.08086
G1 X100.621 Y116.799 E35.05173
G1 X99.349 Y114.872 E35.60588
G1 X98.756 Y112.553 E36.18035
G1 X98.709 Y111.303 E36.48056
G1 X99.026 Y109.077 E37.02019
G1 X99.796 Y107.493 E37.44289
G1 X100.565 Y106.314 E37.78072
G1 X101.459 Y105.39 E38.08928
G0 F7200 X101.873 Y105.824
G1 F2400 X103.237 Y104.521 E38.54201
G1 X106.326 Y101.381 E39.59914
G1 X107.134 Y100.725 E39.84892
G1 X108.066 Y100.138 E40.11327
G1 X109.373 Y99.625 E40.45025
G1 X110.638 Y99.363 E40.76029
G1 X112.452 Y99.338 E41.19569
G1 X113.653 Y99.643 E41.49308
G1 X114.941 Y100.142 E41.82459
G1 X115.964 Y100.794 E42.11574
G1 X116.827 Y101.52 E42.3864
G1 X118.651 Y103.409 E43.01661
G1 X120.502 Y105.235 E43.64063
G1 X121.484 Y106.17 E43.96606
G1 X122.265 Y107.065 E44.25114
G1 X123.032 Y108.42 E44.62483
G1 X123.415 Y109.575 E44.91687
G1 X123.665 Y110.837 E45.22563
G1 X123.615 Y112.841 E45.70674
G1 X123.206 Y114.209 E46.04942
G1 X122.147 Y116.189 E46.58832
G1 X119.135 Y119.112 E47.59564
G1 X117.801 Y120.475 E48.05336
G1 X116.576 Y121.751 E48.47788
G1 X115.574 Y122.475 E48.77457
G1 X114.355 Y123.145 E49.10841
G1 X112.993 Y123.494 E49.44585
G1 X111.612 Y123.683 E49.78038
G1 X110.199 Y123.6 E50.12008
G1 X108.123 Y122.903 E50.64566
G1 X106.795 Y122.078 E51.02087
G1 X103.948 Y119.177 E51.99638
G1 X101.086 Y116.413 E52.95129
G1 X99.905 Y114.624 E53.46577
G1 X99.354 Y112.469 E53.99961
G1 X99.311 Y111.332 E54.27268
G1 X99.607 Y109.255 E54.7762
G1 X100.336 Y107.755 E55.17646
G1 X101.035 Y106.691 E55.482
G1 X101.873 Y105.824 E55.77139
G0 F7200 X102.287 Y106.258
G1 F2400 X103.651 Y104.955 E56.22411
G1 X106.706 Y101.845 E57.27039
G1 X107.453 Y101.233 E57.50215
G1 X108.34 Y100.675 E57.75365
G1 X109.544 Y100.202 E58.06411
G1 X110.701 Y99.962 E58.3477
G1 X112.379 Y99.939 E58.75046
G1 X113.505 Y100.225 E59.02928
G1 X114.667 Y100.679 E59.32869
G1 X115.641 Y101.3 E59.60592
G1 X116.395 Y101.937 E59.84282
G1 X118.219 Y103.826 E60.47303
G1 X120.089 Y105.67 E61.10333
G1 X121.032 Y106.564 E61.41519
G1 X121.772 Y107.412 E61.68531
G1 X122.48 Y108.663 E62.0303
G1 X122.845 Y109.764 E62.30868
G1 X123.063 Y110.887 E62.58323
G1 X123.017 Y112.746 E63.02953
G1 X122.648 Y113.98 E63.33864
G1 X121.663 Y115.822 E63.83996
G1 X118.717 Y118.681 E64.82521
G1 X117.372 Y120.055 E65.28667
G1 X116.181 Y121.296 E65.69948
G1 X115.285 Y121.949 E65.96557
G1 X114.133 Y122.582 E66.28104
G1 X112.912 Y122.9 E66.58385
G1 X111.591 Y123.081 E66.90386
G1 X110.315 Y123.006 E67.21063
G1 X108.382 Y122.357 E67.7
G1 X107.17 Y121.604 E68.04244
G1 X104.365 Y118.745 E69.0037
G1 X101.551 Y116.027 E69.94265
G1 X100.461 Y114.376 E70.41746
G1 X99.952 Y112.385 E70.91067
G1 X99.913 Y111.361 E71.15661
G1 X100.188 Y109.433 E71.62401
G1 X100.838 Y108.084 E71.98339
G1 X101.507 Y107.065 E72.27595
G1 X102.287 Y106.258 E72.54531
G0 F7200 X102.701 Y106.692
G1 F2400 X104.065 Y105.389 E72.99803
G1 X106.181 Y103.242 E73.72151
G1 X107.089 Y102.307 E74.03431
G1 X107.772 Y101.741 E74.2472
G1 X108.612 Y101.213 E74.48532
G1 X109.712 Y100.78 E74.76903
G1 X110.769 Y100.561 E75.0281
G1 X112.306 Y100.54 E75.39702
G1 X113.357 Y100.807 E75.65727
G1 X114.392 Y101.215 E75.92427
G1 X115.318 Y101.806 E76.18792
G1 X115.963 Y102.354 E76.39105
G1 X117.787 Y104.243 E77.02126
G1 X119.677 Y106.106 E77.65818
G1 X120.58 Y106.959 E77.9563
G1 X121.28 Y107.761 E78.21179
G1 X121.928 Y108.906 E78.52754
G1 X122.275 Y109.953 E78.79227
G1 X122.461 Y110.934 E79.0319
G1 X122.419 Y112.651 E79.4441
G1 X122.09 Y113.751 E79.71966
G1 X121.179 Y115.455 E80.1834
G1 X118.299 Y118.25 E81.14658
G1 X116.943 Y119.635 E81.61177
G1 X115.784 Y120.842 E82.01338
G1 X114.931 Y121.464 E82.26675
G1 X113.909 Y122.021 E82.54609
G1 X112.83 Y122.306 E82.81393
G1 X111.57 Y122.479 E83.11917
G1 X110.431 Y122.412 E83.393
G1 X108.641 Y121.811 E83.84617
G1 X107.545 Y121.13 E84.15585
G1 X104.782 Y118.313 E85.10285
G1 X102.016 Y115.641 E86.02585
G1 X101.017 Y114.128 E86.46098
G1 X100.55 Y112.301 E86.91356
G1 X100.515 Y111.39 E87.13236
G1 X100.769 Y109.609 E87.56412
G1 X101.34 Y108.413 E87.8822
G1 X101.979 Y107.439 E88.16178
G1 X102.701 Y106.692 E88.41111
G0 F7200 X103.115 Y107.126
G1 F2400 X104.479 Y105.823 E88.86383
G1 X106.608 Y103.663 E89.59172
G1 X107.475 Y102.767 E89.89095
G1 X108.092 Y102.249 E90.0843
G1 X108.888 Y101.748 E90.31003
G1 X109.883 Y101.357 E90.56661
G1 X110.832 Y101.16 E90.79922
G1 X112.233 Y101.141 E91.13549
G1 X113.209 Y101.389 E91.37718
G1 X114.119 Y101.752 E91.61231
G1 X114.931 Y102.265 E91.84282
G1 X115.531 Y102.771 E92.0312
G1 X117.355 Y104.66 E92.66141
G1 X119.266 Y106.543 E93.30529
G1 X120.128 Y107.354 E93.58934
G1 X120.788 Y108.11 E93.83019
G1 X121.377 Y109.15 E94.11704
G1 X121.685 Y110.065 E94.34875
G1 X121.859 Y110.985 E94.57347
G1 X121.821 Y112.556 E94.95062
G1 X121.532 Y113.522 E95.19261
G1 X120.695 Y115.088 E95.61876
G1 X117.881 Y117.819 E96.55989
G1 X116.514 Y119.215 E97.02881
G1 X115.387 Y120.388 E97.41921
G1 X114.577 Y120.979 E97.65986
G1 X113.684 Y121.46 E97.90329
G1 X112.748 Y121.712 E98.13593
G1 X111.549 Y121.877 E98.4264
G1 X110.547 Y121.818 E98.6673
G1 X108.9 Y121.265 E99.08426
G1 X107.92 Y120.656 E99.36118
G1 X105.21 Y117.893 E100.29002
G1 X102.483 Y115.258 E101.20011
G1 X101.573 Y113.88 E101.59644
G1 X101.148 Y112.217 E102.00839
G1 X101.117 Y111.419 E102.20005
G1 X101.35 Y109.783 E102.59665
G1 X101.842 Y108.742 E102.87299
G1 X102.451 Y107.813 E103.13959
G1 X103.115 Y107.126 E103.3689
G0 F7200 X103.529 Y107.56
G1 F2400 X104.893 Y106.257 E103.82162
G1 X107.035 Y104.084 E104.55392
G1 X107.861 Y103.227 E104.83958
G1 X108.478 Y102.709 E105.03293
G1 X109.161 Y102.285 E105.22587
G1 X110.051 Y101.935 E105.45539
G1 X110.9 Y101.759 E105.66348
G1 X112.16 Y101.742 E105.96591
G1 X113.061 Y101.971 E106.18902
G1 X113.846 Y102.289 E106.3923
G1 X114.544 Y102.724 E106.58968
G1 X115.144 Y103.23 E106.77805
G1 X116.934 Y105.087 E107.39708
G1 X118.855 Y106.98 E108.04435
G1 X119.717 Y107.791 E108.3284
G1 X120.297 Y108.459 E108.54072
G1 X120.827 Y109.396 E108.79908
G1 X121.096 Y110.177 E108.99733
G1 X121.258 Y111.031 E109.20594
G1 X121.223 Y112.461 E109.54924
G1 X120.974 Y113.293 E109.75768
G1 X120.211 Y114.721 E110.14625
G1 X117.463 Y117.388 E111.06531
G1 X116.085 Y118.795 E111.53796
G1 X114.991 Y119.934 E111.91699
G1 X114.223 Y120.494 E112.14511
G1 X113.46 Y120.899 E112.35243
G1 X112.666 Y121.118 E112.5501
G1 X111.531 Y121.275 E112.8251
G1 X110.663 Y121.224 E113.03378
G1 X109.155 Y120.718 E113.41553
G1 X108.298 Y120.185 E113.65774
G1 X105.638 Y117.473 E114.56944
G1 X102.95 Y114.875 E115.46664
G1 X102.129 Y113.632 E115.82416
G1 X101.746 Y112.133 E116.19547
G1 X101.719 Y111.447 E116.36024
G1 X101.931 Y109.957 E116.72144
G1 X102.344 Y109.071 E116.95605
G1 X102.923 Y108.187 E117.20967
G1 X103.529 Y107.56 E117.41894
G0 F7200 X103.943 Y107.994
G1 F2400 X105.307 Y106.691 E117.87167
G1 X107.462 Y104.505 E118.60838
G1 X108.247 Y103.687 E118.88047
G1 X108.864 Y103.169 E119.07382
G1 X109.43 Y102.824 E119.23291
G1 X110.219 Y102.513 E119.43645
G1 X110.968 Y102.358 E119.62002
G1 X112.091 Y102.343 E119.88956
G1 X112.836 Y102.527 E120.07373
G1 X113.571 Y102.825 E120.26408
G1 X114.157 Y103.183 E120.42889
G1 X114.757 Y103.689 E120.61726
G1 X116.513 Y105.514 E121.22509
G1 X118.445 Y107.418 E121.8761
G1 X119.264 Y108.185 E122.14539
G1 X119.807 Y108.81 E122.3441
G1 X120.276 Y109.64 E122.5729
G1 X120.506 Y110.289 E122.73815
G1 X120.656 Y111.082 E122.93185
G1 X120.625 Y112.366 E123.2401
G1 X120.416 Y113.064 E123.41497
G1 X119.727 Y114.354 E123.76596
G1 X117.045 Y116.957 E124.66295
G1 X115.656 Y118.375 E125.13934
G1 X114.592 Y119.483 E125.50802
G1 X113.942 Y119.964 E125.70209
G1 X113.237 Y120.338 E125.89362
G1 X112.583 Y120.524 E126.05681
G1 X111.513 Y120.673 E126.31608
G1 X110.779 Y120.63 E126.49255
G1 X109.41 Y120.171 E126.83908
G1 X108.676 Y119.714 E127.04659
G1 X106.066 Y117.053 E127.94115
G1 X103.417 Y114.492 E128.82545
G1 X102.684 Y113.383 E129.14449
G1 X102.342 Y112.043 E129.4764
G1 X102.313 Y111.531 E129.59948
G1 X102.512 Y110.131 E129.93885
G1 X102.888 Y109.325 E130.15231
G1 X103.395 Y108.561 E130.37237
G1 X103.943 Y107.994 E130.56162
G10
;MESH:Accroche_fixationV2.STL
G0 F7200 X105.044 Y112.244
G0 X105.619 Y113.051
G0 X110.016 Y117.442
G0 X110.75 Y117.953
G0 X111.5 Y116.943
;TYPE:WALL-OUTER
G11
G1 F2400 X111.873 Y116.867 E130.66211
G1 X112.117 Y116.683 E130.74279
G1 X112.356 Y116.144 E130.89845
G1 X112.363 Y112.561 E131.84436
G1 X112.559 Y112.365 E131.91754
G1 X116.137 Y112.364 E132.86213
G1 X116.438 Y112.284 E132.94436
G1 X116.749 Y112.051 E133.04695
G1 X116.943 Y111.652 E133.16407
G1 X116.836 Y111.064 E133.32185
G1 X116.667 Y110.86 E133.39179
G1 X116.15 Y110.64 E133.54012
G1 X112.559 Y110.631 E134.48815
G1 X112.365 Y110.437 E134.56058
G1 X112.364 Y106.859 E135.50517
G1 X112.129 Y106.317 E135.66113
G1 X111.852 Y106.123 E135.75041
G1 X111.296 Y106.071 E135.89783
G1 X111.029 Y106.184 E135.97437
G1 X110.746 Y106.488 E136.08402
G1 X110.632 Y106.774 E136.1653
G1 X110.631 Y110.437 E137.13234
G1 X110.436 Y110.632 E137.20514
G1 X106.86 Y110.632 E138.1492
G1 X106.562 Y110.711 E138.23059
G1 X106.231 Y110.961 E138.3401
G1 X106.042 Y111.521 E138.49613
G1 X106.094 Y111.79 E138.56847
G1 X106.347 Y112.144 E138.68334
G1 X106.849 Y112.356 E138.8272
G1 X110.436 Y112.364 E139.77417
G1 X110.633 Y112.561 E139.84772
G1 X110.632 Y116.114 E140.78571
G1 X110.871 Y116.671 E140.94572
G1 X111.198 Y116.902 E141.05142
G1 X111.449 Y116.953 E141.11904
G1 X111.5 Y116.943 E141.13276
G0 F7200 X111.793 Y116.884
G0 X111.449 Y116.36
;TYPE:WALL-INNER
G1 F2573.5 X111.5 Y116.347 E141.14402
G1 X111.647 Y116.31 E141.17645
G1 F2578.5 X111.775 Y116.02 E141.24414
G1 F2568.5 X111.781 Y112.664 E141.9634
G1 F2481.6 X111.86 Y112.261 E142.05423
G1 F2417.7 X112.262 Y111.861 E142.18266
G1 F2481.6 X112.586 Y111.782 E142.25642
G1 F2558.6 X116.062 Y111.783 E143.00404
G1 F2573.5 X116.288 Y111.671 E143.058
G1 X116.368 Y111.501 E143.0982
G1 X116.31 Y111.339 E143.13501
G1 X116.031 Y111.221 E143.19982
G1 F2558.6 X112.586 Y111.214 E143.94077
G1 F2481.6 X112.262 Y111.135 E144.01452
G1 F2426.7 X111.861 Y110.734 E144.14253
G1 F2481.6 X111.782 Y110.41 E144.21628
G1 F2548.7 X111.781 Y106.828 E144.98942
G1 F2558.6 X111.644 Y106.688 E145.03155
G1 F2563.5 X111.388 Y106.665 E145.08674
G1 X111.214 Y106.886 E145.14713
G1 F2548.7 X111.214 Y110.41 E145.90775
G1 F2481.6 X111.135 Y110.734 E145.9815
G1 F2417.7 X110.735 Y111.136 E146.10994
G1 F2481.6 X110.335 Y111.215 E146.20011
G1 F2568.5 X106.935 Y111.213 E146.9288
G1 F2578.5 X106.67 Y111.358 E146.99331
G1 X106.64 Y111.556 E147.03608
G1 X106.967 Y111.775 E147.12013
G1 F2568.5 X110.335 Y111.781 E147.84196
G1 F2481.6 X110.735 Y111.86 E147.93213
G1 F2408.8 X111.136 Y112.261 E148.061
G1 F2481.6 X111.215 Y112.664 E148.15182
G1 F2568.5 X111.213 Y115.995 E148.86572
G1 F2578.5 X111.449 Y116.36 E148.95855
G0 F7200 X111.497 Y111.935
;TYPE:SKIN
G1 F2225.2 X111.943 Y111.495 E149.10058
G1 X111.498 Y111.046 E149.2439
G1 X111.057 Y111.495 E149.38658
G1 X111.497 Y111.935 E149.52765
G10
;MESH:NONMESH
G0 F600 X111.497 Y111.935 Z0.55
G0 F7200 X109.526 Y113.473
G0 X106.623 Y113.478
G0 X105.619 Y113.051
G0 X105.101 Y112.325
G0 X103.943 Y107.994
;TIME_ELAPSED:20.501880
;LAYER:1
;note -- min layer time used
M106 S255
;TYPE:SKIRT
G11
G1 F1799 X105.307 Y106.691 E149.69742
G1 X107.462 Y104.505 E149.97369
G1 X108.247 Y103.687 E150.07572
G1 X108.864 Y103.169 E150.14823
G1 X109.43 Y102.824 E150.20788
G1 X110.219 Y102.513 E150.28421
G1 X110.968 Y102.358 E150.35305
G1 X112.091 Y102.343 E150.45413
G1 X112.836 Y102.527 E150.52319
G1 X113.571 Y102.825 E150.59457
G1 X114.157 Y103.183 E150.65638
G1 X114.757 Y103.689 E150.72702
G1 X116.513 Y105.514 E150.95495
G1 X118.445 Y107.418 E151.19908
G1 X119.264 Y108.185 E151.30007
G1 X119.807 Y108.81 E151.37458
G1 X120.276 Y109.64 E151.46038
G1 X120.506 Y110.289 E151.52235
G1 X120.656 Y111.082 E151.59499
G1 X120.625 Y112.366 E151.71058
G1 X120.416 Y113.064 E151.77616
G1 X119.727 Y114.354 E151.90778
G1 X117.045 Y116.957 E152.24415
G1 X115.656 Y118.375 E152.4228
G1 X114.592 Y119.483 E152.56105
G1 X113.942 Y119.964 E152.63383
G1 X113.237 Y120.338 E152.70565
G1 X112.583 Y120.524 E152.76685
G1 X111.513 Y120.673 E152.86407
G1 X110.779 Y120.63 E152.93025
G1 X109.41 Y120.171 E153.0602
G1 X108.676 Y119.714 E153.13802
G1 X106.066 Y117.053 E153.47348
G1 X103.417 Y114.492 E153.80509
G1 X102.684 Y113.383 E153.92473
G1 X102.342 Y112.043 E154.04919
G1 X102.313 Y111.531 E154.09535
G1 X102.512 Y110.131 E154.22261
G1 X102.888 Y109.325 E154.30266
G1 X103.395 Y108.561 E154.38518
G1 X103.943 Y107.994 E154.45615
G10
;MESH:Accroche_fixationV2.STL
G0 F7200 X105.519 Y109.946
G0 X111.5 Y117.07
;TYPE:WALL-OUTER
G11
G1 F1802.3 X111.871 Y117.008 E154.48995
G1 F1799 X112.328 Y116.619 E154.54396
G1 X112.476 Y116.182 E154.58548
G1 X112.483 Y112.681 E154.90057
G1 X112.679 Y112.485 E154.92552
G1 X116.143 Y112.479 E155.23728
G1 X116.489 Y112.395 E155.26933
G1 X116.853 Y112.122 E155.31028
G1 X116.992 Y111.892 E155.33446
G1 X117.07 Y111.372 E155.38179
G1 X116.808 Y110.823 E155.43653
G1 X116.18 Y110.521 E155.49925
G1 X112.679 Y110.511 E155.81434
G1 X112.485 Y110.317 E155.83903
G1 X112.48 Y106.849 E156.15115
G1 X112.398 Y106.52 E156.18167
G1 X111.977 Y106.047 E156.23866
G1 X111.693 Y105.941 E156.26594
G1 X111.156 Y105.985 E156.31443
G1 X110.825 Y106.188 E156.34938
G1 X110.512 Y106.781 E156.40973
G1 X110.511 Y110.317 E156.72797
