;FLAVOR:UltiGCode
;TIME:1176
;MATERIAL:2249
;MATERIAL2:0
;NOZZLE_DIAMETER:0.6
;MINX:95.812
;MINY:88.72
;MINZ:0.4
;MAXX:127.188
;MAXY:108.68
;MAXZ:29.95
;TARGET_MACHINE.NAME:Ultimaker 2+
;Generated with Cura_SteamEngine 5.10.0
G0 F3000 Y50 ;avoid prime blob
M207 S10.0 F1800 ; Rétraction à 10 mm, 30 mm/s
M140 S58 ; Régle la température du plateau à 57°C
M42 P8 S255 ; Allume les LED à pleine 100%
M82 ;absolute extrusion mode
G92 E0
G92 E0
G10
;LAYER_COUNT:198
;LAYER:0
M107
G0 F7200 X96.903 Y91.045 Z0.4
;TYPE:SKIRT
G11
G1 F2400 X98.167 Y89.785 E0.42834
G1 X99.739 Y88.984 E0.85177
G1 X101.326 Y88.721 E1.23785
G1 X122.262 Y88.72 E6.26249
G1 X124.121 Y89.346 E6.73326
G1 X125.555 Y90.41 E7.16181
G1 X126.571 Y91.822 E7.5793
G1 X126.979 Y92.99 E7.87623
G1 X127.188 Y94.305 E8.19579
G1 X127.167 Y96.656 E8.76006
G1 X126.537 Y98.579 E9.24571
G1 X124.708 Y101.286 E10.02979
G1 X123.269 Y103.552 E10.67402
G1 X121.511 Y106.501 E11.498
G1 X120.067 Y107.8 E11.96415
G1 X118.458 Y108.5 E12.38527
G1 X117.239 Y108.665 E12.6805
G1 X114.637 Y108.68 E13.30499
G1 X112.721 Y108.653 E13.76487
G1 X110.045 Y108.653 E14.40711
G1 X108.81 Y108.675 E14.70356
G1 X105.235 Y108.68 E15.56156
G1 X103.37 Y108.052 E16.03386
G1 X101.986 Y107.026 E16.44734
G1 X101.223 Y106.06 E16.74277
G1 X100.45 Y104.757 E17.10638
G1 X99.082 Y102.53 E17.73365
G1 X97.46 Y100.051 E18.44464
G1 X96.434 Y98.532 E18.88457
G1 X95.996 Y97.256 E19.20835
G1 X95.812 Y95.968 E19.52061
G1 X95.83 Y93.918 E20.01263
G1 X96.114 Y92.578 E20.34137
G1 X96.903 Y91.045 E20.75516
G0 F7200 X97.392 Y91.405
G1 F2400 X98.524 Y90.277 E21.1387
G1 X99.929 Y89.561 E21.51716
G1 X101.376 Y89.321 E21.86919
G1 X122.163 Y89.32 E26.85807
G1 X123.841 Y89.885 E27.283
G1 X125.123 Y90.836 E27.66609
G1 X126.032 Y92.099 E28.03956
G1 X126.394 Y93.137 E28.30339
G1 X126.588 Y94.353 E28.59892
G1 X126.568 Y96.558 E29.12815
G1 X125.993 Y98.312 E29.57115
G1 X124.211 Y100.95 E30.33519
G1 X122.763 Y103.23 E30.98341
G1 X121.043 Y106.115 E31.78953
G1 X119.738 Y107.289 E32.21081
G1 X118.297 Y107.916 E32.58797
G1 X117.159 Y108.07 E32.86358
G1 X114.645 Y108.08 E33.46695
G1 X112.729 Y108.053 E33.92683
G1 X110.034 Y108.053 E34.57363
G1 X108.803 Y108.076 E34.86913
G1 X105.334 Y108.08 E35.70169
G1 X103.65 Y107.513 E36.12814
G1 X102.407 Y106.592 E36.49943
G1 X101.739 Y105.754 E36.75663
G1 X100.966 Y104.451 E37.12024
G1 X99.584 Y102.201 E37.75396
G1 X97.962 Y99.722 E38.46496
G1 X96.975 Y98.261 E38.88812
G1 X96.582 Y97.117 E39.17843
G1 X96.412 Y95.928 E39.46669
G1 X96.429 Y93.983 E39.9335
G1 X96.684 Y92.78 E40.22864
G1 X97.392 Y91.405 E40.59982
G0 F7200 X97.882 Y91.763
G1 F2400 X98.879 Y90.77 E40.93753
G1 X100.119 Y90.138 E41.27156
G1 X101.426 Y89.921 E41.58953
G1 X122.063 Y89.92 E46.54241
G1 X123.562 Y90.425 E46.92204
G1 X124.691 Y91.262 E47.25934
G1 X125.494 Y92.379 E47.5895
G1 X125.802 Y93.232 E47.80716
G1 X125.988 Y94.395 E48.08983
G1 X125.969 Y96.46 E48.58545
G1 X125.449 Y98.045 E48.9858
G1 X123.714 Y100.614 E49.7298
G1 X122.257 Y102.908 E50.38202
G1 X120.575 Y105.729 E51.17027
G1 X119.409 Y106.778 E51.54669
G1 X118.136 Y107.332 E51.87989
G1 X117.079 Y107.475 E52.13588
G1 X114.653 Y107.48 E52.71812
G1 X112.737 Y107.453 E53.17801
G1 X110.022 Y107.453 E53.82961
G1 X108.795 Y107.477 E54.12414
G1 X105.433 Y107.48 E54.93102
G1 X103.93 Y106.974 E55.31164
G1 X102.828 Y106.158 E55.64073
G1 X102.255 Y105.448 E55.8597
G1 X101.482 Y104.145 E56.22331
G1 X100.086 Y101.872 E56.8635
G1 X98.464 Y99.393 E57.5745
G1 X97.516 Y97.99 E57.98088
G1 X97.168 Y96.978 E58.23772
G1 X97.012 Y95.888 E58.50198
G1 X97.028 Y94.048 E58.9436
G1 X97.254 Y92.982 E59.20513
G1 X97.882 Y91.763 E59.53423
G0 F7200 X98.372 Y92.121
G1 F2400 X99.234 Y91.263 E59.82612
G1 X100.309 Y90.715 E60.11571
G1 X101.476 Y90.521 E60.39963
G1 X121.963 Y90.52 E65.31651
G1 X123.283 Y90.965 E65.65083
G1 X124.259 Y91.688 E65.94234
G1 X124.958 Y92.661 E66.22987
G1 X125.21 Y93.327 E66.40077
G1 X125.388 Y94.437 E66.67058
G1 X125.37 Y96.362 E67.1326
G1 X124.905 Y97.778 E67.49029
G1 X123.217 Y100.278 E68.21426
G1 X121.751 Y102.586 E68.87047
G1 X120.107 Y105.343 E69.64086
G1 X119.08 Y106.267 E69.97242
G1 X117.975 Y106.748 E70.26165
G1 X116.999 Y106.88 E70.49802
G1 X114.661 Y106.88 E71.05914
G1 X112.745 Y106.853 E71.51903
G1 X110.01 Y106.853 E72.17543
G1 X108.788 Y106.878 E72.46877
G1 X105.532 Y106.88 E73.25021
G1 X104.21 Y106.435 E73.58498
G1 X103.248 Y105.723 E73.87222
G1 X102.771 Y105.142 E74.05264
G1 X101.998 Y103.839 E74.41625
G1 X100.588 Y101.543 E75.0629
G1 X98.966 Y99.064 E75.77389
G1 X98.058 Y97.72 E76.16317
G1 X97.762 Y96.893 E76.37398
G1 X97.612 Y95.848 E76.62735
G1 X97.628 Y94.053 E77.05817
G1 X97.824 Y93.185 E77.27173
G1 X98.372 Y92.121 E77.55897
G0 F7200 X98.862 Y92.479
G1 F2400 X99.588 Y91.757 E77.8047
G1 X100.5 Y91.292 E78.05039
G1 X101.527 Y91.121 E78.30027
G1 X121.863 Y91.12 E83.18091
G1 X123.004 Y91.505 E83.46992
G1 X123.827 Y92.114 E83.71563
G1 X124.424 Y92.946 E83.9614
G1 X124.618 Y93.422 E84.08476
G1 X124.788 Y94.479 E84.3417
G1 X124.771 Y96.264 E84.77012
G1 X124.361 Y97.511 E85.08516
G1 X122.72 Y99.942 E85.78909
G1 X121.245 Y102.264 E86.4493
G1 X119.639 Y104.957 E87.20183
G1 X118.751 Y105.756 E87.48852
G1 X117.813 Y106.164 E87.73401
G1 X116.999 Y106.28 E87.93134
G1 X114.669 Y106.28 E88.49054
G1 X112.753 Y106.253 E88.95043
G1 X109.997 Y106.253 E89.61187
G1 X108.78 Y106.279 E89.90402
G1 X105.632 Y106.28 E90.65954
G1 X104.489 Y105.895 E90.949
G1 X103.666 Y105.286 E91.19472
G1 X103.287 Y104.836 E91.33592
G1 X102.514 Y103.533 E91.69953
G1 X101.09 Y101.214 E92.35264
G1 X99.468 Y98.735 E93.06364
G1 X98.597 Y97.446 E93.437
G1 X98.356 Y96.807 E93.60091
G1 X98.212 Y95.807 E93.84338
G1 X98.228 Y94.058 E94.26316
G1 X98.393 Y93.389 E94.42853
G1 X98.862 Y92.479 E94.67423
G10
;MESH:Support_cable_rpi4.STL
G0 F7200 X100.826 Y96.579
G0 X105.324 Y103.669
G0 X109.674 Y103.669
G0 X113.314 Y102.56
G0 X114.432 Y102.56
;TYPE:WALL-OUTER
G11
G1 F2400 X116.568 Y102.56 E95.23814
G1 X116.573 Y97.772 E96.50217
G1 X116.728 Y97.031 E96.70203
G1 X117.304 Y96.149 E96.98013
G1 X117.988 Y95.694 E97.19701
G1 F2356.7 X118.691 Y95.463 E97.39562
G1 F2331.4 X121.057 Y95.461 E98.0369
G1 F2339.8 X121.057 Y94.847 E98.20278
G1 F2331.4 X118.638 Y94.849 E98.85843
G1 F2356.7 X117.856 Y94.84 E99.06833
G1 F2382.5 X109.897 Y94.844 E101.18351
G1 F2356.7 X101.938 Y94.847 E103.31971
G1 F2339.8 X101.939 Y95.461 E103.48559
G1 F2356.7 X104.497 Y95.461 E104.17215
G1 F2382.5 X105.57 Y96.057 E104.49835
G1 F2400 X106.145 Y96.754 E104.73689
G1 X106.424 Y97.75 E105.00996
G1 X106.432 Y102.56 E106.2798
G1 X108.564 Y102.56 E106.84265
G1 X108.564 Y101.412 E107.14572
G1 X107.659 Y101.292 E107.38673
G1 X107.568 Y101.124 E107.43717
G1 X107.57 Y96.75 E108.59191
G1 X107.812 Y96.516 E108.68078
G1 X115.132 Y96.512 E110.61326
G1 X115.36 Y96.616 E110.67942
G1 X115.426 Y96.749 E110.71861
G1 X115.428 Y101.14 E111.87784
G1 X115.184 Y101.384 E111.96894
G1 X114.432 Y101.417 E112.16766
G1 X114.432 Y102.56 E112.46941
G0 F7200 X114.732 Y102.56
G0 X115.015 Y101.977
;TYPE:WALL-INNER
G1 F2510 X115.286 Y101.968 E112.52876
G1 F1956.9 X115.84 Y101.832 E112.68505
G1 F2016.4 X115.994 Y101.239 E112.84848
G1 F2682.5 X116 Y97.832 E113.55019
G1 F2671.8 X116.009 Y97.658 E113.58621
G0 F7200 X116.11 Y96.723
G1 F1803.9 X116.697 Y95.824 E113.90241
G1 X116.999 Y95.527 E114.02715
G1 X116.175 Y95.527 E114.26981
G1 F2174.6 X115.132 Y95.408 E114.5315
G1 F2693.3 X107.667 Y95.412 E116.06332
G1 F2174.6 X106.84 Y95.523 E116.27132
G1 F1825.2 X105.975 Y95.523 E116.52344
G1 X106.735 Y96.417 E116.86543
G1 X106.87 Y96.813 E116.98737
G1 F2124.2 X106.978 Y97.557 E117.17878
G1 X106.881 Y96.812 E117.37006
G1 F1825.2 X106.967 Y96.409 E117.49016
G1 X107.127 Y96.161 E117.57618
G1 F2182 X107.735 Y95.944 E117.73662
G1 F2704.2 X115.132 Y95.944 E119.24886
G1 F2174.6 X115.881 Y96.168 E119.44374
G1 F1803.9 X116.11 Y96.723 E119.62055
G10
G0 F7200 X114.326 Y97.621
G0 X108.674 Y97.621
G0 X106.978 Y97.557
G11
G1 F2608.9 X106.994 Y97.795 E119.67095
G1 F2671.8 X107.003 Y101.223 E120.37959
G1 F2003.6 X107.162 Y101.828 E120.54741
G1 F1953.9 X107.974 Y101.97 E120.77357
G10
;MESH:NONMESH
G0 F600 X107.974 Y101.97 Z0.55
G0 F7200 X108.674 Y100.312
G0 X109.674 Y100.355
G0 X109.674 Y103.669
G0 X105.324 Y103.669
G0 X100.826 Y96.579
G0 X98.862 Y92.479
;TIME_ELAPSED:17.981549
;LAYER:1
;note -- min layer time used
M106 S255
;TYPE:SKIRT
G11
G1 F2400 X99.588 Y91.757 E120.86572
G1 X100.5 Y91.292 E120.95786
G1 X101.527 Y91.121 E121.05156
G1 X121.863 Y91.12 E122.8818
G1 X123.004 Y91.505 E122.99018
G1 X123.827 Y92.114 E123.08232
G1 X124.424 Y92.946 E123.17448
G1 X124.618 Y93.422 E123.22075
G1 X124.788 Y94.479 E123.3171
G1 X124.771 Y96.264 E123.47776
G1 X124.361 Y97.511 E123.5959
G1 X122.72 Y99.942 E123.85987
G1 X121.245 Y102.264 E124.10745
G1 X119.639 Y104.957 E124.38964
G1 X118.751 Y105.756 E124.49715
G1 X117.813 Y106.164 E124.58921
G1 X116.999 Y106.28 E124.66321
G1 X114.669 Y106.28 E124.87291
G1 X112.753 Y106.253 E125.04537
G1 X109.997 Y106.253 E125.29341
G1 X108.78 Y106.279 E125.40297
G1 X105.632 Y106.28 E125.68629
G1 X104.489 Y105.895 E125.79483
G1 X103.666 Y105.286 E125.88698
G1 X103.287 Y104.836 E125.93993
G1 X102.514 Y103.533 E126.07628
G1 X101.09 Y101.214 E126.3212
G1 X99.468 Y98.735 E126.58782
G1 X98.597 Y97.446 E126.72784
G1 X98.356 Y96.807 E126.7893
G1 X98.212 Y95.807 E126.88023
G1 X98.228 Y94.058 E127.03764
G1 X98.393 Y93.389 E127.09966
G1 X98.862 Y92.479 E127.1918
G10
;MESH:Support_cable_rpi4.STL
G0 F7200 X100.694 Y95.044
G0 X114.312 Y102.68
;TYPE:WALL-OUTER
G11
G1 F2659.7 X116.688 Y102.68 E127.40564
G1 X116.694 Y97.768 E127.84772
G1 X116.846 Y97.056 E127.91324
G1 X117.379 Y96.263 E127.99923
G1 X117.983 Y95.827 E128.06628
G1 F2354 X118.68 Y95.523 E128.1427
G1 F2115.8 X121.117 Y95.521 E128.41211
G1 F2125.6 X121.117 Y94.787 E128.49292
G1 F2115.8 X118.617 Y94.79 E128.7693
G1 F2354 X117.895 Y94.72 E128.8422
G1 F2659.7 X105.888 Y94.72 E129.92283
G1 F2547.1 X104.776 Y94.744 E130.02694
G1 F2274.4 X104.396 Y94.787 E130.06657
G1 F2125.6 X101.879 Y94.787 E130.3437
G1 X101.879 Y95.521 E130.42451
G1 F2241.7 X104.412 Y95.521 E130.69047
G1 F2434.6 X105.572 Y96.199 E130.82148
G1 F2583.7 X106.043 Y96.822 E130.89364
G1 F2659.7 X106.308 Y97.79 E130.98397
G1 X106.312 Y102.68 E131.42407
G1 X108.684 Y102.68 E131.63755
G1 X108.684 Y101.308 E131.76103
G1 X107.984 Y101.308 E131.82403
G1 X107.771 Y101.221 E131.84473
G1 X107.688 Y101.06 E131.86104
G1 X107.684 Y96.885 E132.23679
G1 X107.932 Y96.636 E132.26842
G1 X115.012 Y96.632 E132.90562
G1 X115.237 Y96.732 E132.92778
G1 X115.313 Y96.932 E132.94703
G1 X115.308 Y101.06 E133.31855
G1 X115.064 Y101.304 E133.34961
G1 X114.312 Y101.308 E133.41729
G1 X114.312 Y102.68 E133.54077
G0 F7200 X114.612 Y102.68
G0 X115.183 Y101.987
;TYPE:WALL-INNER
G1 F2670 X116.11 Y102.102 E133.63493
G1 F2665.6 X115.993 Y101.18 E133.72875
G1 X115.635 Y101.628 E133.78664
G1 F2670 X115.183 Y101.987 E133.84482
G0 F7200 X115.993 Y101.18
G1 F2248.6 X116 Y101.008 E133.86504
G1 F2271.6 X116 Y97.828 E134.23519
G1 F2031 X116.081 Y96.932 E134.35071
G1 F1977.8 X116.201 Y96.763 E134.37795
G1 F2518.9 X116.647 Y96.272 E134.44839
G1 F3026.8 X117.122 Y95.687 E134.51621
G1 X117.669 Y95.32 E134.57549
G1 X116.143 Y95.32 E134.71283
G1 F2878.3 X115.012 Y95.348 E134.81941
G1 F2719.5 X107.766 Y95.353 E135.53785
G1 F2853.2 X106.873 Y95.321 E135.62269
G1 F3026.8 X105.227 Y95.32 E135.77083
G1 X106.083 Y95.88 E135.86289
G1 X106.577 Y96.547 E135.9376
G1 X106.713 Y96.98 E135.97844
G1 F2530.9 X106.979 Y97.574 E136.04727
G1 X107.108 Y96.722 E136.1384
G1 F3026.8 X107.317 Y96.326 E136.17869
G1 F2868.2 X107.838 Y96.004 E136.23657
G1 F2733.3 X115.012 Y96.004 E136.94465
G1 F2878.3 X115.687 Y96.334 E137.01542
G1 F2518.9 X116.003 Y96.74 E137.07006
G1 F1977.8 X116.081 Y96.932 E137.09729
G0 F7200 X116.254 Y96.254
G0 X107.347 Y96.294
G0 X106.979 Y97.574
G1 F2216.4 X106.996 Y97.831 E137.12793
G1 F2274.9 X106.997 Y101.008 E137.49726
G1 F2251.9 X107.004 Y101.18 E137.51745
G1 F2670 X106.889 Y102.103 E137.61121
G1 F2705.8 X107.984 Y101.994 E137.72081
G1 X107.363 Y101.629 E137.79255
G1 F2670 X107.004 Y101.18 E137.8505
G0 F7200 X106.675 Y95.932
G0 X106.847 Y95.932
;TYPE:SKIN
G1 F2177.7 X107.797 Y95.67 E137.94711
G1 F3026.3 X107.981 Y95.675 E137.96049
G0 F7200 X107.981 Y95.672
G0 X116.253 Y95.694
G0 X116.259 Y95.936
G1 F1656 X116.095 Y95.842 E137.98409
G1 X116.096 Y96.03 E138.00756
G1 X116.259 Y95.936 E138.03104
G10
;MESH:NONMESH
G0 F600 X116.259 Y95.936 Z0.7
G0 F7200 X116.325 Y95.936
G0 X102.139 Y95.044
G0 X100.694 Y95.044
G0 X98.862 Y92.479
;TIME_ELAPSED:24.206335
;LAYER:2
;note -- min layer time used
;TYPE:SKIRT
G11
G1 F2400 X99.588 Y91.757 E138.1232
G1 X100.5 Y91.292 E138.21533
G1 X101.527 Y91.121 E138.30903
G1 X121.863 Y91.12 E140.13927
G1 X123.004 Y91.505 E140.24765
G1 X123.827 Y92.114 E140.33979
G1 X124.424 Y92.946 E140.43196
G1 X124.618 Y93.422 E140.47822
G1 X124.788 Y94.479 E140.57457
G1 X124.771 Y96.264 E140.73523
G1 X124.361 Y97.511 E140.85337
G1 X122.72 Y99.942 E141.11734
G1 X121.245 Y102.264 E141.36492
G1 X119.639 Y104.957 E141.64712
G1 X118.751 Y105.756 E141.75462
G1 X117.813 Y106.164 E141.84669
G1 X116.999 Y106.28 E141.92069
G1 X114.669 Y106.28 E142.13039
G1 X112.753 Y106.253 E142.30284
G1 X109.997 Y106.253 E142.55088
G1 X108.78 Y106.279 E142.66044
G1 X105.632 Y106.28 E142.94376
G1 X104.489 Y105.895 E143.05231
G1 X103.666 Y105.286 E143.14445
G1 X103.287 Y104.836 E143.1974
G1 X102.514 Y103.533 E143.33375
G1 X101.09 Y101.214 E143.57867
G1 X99.468 Y98.735 E143.8453
G1 X98.597 Y97.446 E143.98531
G1 X98.356 Y96.807 E144.04677
G1 X98.212 Y95.807 E144.1377
G1 X98.228 Y94.058 E144.29512
G1 X98.393 Y93.389 E144.35713
G1 X98.862 Y92.479 E144.44927
G10
;MESH:Support_cable_rpi4.STL
G0 F7200 X100.694 Y95.044
G0 X114.312 Y102.68
;TYPE:WALL-OUTER
G11
G1 F2748.9 X116.688 Y102.68 E144.66311
G1 X116.694 Y97.768 E145.10519
G1 X116.846 Y97.056 E145.17071
G1 X117.379 Y96.263 E145.25671
G1 X117.983 Y95.827 E145.32375
G1 F2433 X118.68 Y95.523 E145.40017
G1 F2186.8 X121.117 Y95.521 E145.66958
G1 F2196.9 X121.117 Y94.787 E145.75039
G1 F2186.8 X118.617 Y94.79 E146.02677
G1 F2433 X117.895 Y94.72 E146.09967
G1 F2748.9 X105.888 Y94.72 E147.1803
G1 F2632.6 X104.776 Y94.744 E147.28441
G1 F2350.7 X104.396 Y94.787 E147.32405
G1 F2196.9 X101.879 Y94.787 E147.60117
G1 X101.879 Y95.521 E147.68198
G1 F2316.9 X104.412 Y95.521 E147.94795
G1 F2516.3 X105.572 Y96.199 E148.07895
G1 F2670.3 X106.043 Y96.822 E148.15111
G1 F2748.9 X106.308 Y97.79 E148.24144
G1 X106.312 Y102.68 E148.68154
G1 X108.684 Y102.68 E148.89502
G1 X108.684 Y101.308 E149.0185
G1 X107.984 Y101.308 E149.0815
G1 X107.771 Y101.221 E149.10221
G1 X107.688 Y101.06 E149.11851
G1 X107.684 Y96.885 E149.49426
G1 X107.932 Y96.636 E149.52589
G1 X115.012 Y96.632 E150.16309
G1 X115.237 Y96.732 E150.18525
G1 X115.313 Y96.932 E150.2045
G1 X115.308 Y101.06 E150.57602
G1 X115.064 Y101.304 E150.60708
G1 X114.312 Y101.308 E150.67476
G1 X114.312 Y102.68 E150.79824
G0 F7200 X114.612 Y102.68
G0 X115.183 Y101.987
;TYPE:WALL-INNER
G1 F2860 X116.11 Y102.102 E150.8924
G1 F2855.3 X115.993 Y101.18 E150.98622
G1 X115.635 Y101.628 E151.04411
G1 F2860 X115.183 Y101.987 E151.1023
G0 F7200 X115.993 Y101.18
G1 F2408.6 X116 Y101.008 E151.12251
G1 F2433.3 X116 Y97.828 E151.49267
G1 F2175.5 X116.081 Y96.932 E151.60818
G1 F2118.5 X116.201 Y96.763 E151.63542
G1 F2698.1 X116.647 Y96.272 E151.70586
G1 F3242.1 X117.122 Y95.687 E151.77368
G1 X117.669 Y95.32 E151.83297
G1 X116.143 Y95.32 E151.97031
G1 F3083.1 X115.012 Y95.348 E152.07688
G1 F2913 X107.766 Y95.353 E152.79532
G1 F3056.2 X106.873 Y95.321 E152.88017
G1 F3242.1 X105.227 Y95.32 E153.02831
G1 X106.083 Y95.88 E153.12037
G1 X106.577 Y96.547 E153.19507
G1 X106.713 Y96.98 E153.23592
G1 F2711 X106.979 Y97.574 E153.30474
G1 X107.108 Y96.722 E153.39587
G1 F3242.1 X107.317 Y96.326 E153.43617
G1 F3072.3 X107.838 Y96.004 E153.49405
G1 F2927.7 X115.012 Y96.004 E154.20212
G1 F3083.1 X115.687 Y96.334 E154.2729
G1 F2698.1 X116.003 Y96.74 E154.32753
G1 F2118.5 X116.081 Y96.932 E154.35477
G0 F7200 X116.254 Y96.254
G0 X107.347 Y96.294
G0 X106.979 Y97.574
G1 F2374.1 X106.996 Y97.831 E154.3854
