;FLAVOR:UltiGCode
;TIME:321
;MATERIAL:1065
;MATERIAL2:0
;NOZZLE_DIAMETER:0.6
;MINX:94.57
;MINY:94.56
;MINZ:0.4
;MAXX:128.43
;MAXY:128.436
;MAXZ:3.5
;TARGET_MACHINE.NAME:Ultimaker 2+
;Generated with Cura_SteamEngine 5.10.0
G0 F3000 Y50 ;avoid prime blob
M104 S230 ; Régler la température de l'extrudeur à 230°C
M140 S58 ; Régle la température du plateau à 58°C
M221 S100 ; Augmente le material flow de +x%
M207 S10 F3000 ; Rétraction à 10 mm, à une vitesse de rétration de 25 mm/s
M82 ;absolute extrusion mode
G92 E0
G92 E0
G10
;LAYER_COUNT:15
;LAYER:0
M107
G1 F600 Z1.4
G0 F7200 X99.5 Y99.559 Z1.4
;TYPE:SKIRT
G1 F600 Z0.4
G11
G1 F2400 X100.34 Y98.767 E0.27708
G1 X101.679 Y97.709 E0.68665
G1 X102.82 Y96.97 E1.01291
G1 X103.906 Y96.366 E1.31115
G1 X105.374 Y95.7 E1.69803
G1 X106.717 Y95.264 E2.03691
G1 X107.564 Y95.027 E2.248
G1 X109.582 Y94.676 E2.73959
G1 X110.764 Y94.584 E3.02413
G1 X111.791 Y94.56 E3.27068
G1 X112.748 Y94.615 E3.50073
G1 X114.319 Y94.796 E3.88027
G1 X115.413 Y95.031 E4.14882
G1 X116.461 Y95.315 E4.40941
G1 X118.265 Y95.977 E4.8706
G1 X119.591 Y96.625 E5.22481
G1 X120.793 Y97.344 E5.56096
G1 X121.726 Y97.998 E5.83441
G1 X122.428 Y98.569 E6.05159
G1 X123.299 Y99.361 E6.33413
G1 X124.321 Y100.445 E6.69168
G1 X125.263 Y101.642 E7.05725
G1 X126.024 Y102.812 E7.39222
G1 X126.487 Y103.639 E7.61969
G1 X126.841 Y104.35 E7.81031
G1 X127.29 Y105.352 E8.07383
G1 X127.637 Y106.396 E8.33787
G1 X128.002 Y107.67 E8.65593
G1 X128.319 Y109.526 E9.10782
G1 X128.415 Y110.785 E9.41086
G1 X128.43 Y111.945 E9.68928
G1 X128.381 Y112.781 E9.89027
G1 X128.21 Y114.275 E10.25117
G1 X127.934 Y115.552 E10.56473
G1 X127.623 Y116.653 E10.83931
G1 X127.223 Y117.75 E11.11954
G1 X126.885 Y118.554 E11.32886
G1 X126.5 Y119.338 E11.53848
G1 X126.003 Y120.242 E11.78607
G1 X125.083 Y121.62 E12.18372
G1 X124.393 Y122.469 E12.44629
G1 X123.496 Y123.443 E12.76408
G1 X122.259 Y124.594 E13.1696
G1 X120.872 Y125.601 E13.58096
G1 X119.991 Y126.141 E13.82896
G1 X118.973 Y126.685 E14.10597
G1 X117.669 Y127.282 E14.45017
G1 X116.265 Y127.74 E14.80461
G1 X115.319 Y127.999 E15.04
G1 X113.45 Y128.32 E15.49513
G1 X112.23 Y128.416 E15.78884
G1 X110.988 Y128.436 E16.08696
G1 X110.241 Y128.385 E16.26665
G1 X108.656 Y128.199 E16.64966
G1 X107.212 Y127.875 E17.00484
G1 X106.375 Y127.629 E17.21422
G1 X105.223 Y127.212 E17.50825
G1 X104.431 Y126.878 E17.71454
G1 X103.063 Y126.173 E18.0839
G1 X102.079 Y125.565 E18.3615
G1 X101.195 Y124.95 E18.61996
G1 X100.339 Y124.223 E18.88949
G1 X99.433 Y123.379 E19.18666
G1 X98.672 Y122.539 E19.45869
G1 X98.065 Y121.789 E19.69026
G1 X97.493 Y120.994 E19.92531
G1 X96.964 Y120.183 E20.1577
G1 X96.387 Y119.118 E20.4484
G1 X95.707 Y117.647 E20.83734
G1 X95.259 Y116.26 E21.18715
G1 X95.001 Y115.316 E21.42202
G1 X94.679 Y113.431 E21.88097
G1 X94.581 Y112.153 E22.18859
G1 X94.57 Y111.052 E22.45285
G1 X94.615 Y110.226 E22.65138
G1 X94.756 Y108.924 E22.96569
G1 X95.06 Y107.471 E23.32196
G1 X95.261 Y106.714 E23.50993
G1 X95.828 Y105.119 E23.9162
G1 X96.46 Y103.734 E24.28157
G1 X96.866 Y102.999 E24.48309
G1 X97.534 Y101.933 E24.78502
G1 X98.132 Y101.089 E25.03327
G1 X98.731 Y100.392 E25.25383
G1 X99.5 Y99.559 E25.52592
G0 F7200 X99.912 Y99.996
G1 F2400 X100.752 Y99.204 E25.803
G1 X102.005 Y98.212 E26.18655
G1 X103.112 Y97.494 E26.50322
G1 X104.198 Y96.89 E26.80146
G1 X105.559 Y96.271 E27.1603
G1 X106.879 Y95.842 E27.49341
G1 X107.726 Y95.605 E27.7045
G1 X109.629 Y95.274 E28.16808
G1 X110.778 Y95.184 E28.44468
G1 X111.805 Y95.16 E28.69123
G1 X112.712 Y95.214 E28.90929
G1 X114.193 Y95.383 E29.26704
G1 X115.287 Y95.618 E29.53559
G1 X116.304 Y95.894 E29.7885
G1 X118.002 Y96.516 E30.2225
G1 X119.283 Y97.14 E30.56448
G1 X120.449 Y97.836 E30.89038
G1 X121.348 Y98.464 E31.15357
G1 X122.024 Y99.013 E31.36257
G1 X122.895 Y99.805 E31.64511
G1 X123.884 Y100.856 E31.99147
G1 X124.76 Y101.969 E32.3314
G1 X125.5 Y103.105 E32.65679
G1 X125.963 Y103.932 E32.88425
G1 X126.293 Y104.595 E33.06199
G1 X126.742 Y105.597 E33.32551
G1 X127.06 Y106.561 E33.56914
G1 X127.425 Y107.835 E33.8872
G1 X127.721 Y109.572 E34.31009
G1 X127.815 Y110.794 E34.60424
G1 X127.831 Y111.91 E34.8721
G1 X127.782 Y112.746 E35.07309
G1 X127.623 Y114.149 E35.41196
G1 X127.356 Y115.39 E35.71662
G1 X127.059 Y116.448 E35.98035
G1 X126.67 Y117.517 E36.25337
G1 X126.332 Y118.321 E36.46269
G1 X125.974 Y119.049 E36.65739
G1 X125.477 Y119.953 E36.90498
G1 X124.617 Y121.242 E37.27687
G1 X123.951 Y122.063 E37.53059
G1 X123.086 Y123.005 E37.83753
G1 X121.906 Y124.109 E38.22535
G1 X120.558 Y125.089 E38.62533
G1 X119.677 Y125.629 E38.87333
G1 X118.723 Y126.139 E39.13295
G1 X117.419 Y126.736 E39.47715
G1 X116.107 Y127.161 E39.80814
G1 X115.161 Y127.42 E40.04354
G1 X113.402 Y127.722 E40.47187
G1 X112.219 Y127.816 E40.75669
G1 X111.029 Y127.837 E41.04233
G1 X110.282 Y127.786 E41.22203
G1 X108.787 Y127.613 E41.58322
G1 X107.381 Y127.299 E41.92898
G1 X106.544 Y127.053 E42.13835
G1 X105.456 Y126.659 E42.41607
G1 X104.664 Y126.325 E42.62236
G1 X103.378 Y125.662 E42.9696
G1 X102.422 Y125.072 E43.23922
G1 X101.538 Y124.457 E43.49767
G1 X100.747 Y123.783 E43.74708
G1 X99.878 Y122.976 E44.0317
G1 X99.117 Y122.136 E44.30373
G1 X98.532 Y121.412 E44.52713
G1 X97.995 Y120.665 E44.74792
G1 X97.492 Y119.897 E44.96826
G1 X96.915 Y118.832 E45.25896
G1 X96.278 Y117.462 E45.62156
G1 X95.838 Y116.102 E45.96462
G1 X95.58 Y115.158 E46.19949
G1 X95.277 Y113.385 E46.63118
G1 X95.181 Y112.146 E46.92943
G1 X95.169 Y111.084 E47.18433
G1 X95.212 Y110.291 E47.37493
G1 X95.353 Y108.989 E47.68923
G1 X95.64 Y107.625 E48.02376
G1 X95.841 Y106.868 E48.21174
G1 X96.374 Y105.367 E48.59401
G1 X96.985 Y104.024 E48.94812
G1 X97.375 Y103.317 E49.14191
G1 X98.025 Y102.278 E49.43604
G1 X98.587 Y101.48 E49.67029
G1 X99.172 Y100.799 E49.88576
G1 X99.912 Y99.996 E50.14783
G0 F7200 X100.324 Y100.433
G1 F2400 X101.164 Y99.641 E50.42491
G1 X102.332 Y98.715 E50.78264
G1 X103.404 Y98.018 E51.08952
G1 X104.448 Y97.436 E51.37638
G1 X105.745 Y96.842 E51.71876
G1 X107.041 Y96.42 E52.04587
G1 X107.888 Y96.183 E52.25696
G1 X109.676 Y95.872 E52.69252
G1 X110.792 Y95.784 E52.96119
G1 X111.819 Y95.76 E53.20774
G1 X112.675 Y95.813 E53.41357
G1 X114.067 Y95.97 E53.74977
G1 X115.161 Y96.205 E54.01832
G1 X116.147 Y96.473 E54.26355
G1 X117.74 Y97.056 E54.67067
G1 X118.976 Y97.656 E55.00041
G1 X120.105 Y98.328 E55.31574
G1 X121.004 Y98.956 E55.57893
G1 X121.62 Y99.457 E55.76949
G1 X122.491 Y100.249 E56.05203
G1 X123.447 Y101.267 E56.38719
G1 X124.258 Y102.297 E56.70182
G1 X124.977 Y103.398 E57.01742
G1 X125.426 Y104.199 E57.2378
G1 X125.746 Y104.842 E57.41017
G1 X126.172 Y105.785 E57.65852
G1 X126.484 Y106.728 E57.8969
G1 X126.834 Y107.937 E58.19898
G1 X127.123 Y109.618 E58.60833
G1 X127.215 Y110.804 E58.89383
G1 X127.232 Y111.875 E59.1509
G1 X127.183 Y112.711 E59.35189
G1 X127.036 Y114.023 E59.66874
G1 X126.769 Y115.264 E59.97339
G1 X126.495 Y116.243 E60.21738
G1 X126.117 Y117.284 E60.48318
G1 X125.779 Y118.088 E60.6925
G1 X125.448 Y118.76 E60.87228
G1 X124.951 Y119.664 E61.11987
G1 X124.151 Y120.864 E61.466
G1 X123.508 Y121.658 E61.71121
G1 X122.675 Y122.568 E62.0073
G1 X121.553 Y123.624 E62.37709
G1 X120.244 Y124.577 E62.76569
G1 X119.363 Y125.117 E63.01368
G1 X118.473 Y125.593 E63.25591
G1 X117.169 Y126.19 E63.60011
G1 X115.949 Y126.582 E63.90766
G1 X115.003 Y126.841 E64.14305
G1 X113.354 Y127.124 E64.5446
G1 X112.207 Y127.216 E64.82076
G1 X111.07 Y127.238 E65.09369
G1 X110.323 Y127.187 E65.27339
G1 X108.917 Y127.027 E65.61301
G1 X107.55 Y126.723 E65.9491
G1 X106.713 Y126.477 E66.15848
G1 X105.689 Y126.106 E66.41987
G1 X104.897 Y125.772 E66.62616
G1 X103.693 Y125.151 E66.9513
G1 X102.765 Y124.579 E67.21292
G1 X101.881 Y123.964 E67.47138
G1 X101.155 Y123.343 E67.70066
G1 X100.323 Y122.573 E67.97274
G1 X99.562 Y121.733 E68.24477
G1 X99.019 Y121.062 E68.45193
G1 X98.497 Y120.336 E68.66653
G1 X97.994 Y119.568 E68.88687
G1 X97.443 Y118.547 E69.16531
G1 X96.849 Y117.277 E69.5018
G1 X96.417 Y115.944 E69.83811
G1 X96.159 Y115 E70.07297
G1 X95.875 Y113.338 E70.47764
G1 X95.781 Y112.138 E70.76652
G1 X95.768 Y111.116 E71.01182
G1 X95.809 Y110.356 E71.19448
G1 X95.95 Y109.054 E71.50879
G1 X96.22 Y107.779 E71.82158
G1 X96.421 Y107.022 E72.00955
G1 X96.92 Y105.615 E72.36784
G1 X97.511 Y104.313 E72.71101
G1 X97.884 Y103.635 E72.89672
G1 X98.516 Y102.623 E73.18308
G1 X99.078 Y101.825 E73.41733
G1 X99.613 Y101.205 E73.61387
G1 X100.324 Y100.433 E73.86575
G0 F7200 X100.736 Y100.87
G1 F2400 X101.576 Y100.078 E74.14283
G1 X102.704 Y99.186 E74.48797
G1 X103.697 Y98.542 E74.77202
G1 X104.698 Y97.982 E75.0473
G1 X105.995 Y97.388 E75.38967
G1 X107.203 Y96.998 E75.69433
G1 X108.05 Y96.761 E75.90541
G1 X109.724 Y96.47 E76.3132
G1 X110.806 Y96.384 E76.5737
G1 X111.833 Y96.36 E76.82024
G1 X112.636 Y96.412 E77.01337
G1 X113.941 Y96.557 E77.3285
G1 X115.035 Y96.792 E77.59705
G1 X115.989 Y97.052 E77.83436
G1 X117.533 Y97.619 E78.22911
G1 X118.669 Y98.172 E78.53234
G1 X119.798 Y98.844 E78.84767
G1 X120.626 Y99.422 E79.09001
G1 X121.216 Y99.901 E79.27241
G1 X122.087 Y100.693 E79.55494
G1 X122.976 Y101.639 E79.8665
G1 X123.756 Y102.626 E80.16842
G1 X124.454 Y103.692 E80.47423
G1 X124.889 Y104.467 E80.68753
G1 X125.2 Y105.091 E80.85486
G1 X125.602 Y105.974 E81.0877
G1 X125.908 Y106.897 E81.32108
G1 X126.243 Y108.04 E81.60694
G1 X126.525 Y109.665 E82.00277
G1 X126.615 Y110.815 E82.27961
G1 X126.633 Y111.84 E82.52565
G1 X126.584 Y112.676 E82.72664
G1 X126.44 Y113.956 E83.03577
G1 X126.191 Y115.103 E83.31747
G1 X125.931 Y116.038 E83.55038
G1 X125.553 Y117.079 E83.81618
G1 X125.241 Y117.823 E84.00981
G1 X124.922 Y118.472 E84.18336
G1 X124.451 Y119.332 E84.41869
G1 X123.684 Y120.487 E84.75145
G1 X123.065 Y121.253 E84.98781
G1 X122.262 Y122.132 E85.27355
G1 X121.199 Y123.139 E85.62496
G1 X119.93 Y124.065 E86.00199
G1 X119.049 Y124.605 E86.24999
G1 X118.222 Y125.048 E86.47515
G1 X116.985 Y125.619 E86.80213
G1 X115.791 Y126.003 E87.10315
G1 X114.845 Y126.262 E87.33854
G1 X113.306 Y126.526 E87.7133
G1 X112.194 Y126.616 E87.98105
G1 X111.111 Y126.639 E88.24103
G1 X110.364 Y126.588 E88.42073
G1 X109.047 Y126.441 E88.73877
G1 X107.719 Y126.147 E89.06521
G1 X106.882 Y125.901 E89.27458
G1 X105.921 Y125.553 E89.51988
G1 X105.171 Y125.238 E89.71511
G1 X104.008 Y124.64 E90.02897
G1 X103.08 Y124.068 E90.2906
G1 X102.271 Y123.508 E90.52674
G1 X101.562 Y122.902 E90.75058
G1 X100.768 Y122.17 E91.00977
G1 X100.007 Y121.33 E91.2818
G1 X99.486 Y120.685 E91.48079
G1 X98.998 Y120.006 E91.68147
G1 X98.522 Y119.283 E91.88922
G1 X97.986 Y118.291 E92.15983
G1 X97.42 Y117.092 E92.47804
G1 X96.996 Y115.786 E92.80759
G1 X96.738 Y114.842 E93.04246
G1 X96.473 Y113.291 E93.42009
G1 X96.381 Y112.129 E93.69984
G1 X96.367 Y111.148 E93.93531
G1 X96.406 Y110.421 E94.11004
G1 X96.547 Y109.119 E94.42434
G1 X96.8 Y107.933 E94.71539
G1 X97.001 Y107.176 E94.90336
G1 X97.467 Y105.862 E95.23797
G1 X98.037 Y104.602 E95.56987
G1 X98.393 Y103.953 E95.74753
G1 X99.008 Y102.967 E96.02643
G1 X99.533 Y102.217 E96.24614
G1 X100.055 Y101.611 E96.4381
G1 X100.736 Y100.87 E96.67964
G0 F7200 X101.148 Y101.307
G1 F2400 X101.988 Y100.515 E96.95672
G1 X103.031 Y99.689 E97.27603
G1 X103.991 Y99.065 E97.55082
G1 X104.949 Y98.527 E97.81452
G1 X106.18 Y97.959 E98.13989
G1 X107.365 Y97.576 E98.43878
G1 X108.212 Y97.339 E98.64986
G1 X109.772 Y97.068 E99.02987
G1 X110.82 Y96.984 E99.2822
G1 X111.847 Y96.96 E99.52875
G1 X112.595 Y97.011 E99.70868
G1 X113.815 Y97.144 E100.00322
G1 X114.909 Y97.379 E100.27177
G1 X115.831 Y97.631 E100.50116
G1 X117.27 Y98.158 E100.86895
G1 X118.406 Y98.711 E101.17218
G1 X119.455 Y99.336 E101.46524
G1 X120.248 Y99.888 E101.69713
G1 X120.812 Y100.345 E101.87135
G1 X121.683 Y101.137 E102.15389
G1 X122.505 Y102.011 E102.44184
G1 X123.285 Y102.998 E102.74376
G1 X123.931 Y103.986 E103.02707
G1 X124.352 Y104.735 E103.23328
G1 X124.655 Y105.342 E103.3961
G1 X125.033 Y106.163 E103.61302
G1 X125.333 Y107.067 E103.84162
G1 X125.652 Y108.144 E104.1112
G1 X125.927 Y109.712 E104.49326
G1 X126.015 Y110.827 E104.7617
G1 X126.034 Y111.805 E104.99646
G1 X125.985 Y112.641 E105.19744
G1 X125.854 Y113.829 E105.48429
G1 X125.613 Y114.943 E105.75784
G1 X125.367 Y115.834 E105.97968
G1 X125 Y116.847 E106.23826
G1 X124.702 Y117.559 E106.4235
G1 X124.395 Y118.185 E106.59084
G1 X123.95 Y119.001 E106.81391
G1 X123.217 Y120.11 E107.13295
G1 X122.598 Y120.876 E107.36931
G1 X121.848 Y121.698 E107.63637
G1 X120.845 Y122.654 E107.96892
G1 X119.576 Y123.58 E108.34594
G1 X118.765 Y124.076 E108.5741
G1 X117.968 Y124.504 E108.79122
G1 X116.801 Y125.048 E109.10023
G1 X115.631 Y125.425 E109.39525
G1 X114.743 Y125.671 E109.6164
G1 X113.257 Y125.928 E109.97833
G1 X112.18 Y126.016 E110.23767
G1 X111.152 Y126.04 E110.48446
G1 X110.405 Y125.989 E110.66416
G1 X109.176 Y125.855 E110.96086
G1 X107.888 Y125.571 E111.27741
G1 X107.051 Y125.325 E111.48679
G1 X106.152 Y124.999 E111.71629
G1 X105.445 Y124.704 E111.90015
G1 X104.323 Y124.129 E112.20273
G1 X103.395 Y123.557 E112.46436
G1 X102.613 Y123.015 E112.69272
G1 X101.968 Y122.46 E112.89693
G1 X101.213 Y121.767 E113.14289
G1 X100.452 Y120.927 E113.41492
G1 X99.973 Y120.334 E113.59787
G1 X99.499 Y119.676 E113.7925
G1 X99.023 Y118.953 E114.00025
G1 X98.529 Y118.035 E114.25045
G1 X97.963 Y116.836 E114.56866
G1 X97.574 Y115.626 E114.87369
G1 X97.329 Y114.74 E115.09431
G1 X97.071 Y113.243 E115.45889
G1 X96.981 Y112.119 E115.72951
G1 X96.966 Y111.18 E115.9549
G1 X97.003 Y110.486 E116.1217
G1 X97.144 Y109.184 E116.43601
G1 X97.38 Y108.087 E116.70531
G1 X97.581 Y107.33 E116.89329
G1 X98.014 Y106.109 E117.20421
G1 X98.563 Y104.891 E117.52485
G1 X98.919 Y104.242 E117.7025
G1 X99.5 Y103.31 E117.96609
G1 X99.988 Y102.609 E118.17108
G1 X100.51 Y102.003 E118.36304
G1 X101.148 Y101.307 E118.58964
G10
G1 F600 Z1.4
;MESH:balance.STL
G0 F7200 X100.877 Y109.937 Z1.4
;TYPE:WALL-OUTER
G1 F600 Z0.4
G11
G1 F1941.8 X100.772 Y110.575 E118.79618
G1 F1987.8 X100.749 Y111.506 E119.08753
G1 F1994.1 X100.776 Y112.587 E119.42486
G1 F1926.9 X100.91 Y113.174 E119.61852
G10
G1 F600 Z1.4
G0 F7200 X111.5 Y114.43 Z1.4
G1 F600 Z0.4
G11
G1 F2400 X110.593 Y114.432 E119.85797
G1 X110.382 Y114.326 E119.92031
G1 X110.312 Y114.153 E119.96958
G1 X110.314 Y108.823 E121.3767
G1 X110.557 Y108.568 E121.46969
G1 X112.403 Y108.564 E121.95703
G1 X112.614 Y108.67 E122.01937
G1 X112.682 Y108.824 E122.06381
G1 X112.682 Y114.172 E123.47569
G1 X112.438 Y114.427 E123.56886
G1 X111.5 Y114.43 E123.81649
G0 F7200 X111.2 Y114.43
G10
G1 F600 Z1.4
G0 F7200 X111.5 Y122.311 Z1.4
G1 F600 Z0.4
G11
G1 F2400 X112.726 Y122.257 E124.14047
G1 X114.108 Y122.004 E124.51138
G1 X115.026 Y121.72 E124.76507
G1 X115.717 Y121.459 E124.96007
G1 X116.575 Y121.046 E125.21146
G1 X117.407 Y120.568 E125.46477
G1 X118.517 Y119.746 E125.82942
G1 X119.283 Y119.004 E126.11096
G1 X120.07 Y118.119 E126.42362
G1 X120.669 Y117.229 E126.70684
G1 X121.046 Y116.575 E126.90613
G1 X121.46 Y115.713 E127.15858
G1 X121.724 Y115.022 E127.35387
G1 X121.996 Y114.135 E127.5988
G1 F2174.6 X122.06 Y113.308 E127.83822
G1 X121.466 Y113.892 E128.07865
G1 F2400 X120.966 Y114.219 E128.23638
G1 X120.359 Y114.408 E128.40421
G1 X119.959 Y114.327 E128.51196
G1 X119.813 Y114.097 E128.58388
G1 X119.812 Y109 E129.92948
G1 X119.961 Y108.691 E130.02005
G1 X120.145 Y108.576 E130.07733
G1 X120.923 Y108.746 E130.28757
G1 F2361 X121.584 Y109.198 E130.50214
G1 F2286.3 X122.207 Y110.188 E130.82484
G1 F2250.6 X122.015 Y108.932 E131.18041
G1 F2323.1 X121.72 Y107.97 E131.45402
G1 F2400 X121.456 Y107.275 E131.65029
G1 X121.046 Y106.421 E131.90038
G1 X120.67 Y105.769 E132.09908
G1 X120.128 Y104.981 E132.35157
G1 X119.536 Y104.261 E132.59765
G1 X119.004 Y103.714 E132.7991
G1 X118.119 Y102.93 E133.11123
G1 X117.228 Y102.327 E133.39526
G1 X116.575 Y101.95 E133.59432
G1 X115.713 Y101.536 E133.84677
G1 X115.031 Y101.277 E134.03936
G1 X114.298 Y101.055 E134.24156
G1 X113.285 Y100.821 E134.51603
G1 X112.239 Y100.708 E134.79378
G1 X111.502 Y100.685 E134.98844
G1 X110.27 Y100.739 E135.314
G1 X108.892 Y100.992 E135.68388
G1 X107.97 Y101.276 E135.93857
G1 X107.283 Y101.536 E136.13249
G1 X106.42 Y101.95 E136.38518
G1 X105.781 Y102.318 E136.57986
