;FLAVOR:UltiGCode
;TIME:547
;MATERIAL:1039
;MATERIAL2:0
;NOZZLE_DIAMETER:0.6
;MINX:94.571
;MINY:94.571
;MINZ:0.4
;MAXX:128.429
;MAXY:128.429
;MAXZ:3.5
;TARGET_MACHINE.NAME:Ultimaker 2+
;Generated with Cura_SteamEngine 5.10.0
G0 F3000 Y50 ;avoid prime blob
M104 S230 ; Régler la température de l'extrudeur à 230°C
M140 S58 ; Régle la température du plateau à 58°C
M221 S100 ; Augmente le material flow de +x%
M207 S10 F3000 ; Rétraction à 10 mm, à une vitesse de rétration de 25 mm/s
M82 ;absolute extrusion mode
G92 E0
G92 E0
G10
;LAYER_COUNT:15
;LAYER:0
M107
G1 F600 Z1.4
G0 F7200 X99.267 Y99.806 Z1.4
;TYPE:SKIRT
G1 F600 Z0.4
G11
G1 F1620 X99.989 Y99.096 E0.24303
G1 X101.123 Y98.117 E0.60258
G1 X102.121 Y97.404 E0.89695
G1 X103.583 Y96.534 E1.30525
G1 X104.647 Y96.028 E1.58802
G1 X105.422 Y95.7 E1.78999
G1 X106.11 Y95.451 E1.96559
G1 X107.134 Y95.143 E2.22223
G1 X108.757 Y94.792 E2.62075
G1 X109.984 Y94.642 E2.91742
G1 X110.769 Y94.584 E3.10634
G1 X111.488 Y94.571 E3.27893
G1 X112.334 Y94.588 E3.48201
G1 X113.267 Y94.662 E3.70663
G1 X114.203 Y94.789 E3.93333
G1 X115.239 Y94.992 E4.1867
G1 X115.982 Y95.178 E4.37052
G1 X116.802 Y95.425 E4.57605
G1 X117.505 Y95.676 E4.75521
G1 X118.268 Y95.986 E4.95286
G1 X119.167 Y96.409 E5.19131
G1 X119.725 Y96.702 E5.34257
G1 X120.59 Y97.207 E5.58296
G1 X121.474 Y97.829 E5.84238
G1 X122.408 Y98.548 E6.12526
G1 X123.222 Y99.294 E6.39026
G1 X124.061 Y100.157 E6.67912
G1 X124.782 Y100.994 E6.94426
G1 X125.563 Y102.072 E7.26374
G1 X126.518 Y103.682 E7.713
G1 X126.965 Y104.629 E7.96433
G1 X127.3 Y105.42 E8.1705
G1 X127.538 Y106.077 E8.3382
G1 X127.865 Y107.166 E8.61109
G1 X128.211 Y108.766 E9.00397
G1 X128.35 Y109.902 E9.27864
G1 X128.416 Y110.763 E9.48589
G1 X128.429 Y111.441 E9.64864
G1 X128.41 Y112.37 E9.87164
G1 X128.338 Y113.264 E10.0869
G1 X128.208 Y114.221 E10.31869
G1 X127.994 Y115.303 E10.5834
G1 X127.833 Y115.933 E10.73946
G1 X127.651 Y116.558 E10.89569
G1 X127.331 Y117.489 E11.13196
G1 X127.061 Y118.16 E11.30555
G1 X126.479 Y119.396 E11.63343
G1 X125.814 Y120.558 E11.95475
G1 X125.282 Y121.325 E12.17877
G1 X124.768 Y122.011 E12.3845
G1 X124.37 Y122.498 E12.53545
G1 X123.735 Y123.192 E12.76121
G1 X123.012 Y123.903 E13.00457
G1 X121.877 Y124.883 E13.36446
G1 X120.879 Y125.596 E13.65883
G1 X119.417 Y126.466 E14.06714
G1 X118.353 Y126.972 E14.3499
G1 X117.578 Y127.3 E14.55188
G1 X116.889 Y127.549 E14.7277
G1 X115.773 Y127.881 E15.00714
G1 X114.314 Y128.195 E15.36532
G1 X113.121 Y128.346 E15.65393
G1 X112.231 Y128.416 E15.86819
G1 X111.512 Y128.429 E16.04077
G1 X110.666 Y128.412 E16.24385
G1 X109.733 Y128.338 E16.46848
G1 X108.797 Y128.211 E16.69518
G1 X107.761 Y128.008 E16.94854
G1 X107.018 Y127.822 E17.13237
G1 X106.198 Y127.575 E17.3379
G1 X105.494 Y127.324 E17.51728
G1 X104.758 Y127.025 E17.70794
G1 X103.832 Y126.59 E17.95348
G1 X103.265 Y126.292 E18.10721
G1 X102.433 Y125.808 E18.33822
G1 X101.687 Y125.289 E18.55632
G1 X100.99 Y124.772 E18.7646
G1 X100.551 Y124.415 E18.9004
G1 X99.82 Y123.745 E19.13838
G1 X98.905 Y122.804 E19.45339
G1 X98.221 Y122.01 E19.70491
G1 X97.402 Y120.876 E20.04062
G1 X96.511 Y119.373 E20.45997
G1 X96.025 Y118.352 E20.73135
G1 X95.735 Y117.666 E20.9101
G1 X95.44 Y116.854 E21.11744
G1 X95.132 Y115.822 E21.37591
G1 X94.784 Y114.197 E21.77476
G1 X94.65 Y113.1 E22.03999
G1 X94.582 Y112.179 E22.26164
G1 X94.571 Y111.508 E22.4227
G1 X94.59 Y110.539 E22.6553
G1 X94.676 Y109.606 E22.88017
G1 X94.771 Y108.902 E23.05066
G1 X94.977 Y107.833 E23.31194
G1 X95.242 Y106.785 E23.57138
G1 X95.486 Y106.023 E23.76341
G1 X95.734 Y105.343 E23.93712
G1 X95.971 Y104.768 E24.08638
G1 X96.428 Y103.796 E24.34416
G1 X97.045 Y102.664 E24.65358
G1 X97.813 Y101.546 E24.97911
G1 X98.584 Y100.548 E25.28178
G1 X99.267 Y99.806 E25.52381
G0 F7200 X99.688 Y100.234
G1 F1620 X100.41 Y99.524 E25.76684
G1 X101.473 Y98.605 E26.10409
G1 X102.428 Y97.92 E26.38615
G1 X103.89 Y97.05 E26.79446
G1 X104.881 Y96.58 E27.05769
G1 X105.626 Y96.264 E27.25191
G1 X106.283 Y96.026 E27.41962
G1 X107.307 Y95.718 E27.67625
G1 X108.83 Y95.388 E28.05025
G1 X110.057 Y95.238 E28.34693
G1 X110.78 Y95.184 E28.52093
G1 X111.476 Y95.171 E28.688
G1 X112.322 Y95.188 E28.89108
G1 X113.186 Y95.257 E29.0991
G1 X114.122 Y95.384 E29.3258
G1 X115.123 Y95.581 E29.57065
G1 X115.809 Y95.753 E29.74038
G1 X116.629 Y96 E29.94592
G1 X117.279 Y96.232 E30.11156
G1 X118.042 Y96.542 E30.30921
G1 X118.888 Y96.94 E30.5336
G1 X119.424 Y97.221 E30.67884
G1 X120.245 Y97.698 E30.90673
G1 X121.109 Y98.305 E31.16015
G1 X122.003 Y98.991 E31.43059
G1 X122.792 Y99.713 E31.68727
G1 X123.606 Y100.549 E31.96731
G1 X124.327 Y101.386 E32.23244
G1 X125.047 Y102.379 E32.52682
G1 X125.975 Y103.938 E32.96225
G1 X126.422 Y104.885 E33.21358
G1 X126.736 Y105.625 E33.4065
G1 X126.963 Y106.25 E33.56609
G1 X127.29 Y107.339 E33.83898
G1 X127.615 Y108.839 E34.20733
G1 X127.754 Y109.975 E34.482
G1 X127.816 Y110.775 E34.67458
G1 X127.829 Y111.429 E34.83157
G1 X127.81 Y112.358 E35.05458
G1 X127.743 Y113.184 E35.25347
G1 X127.619 Y114.105 E35.4765
G1 X127.412 Y115.155 E35.73335
G1 X127.257 Y115.765 E35.88441
G1 X127.075 Y116.39 E36.04064
G1 X126.774 Y117.265 E36.26271
G1 X126.504 Y117.936 E36.4363
G1 X125.958 Y119.098 E36.74444
G1 X125.293 Y120.26 E37.06575
G1 X124.802 Y120.965 E37.27195
G1 X124.303 Y121.631 E37.47167
G1 X123.905 Y122.118 E37.62262
G1 X123.314 Y122.764 E37.83275
G1 X122.591 Y123.475 E38.07612
G1 X121.527 Y124.395 E38.4137
G1 X120.572 Y125.08 E38.69577
G1 X119.11 Y125.95 E39.10407
G1 X118.119 Y126.42 E39.36731
G1 X117.374 Y126.736 E39.56153
G1 X116.717 Y126.974 E39.72923
G1 X115.647 Y127.294 E39.99727
G1 X114.188 Y127.608 E40.35545
G1 X113.073 Y127.748 E40.62515
G1 X112.22 Y127.816 E40.83052
G1 X111.524 Y127.829 E40.99759
G1 X110.678 Y127.812 E41.20067
G1 X109.814 Y127.743 E41.40869
G1 X108.878 Y127.616 E41.63539
G1 X107.877 Y127.419 E41.88024
G1 X107.191 Y127.247 E42.04997
G1 X106.371 Y127 E42.25551
G1 X105.72 Y126.768 E42.42137
G1 X104.984 Y126.469 E42.61203
G1 X104.111 Y126.059 E42.84351
G1 X103.566 Y125.773 E42.99122
G1 X102.776 Y125.315 E43.21038
G1 X102.03 Y124.796 E43.42849
G1 X101.369 Y124.306 E43.62596
G1 X100.93 Y123.949 E43.76176
G1 X100.226 Y123.303 E43.99108
G1 X99.36 Y122.412 E44.28928
G1 X98.676 Y121.618 E44.5408
G1 X97.918 Y120.569 E44.85141
G1 X97.053 Y119.115 E45.25745
G1 X96.578 Y118.118 E45.5225
G1 X96.288 Y117.432 E45.70125
G1 X96.015 Y116.681 E45.89303
G1 X95.719 Y115.695 E46.1401
G1 X95.38 Y114.124 E46.52582
G1 X95.246 Y113.027 E46.79106
G1 X95.182 Y112.169 E46.99755
G1 X95.171 Y111.519 E47.15357
G1 X95.188 Y110.594 E47.37561
G1 X95.271 Y109.686 E47.59444
G1 X95.366 Y108.982 E47.76493
G1 X95.559 Y107.98 E48.00983
G1 X95.824 Y106.932 E48.26926
G1 X96.05 Y106.228 E48.44672
G1 X96.289 Y105.572 E48.61428
G1 X96.526 Y104.997 E48.76354
G1 X96.956 Y104.082 E49.00618
G1 X97.54 Y103.004 E49.30043
G1 X98.308 Y101.886 E49.62596
G1 X99.026 Y100.954 E49.90832
G1 X99.688 Y100.234 E50.14306
G0 F7200 X100.13 Y100.64
G1 F1620 X100.803 Y99.977 E50.36979
G1 X101.824 Y99.092 E50.69407
G1 X102.735 Y98.436 E50.9635
G1 X104.197 Y97.566 E51.37181
G1 X105.115 Y97.132 E51.61551
G1 X105.831 Y96.828 E51.80219
G1 X106.456 Y96.601 E51.96178
G1 X107.48 Y96.293 E52.21842
G1 X108.903 Y95.984 E52.5679
G1 X110.13 Y95.834 E52.86457
G1 X110.792 Y95.784 E53.0239
G1 X111.464 Y95.771 E53.18521
G1 X112.31 Y95.788 E53.38829
G1 X113.106 Y95.852 E53.57995
G1 X114.006 Y95.973 E53.79789
G1 X115.007 Y96.17 E54.04274
G1 X115.636 Y96.328 E54.19839
G1 X116.456 Y96.575 E54.40393
G1 X117.053 Y96.788 E54.55605
G1 X117.816 Y97.098 E54.75371
G1 X118.609 Y97.471 E54.96403
G1 X119.124 Y97.741 E55.10359
G1 X119.9 Y98.189 E55.31864
G1 X120.745 Y98.782 E55.56639
G1 X121.598 Y99.434 E55.82407
G1 X122.387 Y100.156 E56.08074
G1 X123.151 Y100.941 E56.34364
G1 X123.872 Y101.778 E56.60878
G1 X124.561 Y102.731 E56.89101
G1 X125.433 Y104.195 E57.29998
G1 X125.87 Y105.119 E57.54529
G1 X126.172 Y105.831 E57.7309
G1 X126.388 Y106.423 E57.88214
G1 X126.715 Y107.512 E58.15503
G1 X127.019 Y108.912 E58.49886
G1 X127.158 Y110.048 E58.77354
G1 X127.216 Y110.787 E58.95144
G1 X127.229 Y111.417 E59.10267
G1 X127.21 Y112.346 E59.32568
G1 X127.148 Y113.105 E59.50845
G1 X127.03 Y113.989 E59.72249
G1 X126.823 Y115.039 E59.97934
G1 X126.681 Y115.597 E60.11753
G1 X126.507 Y116.195 E60.267
G1 X126.217 Y117.041 E60.48164
G1 X125.947 Y117.712 E60.65523
G1 X125.437 Y118.801 E60.94383
G1 X124.801 Y119.917 E61.25211
G1 X124.321 Y120.606 E61.45364
G1 X123.838 Y121.252 E61.64722
G1 X123.462 Y121.713 E61.79
G1 X122.871 Y122.359 E62.00013
G1 X122.198 Y123.022 E62.22686
G1 X121.176 Y123.908 E62.55148
G1 X120.265 Y124.564 E62.82091
G1 X118.803 Y125.434 E63.22922
G1 X117.885 Y125.868 E63.47292
G1 X117.169 Y126.172 E63.65961
G1 X116.544 Y126.399 E63.81919
G1 X115.521 Y126.707 E64.0756
G1 X114.062 Y127.021 E64.43378
G1 X113.025 Y127.15 E64.68458
G1 X112.208 Y127.216 E64.88129
G1 X111.536 Y127.229 E65.0426
G1 X110.69 Y127.212 E65.24569
G1 X109.894 Y127.148 E65.43734
G1 X108.994 Y127.027 E65.65529
G1 X107.993 Y126.83 E65.90013
G1 X107.364 Y126.672 E66.05578
G1 X106.544 Y126.425 E66.26132
G1 X105.946 Y126.212 E66.41367
G1 X105.21 Y125.913 E66.60433
G1 X104.39 Y125.528 E66.82174
G1 X103.866 Y125.253 E66.96377
G1 X103.119 Y124.822 E67.17075
G1 X102.373 Y124.303 E67.38886
G1 X101.748 Y123.84 E67.57553
G1 X101.309 Y123.483 E67.71133
G1 X100.632 Y122.861 E67.93198
G1 X99.815 Y122.02 E68.21338
G1 X99.131 Y121.226 E68.4649
G1 X98.434 Y120.262 E68.7504
G1 X97.569 Y118.808 E69.15644
G1 X97.131 Y117.884 E69.40185
G1 X96.841 Y117.198 E69.5806
G1 X96.59 Y116.508 E69.75682
G1 X96.294 Y115.522 E70.00389
G1 X95.976 Y114.051 E70.36508
G1 X95.842 Y112.954 E70.63032
G1 X95.782 Y112.159 E70.82166
G1 X95.771 Y111.529 E70.97289
G1 X95.786 Y110.648 E71.18436
G1 X95.866 Y109.766 E71.39691
G1 X95.961 Y109.062 E71.5674
G1 X96.141 Y108.127 E71.79592
G1 X96.396 Y107.115 E72.04639
G1 X96.614 Y106.433 E72.21823
G1 X96.844 Y105.801 E72.37964
G1 X97.081 Y105.226 E72.5289
G1 X97.484 Y104.368 E72.75641
G1 X98.068 Y103.29 E73.05065
G1 X98.784 Y102.251 E73.35349
G1 X99.468 Y101.36 E73.62307
G1 X100.13 Y100.64 E73.85781
G0 F7200 X100.572 Y101.046
G1 F1620 X101.197 Y100.43 E74.06842
G1 X102.175 Y99.579 E74.37956
G1 X103.086 Y98.923 E74.64899
G1 X104.454 Y98.108 E75.03116
G1 X105.349 Y97.684 E75.26884
G1 X106.037 Y97.392 E75.44822
G1 X106.629 Y97.176 E75.59946
G1 X107.653 Y96.868 E75.8561
G1 X108.976 Y96.58 E76.18105
G1 X110.203 Y96.43 E76.47773
G1 X110.804 Y96.384 E76.62239
G1 X111.452 Y96.371 E76.77794
G1 X112.298 Y96.388 E76.98102
G1 X113.027 Y96.447 E77.15655
G1 X113.89 Y96.562 E77.3655
G1 X114.891 Y96.759 E77.61035
G1 X115.463 Y96.903 E77.75192
G1 X116.283 Y97.15 E77.95745
G1 X116.828 Y97.344 E78.09629
G1 X117.561 Y97.641 E78.2861
G1 X118.331 Y98.003 E78.49031
G1 X118.824 Y98.261 E78.62385
G1 X119.6 Y98.709 E78.8389
G1 X120.382 Y99.26 E79.06849
G1 X121.193 Y99.877 E79.31305
G1 X121.957 Y100.575 E79.56141
G1 X122.696 Y101.333 E79.81548
G1 X123.417 Y102.17 E80.08062
G1 X124.074 Y103.082 E80.35038
G1 X124.891 Y104.452 E80.73321
G1 X125.318 Y105.353 E80.9725
G1 X125.608 Y106.037 E81.15081
G1 X125.824 Y106.629 E81.30205
G1 X126.129 Y107.64 E81.55549
G1 X126.423 Y108.985 E81.88591
G1 X126.562 Y110.121 E82.16058
G1 X126.616 Y110.8 E82.32406
G1 X126.629 Y111.405 E82.46929
G1 X126.61 Y112.334 E82.6923
G1 X126.553 Y113.026 E82.85894
G1 X126.441 Y113.873 E83.06399
G1 X126.241 Y114.892 E83.31322
G1 X126.105 Y115.43 E83.4464
G1 X125.939 Y116.001 E83.58911
G1 X125.66 Y116.817 E83.79608
G1 X125.39 Y117.488 E83.96967
G1 X124.894 Y118.546 E84.25011
G1 X124.308 Y119.574 E84.5341
G1 X123.84 Y120.247 E84.73083
G1 X123.373 Y120.873 E84.91828
G1 X123.019 Y121.308 E85.05288
G1 X122.428 Y121.954 E85.26301
G1 X121.804 Y122.569 E85.47328
G1 X120.825 Y123.421 E85.78476
G1 X119.914 Y124.077 E86.05419
G1 X118.546 Y124.892 E86.43635
G1 X117.651 Y125.316 E86.67404
G1 X116.963 Y125.608 E86.85342
G1 X116.371 Y125.824 E87.00466
G1 X115.348 Y126.132 E87.26106
G1 X113.988 Y126.426 E87.595
G1 X112.976 Y126.552 E87.83976
G1 X112.196 Y126.616 E88.02759
G1 X111.548 Y126.629 E88.18314
G1 X110.702 Y126.612 E88.38622
G1 X109.973 Y126.553 E88.56175
G1 X109.11 Y126.438 E88.7707
G1 X108.109 Y126.241 E89.01555
G1 X107.537 Y126.097 E89.15712
G1 X106.717 Y125.85 E89.36265
G1 X106.172 Y125.656 E89.50149
G1 X105.436 Y125.357 E89.69215
G1 X104.669 Y124.997 E89.8955
G1 X104.164 Y124.732 E90.03237
G1 X103.461 Y124.329 E90.22685
G1 X102.73 Y123.821 E90.44049
G1 X102.127 Y123.374 E90.62064
G1 X101.688 Y123.017 E90.75644
G1 X101.062 Y122.443 E90.96028
G1 X100.27 Y121.628 E91.23302
G1 X99.586 Y120.834 E91.48454
G1 X98.921 Y119.911 E91.75757
G1 X98.111 Y118.551 E92.13747
G1 X97.684 Y117.65 E92.37677
G1 X97.394 Y116.964 E92.55551
G1 X97.165 Y116.335 E92.71617
G1 X96.869 Y115.349 E92.96324
G1 X96.572 Y113.978 E93.29991
G1 X96.438 Y112.881 E93.56515
G1 X96.382 Y112.148 E93.74158
G1 X96.371 Y111.538 E93.88801
G1 X96.384 Y110.702 E94.08867
G1 X96.461 Y109.846 E94.29494
G1 X96.556 Y109.142 E94.46543
G1 X96.723 Y108.274 E94.67757
G1 X96.978 Y107.262 E94.92804
G1 X97.178 Y106.638 E95.08531
G1 X97.399 Y106.029 E95.24079
G1 X97.624 Y105.481 E95.38297
G1 X98.012 Y104.654 E95.60221
G1 X98.596 Y103.576 E95.89645
G1 X99.261 Y102.615 E96.17693
G1 X99.91 Y101.766 E96.4334
G1 X100.572 Y101.046 E96.66814
G0 F7200 X100.994 Y101.473
G1 F1620 X101.592 Y100.882 E96.86993
G1 X102.526 Y100.066 E97.16759
G1 X103.437 Y99.41 E97.43701
G1 X104.711 Y98.65 E97.79305
G1 X105.584 Y98.236 E98.02493
G1 X106.243 Y97.956 E98.19678
G1 X106.835 Y97.74 E98.34802
G1 X107.781 Y97.454 E98.58521
G1 X109.049 Y97.176 E98.89675
G1 X110.276 Y97.026 E99.19343
G1 X110.816 Y96.984 E99.32342
G1 X111.44 Y96.971 E99.47321
G1 X112.286 Y96.988 E99.67629
G1 X112.949 Y97.042 E99.83594
G1 X113.775 Y97.151 E100.0359
G1 X114.745 Y97.341 E100.27312
G1 X115.29 Y97.478 E100.40799
G1 X116.11 Y97.725 E100.61352
G1 X116.603 Y97.9 E100.73908
G1 X117.306 Y98.184 E100.92105
G1 X118.053 Y98.535 E101.11913
G1 X118.546 Y98.793 E101.25267
G1 X119.254 Y99.199 E101.44855
G1 X120.019 Y99.738 E101.67314
G1 X120.83 Y100.355 E101.91771
G1 X121.527 Y100.994 E102.14465
G1 X122.266 Y101.752 E102.39872
G1 X122.93 Y102.521 E102.64256
G1 X123.587 Y103.433 E102.91232
G1 X124.349 Y104.709 E103.26901
G1 X124.766 Y105.587 E103.50229
G1 X125.044 Y106.243 E103.67329
G1 X125.26 Y106.835 E103.82453
G1 X125.543 Y107.769 E104.05875
G1 X125.827 Y109.058 E104.37553
G1 X125.966 Y110.194 E104.6502
G1 X126.016 Y110.813 E104.79925
G1 X126.029 Y111.394 E104.93872
G1 X126.012 Y112.285 E105.1526
G1 X125.958 Y112.948 E105.31225
G1 X125.852 Y113.758 E105.50831
G1 X125.659 Y114.746 E105.74991
G1 X125.529 Y115.263 E105.87785
G1 X125.371 Y115.807 E106.01381
G1 X125.103 Y116.593 E106.21311
G1 X124.833 Y117.264 E106.3867
G1 X124.351 Y118.291 E106.65897
G1 X123.815 Y119.231 E106.91867
G1 X123.347 Y119.904 E107.11541
G1 X122.908 Y120.494 E107.29191
G1 X122.554 Y120.929 E107.42651
G1 X122.006 Y121.527 E107.62117
G1 X121.409 Y122.117 E107.82262
G1 X120.474 Y122.934 E108.12062
G1 X119.563 Y123.59 E108.39004
G1 X118.289 Y124.35 E108.74608
G1 X117.416 Y124.764 E108.97796
G1 X116.757 Y125.044 E109.14981
G1 X116.165 Y125.26 E109.30105
G1 X115.22 Y125.546 E109.53801
G1 X113.914 Y125.831 E109.85882
G1 X112.926 Y125.954 E110.09777
G1 X112.183 Y126.016 E110.27671
G1 X111.56 Y126.029 E110.42627
G1 X110.714 Y126.012 E110.62935
G1 X110.051 Y125.958 E110.78899
G1 X109.225 Y125.849 E110.98895
G1 X108.255 Y125.659 E111.22618
G1 X107.71 Y125.522 E111.36105
G1 X106.89 Y125.275 E111.56658
G1 X106.397 Y125.1 E111.69213
G1 X105.691 Y124.814 E111.87495
G1 X104.947 Y124.465 E112.07218
G1 X104.461 Y124.211 E112.20379
G1 X103.803 Y123.836 E112.38555
G1 X103.087 Y123.339 E112.59473
G1 X102.506 Y122.908 E112.76835
G1 X102.067 Y122.551 E112.90415
G1 X101.468 Y122.001 E113.09932
G1 X100.724 Y121.236 E113.35543
G1 X100.073 Y120.483 E113.59433
G1 X99.408 Y119.56 E113.86735
G1 X98.653 Y118.294 E114.22112
G1 X98.236 Y117.416 E114.4544
G1 X97.957 Y116.758 E114.62593
G1 X97.739 Y116.162 E114.77824
G1 X97.455 Y115.221 E115.01414
