;FLAVOR:UltiGCode
;TIME:3783
;MATERIAL:13893
;MATERIAL2:0
;NOZZLE_DIAMETER:0.6
;MINX:69.015
;MINY:83.015
;MINZ:0.4
;MAXX:153.985
;MAXY:139.985
;MAXZ:34.75
;TARGET_MACHINE.NAME:Ultimaker 2+
;Generated with Cura_SteamEngine 5.10.0
G0 F3000 Y50 ;avoid prime blob
M104 S230 ; Régler la température de l'extrudeur à 230°C
M140 S58 ; Régle la température du plateau à 58°C
M221 S100 ; Augmente le material flow de +0%
M82 ;absolute extrusion mode
G92 E0
G92 E0
G10
;LAYER_COUNT:230
;LAYER:0
M107
G0 F7200 X76.193 Y86.619 Z0.4
;TYPE:SKIRT
G11
G1 F2400 X77.476 Y85.777 E0.36831
G1 X78.988 Y84.874 E0.79098
G1 X81.112 Y84.016 E1.34076
G1 X83.788 Y83.311 E2.00491
G1 X84.671 Y83.18 E2.21915
G1 X85.837 Y83.081 E2.5
G1 X86.799 Y83.022 E2.73131
G1 X135.397 Y83.015 E14.39483
G1 X136.617 Y83.045 E14.68772
G1 X137.665 Y83.119 E14.93987
G1 X138.893 Y83.251 E15.23629
G1 X140.373 Y83.58 E15.60016
G1 X141.782 Y83.946 E15.94954
G1 X144.227 Y85.012 E16.58969
G1 X145.488 Y85.758 E16.94132
G1 X146.327 Y86.294 E17.18026
G1 X147.289 Y87.024 E17.47009
G1 X148.717 Y88.285 E17.92731
G1 X149.851 Y89.567 E18.33809
G1 X150.635 Y90.556 E18.64098
G1 X151.465 Y91.876 E19.0152
G1 X152.249 Y93.288 E19.40281
G1 X152.985 Y95.115 E19.87554
G1 X153.69 Y97.788 E20.539
G1 X153.816 Y98.639 E20.74546
G1 X153.916 Y99.865 E21.04068
G1 X153.983 Y101.254 E21.37443
G1 X153.985 Y121.397 E26.20875
G1 X153.953 Y122.665 E26.51316
G1 X153.883 Y123.646 E26.7492
G1 X153.744 Y124.921 E27.05702
G1 X153.401 Y126.456 E27.4345
G1 X153.07 Y127.742 E27.7532
G1 X151.984 Y130.233 E28.40539
G1 X151.21 Y131.543 E28.77056
G1 X150.473 Y132.715 E29.10283
G1 X148.671 Y134.762 E29.75735
G1 X147.846 Y135.502 E30.02333
G1 X146.392 Y136.672 E30.47124
G1 X145.16 Y137.444 E30.82018
G1 X143.976 Y138.141 E31.14992
G1 X141.427 Y139.137 E31.80672
G1 X139.345 Y139.665 E32.32222
G1 X138.29 Y139.824 E32.57828
G1 X137.148 Y139.919 E32.85331
G1 X135.942 Y139.985 E33.14318
G1 X87.531 Y139.984 E44.76182
G1 X86.356 Y139.954 E45.04391
G1 X85.351 Y139.883 E45.28571
G1 X84.132 Y139.754 E45.57991
G1 X82.638 Y139.422 E45.94721
G1 X81.64 Y139.156 E46.19509
G1 X80.539 Y138.765 E46.4755
G1 X78.979 Y138.094 E46.88307
G1 X77.548 Y137.269 E47.27949
G1 X76.339 Y136.494 E47.62415
G1 X74.276 Y134.708 E48.27904
G1 X72.538 Y132.732 E48.91062
G1 X71.564 Y131.173 E49.3518
G1 X70.771 Y129.754 E49.74193
G1 X69.913 Y127.583 E50.30218
G1 X69.502 Y126.039 E50.68565
G1 X69.182 Y124.629 E51.03265
G1 X69.015 Y121.965 E51.67327
G1 X69.016 Y101.519 E56.58031
G1 X69.055 Y100.214 E56.89365
G1 X69.257 Y98.067 E57.4112
G1 X69.579 Y96.628 E57.76511
G1 X69.943 Y95.227 E58.11251
G1 X70.981 Y92.834 E58.73853
G1 X71.762 Y91.498 E59.10994
G1 X72.507 Y90.349 E59.43859
G1 X74.148 Y88.404 E60.04934
G1 X76.193 Y86.619 E60.70081
G0 F7200 X76.588 Y87.071
G1 F2400 X77.784 Y86.292 E61.04337
G1 X79.255 Y85.413 E61.45463
G1 X81.266 Y84.596 E61.97558
G1 X83.876 Y83.905 E62.62357
G1 X84.759 Y83.774 E62.8378
G1 X85.874 Y83.68 E63.10635
G1 X86.836 Y83.621 E63.33767
G1 X135.382 Y83.615 E74.98871
G1 X136.602 Y83.645 E75.2816
G1 X137.603 Y83.716 E75.52244
G1 X138.763 Y83.837 E75.80235
G1 X140.222 Y84.161 E76.16104
G1 X141.589 Y84.516 E76.5
G1 X143.922 Y85.529 E77.11043
G1 X145.166 Y86.264 E77.45721
G1 X145.965 Y86.773 E77.68457
G1 X146.893 Y87.475 E77.96384
G1 X148.268 Y88.683 E78.4031
G1 X149.382 Y89.941 E78.80638
G1 X150.127 Y90.875 E79.09312
G1 X150.941 Y92.169 E79.46002
G1 X151.692 Y93.512 E79.82931
G1 X152.428 Y95.339 E80.30203
G1 X153.096 Y97.876 E80.93166
G1 X153.222 Y98.727 E81.13813
G1 X153.317 Y99.894 E81.41914
G1 X153.383 Y101.254 E81.74592
G1 X153.385 Y121.382 E86.57664
G1 X153.354 Y122.623 E86.87457
G1 X153.286 Y123.583 E87.10555
G1 X153.158 Y124.79 E87.39686
G1 X152.82 Y126.306 E87.76963
G1 X152.5 Y127.548 E88.07744
G1 X151.467 Y129.928 E88.70013
G1 X150.702 Y131.224 E89.06131
G1 X149.992 Y132.353 E89.3814
G1 X148.27 Y134.315 E90.00792
G1 X147.445 Y135.055 E90.2739
G1 X146.016 Y136.204 E90.71397
G1 X144.856 Y136.927 E91.04202
G1 X143.711 Y137.601 E91.3609
G1 X141.279 Y138.556 E91.98797
G1 X139.255 Y139.072 E92.48926
G1 X138.24 Y139.226 E92.73565
G1 X137.115 Y139.32 E93.00659
G1 X135.942 Y139.385 E93.28854
G1 X87.546 Y139.384 E104.90358
G1 X86.371 Y139.354 E105.18568
G1 X85.414 Y139.286 E105.41594
G1 X84.195 Y139.157 E105.71013
G1 X82.792 Y138.842 E106.05523
G1 X81.84 Y138.59 E106.29158
G1 X80.775 Y138.213 E106.56272
G1 X79.279 Y137.574 E106.95314
G1 X77.848 Y136.749 E107.34957
G1 X76.732 Y136.04 E107.66689
G1 X74.669 Y134.254 E108.32178
G1 X73.023 Y132.376 E108.92112
G1 X72.087 Y130.878 E109.34505
G1 X71.329 Y129.533 E109.71558
G1 X70.493 Y127.428 E110.25916
G1 X70.087 Y125.906 E110.63722
G1 X69.778 Y124.545 E110.97217
G1 X69.615 Y121.965 E111.59261
G1 X69.616 Y101.537 E116.49533
G1 X69.655 Y100.232 E116.80866
G1 X69.842 Y98.198 E117.29888
G1 X70.16 Y96.779 E117.64789
G1 X70.512 Y95.422 E117.98435
G1 X71.499 Y93.137 E118.58172
G1 X72.267 Y91.823 E118.947
G1 X72.966 Y90.736 E119.25716
G1 X74.578 Y88.826 E119.857
G1 X76.588 Y87.071 E120.49741
G0 F7200 X76.983 Y87.523
G1 F2400 X78.092 Y86.807 E120.81422
G1 X79.523 Y85.952 E121.21429
G1 X81.492 Y85.152 E121.72437
G1 X83.964 Y84.498 E122.33806
G1 X84.809 Y84.372 E122.5431
G1 X85.911 Y84.279 E122.80852
G1 X86.873 Y84.22 E123.03983
G1 X135.367 Y84.215 E134.67839
G1 X136.587 Y84.245 E134.97128
G1 X137.541 Y84.313 E135.20082
G1 X138.701 Y84.434 E135.48073
G1 X140.071 Y84.742 E135.81774
G1 X141.393 Y85.085 E136.14553
G1 X143.617 Y86.046 E136.72699
G1 X144.844 Y86.77 E137.06891
G1 X145.643 Y87.279 E137.29627
G1 X146.498 Y87.927 E137.55375
G1 X147.819 Y89.081 E137.97472
G1 X148.914 Y90.317 E138.37103
G1 X149.619 Y91.195 E138.64128
G1 X150.418 Y92.464 E139.00118
G1 X151.136 Y93.738 E139.35215
G1 X151.848 Y95.493 E139.80669
G1 X152.502 Y97.964 E140.42015
G1 X152.628 Y98.815 E140.62662
G1 X152.718 Y99.923 E140.89342
G1 X152.783 Y101.254 E141.21324
G1 X152.785 Y121.367 E146.04036
G1 X152.754 Y122.608 E146.33829
G1 X152.689 Y123.522 E146.5582
G1 X152.572 Y124.66 E146.83276
G1 X152.239 Y126.156 E147.20059
G1 X151.931 Y127.352 E147.497
G1 X150.95 Y129.623 E148.09071
G1 X150.194 Y130.905 E148.44791
G1 X149.511 Y131.991 E148.75581
G1 X147.869 Y133.868 E149.35433
G1 X147.044 Y134.608 E149.62031
G1 X145.698 Y135.695 E150.03554
G1 X144.552 Y136.41 E150.35972
G1 X143.448 Y137.06 E150.66719
G1 X141.13 Y137.975 E151.26529
G1 X139.164 Y138.479 E151.75239
G1 X138.19 Y138.628 E151.98887
G1 X137.081 Y138.721 E152.25596
G1 X135.942 Y138.785 E152.52975
G1 X87.561 Y138.784 E164.14119
G1 X86.386 Y138.754 E164.42328
G1 X85.475 Y138.689 E164.64248
G1 X84.326 Y138.571 E164.91969
G1 X82.946 Y138.262 E165.25909
G1 X81.994 Y138.01 E165.49544
G1 X81.011 Y137.661 E165.74579
G1 X79.515 Y137.022 E166.13621
G1 X78.167 Y136.241 E166.51011
G1 X77.124 Y135.585 E166.80582
G1 X75.12 Y133.858 E167.44074
G1 X73.506 Y132.017 E168.02833
G1 X72.609 Y130.581 E168.43468
G1 X71.887 Y129.312 E168.78509
G1 X71.051 Y127.207 E169.32867
G1 X70.672 Y125.773 E169.68465
G1 X70.374 Y124.461 E170.00755
G1 X70.215 Y121.965 E170.6078
G1 X70.216 Y101.554 E175.50644
G1 X70.253 Y100.285 E175.81113
G1 X70.428 Y98.329 E176.28245
G1 X70.741 Y96.93 E176.62651
G1 X71.082 Y95.614 E176.95278
G1 X72.017 Y93.44 E177.52075
G1 X72.772 Y92.148 E177.87989
G1 X73.471 Y91.061 E178.19006
G1 X75.007 Y89.248 E178.76034
G1 X76.983 Y87.523 E179.38986
G0 F7200 X77.309 Y88.027
G1 F2400 X78.4 Y87.322 E179.70162
G1 X79.791 Y86.491 E180.09049
G1 X81.718 Y85.708 E180.58969
G1 X84.053 Y85.091 E181.16933
G1 X84.86 Y84.97 E181.36517
G1 X85.948 Y84.878 E181.62722
G1 X86.91 Y84.819 E181.85854
G1 X135.352 Y84.815 E193.48462
G1 X136.545 Y84.844 E193.77102
G1 X137.479 Y84.91 E193.99574
G1 X138.639 Y85.031 E194.27565
G1 X139.92 Y85.323 E194.59098
G1 X141.201 Y85.655 E194.90858
G1 X143.312 Y86.563 E195.46009
G1 X144.523 Y87.277 E195.79749
G1 X145.281 Y87.758 E196.01295
G1 X146.103 Y88.379 E196.2602
G1 X147.424 Y89.533 E196.68117
G1 X148.446 Y90.693 E197.05221
G1 X149.151 Y91.571 E197.32245
G1 X149.896 Y92.76 E197.6592
G1 X150.58 Y93.964 E197.99154
G1 X151.292 Y95.719 E198.44608
G1 X151.909 Y98.053 E199.02548
G1 X152.03 Y98.864 E199.22228
G1 X152.119 Y99.952 E199.48427
G1 X152.183 Y101.254 E199.79713
G1 X152.185 Y121.352 E204.62065
G1 X152.154 Y122.593 E204.91858
G1 X152.092 Y123.463 E205.12791
G1 X151.986 Y124.53 E205.38525
G1 X151.658 Y126.006 E205.74813
G1 X151.362 Y127.156 E206.03313
G1 X150.399 Y129.385 E206.61588
G1 X149.686 Y130.585 E206.95088
G1 X149.025 Y131.635 E207.24866
G1 X147.468 Y133.421 E207.81731
G1 X146.643 Y134.161 E208.08329
G1 X145.38 Y135.186 E208.47367
G1 X144.248 Y135.893 E208.79399
G1 X143.186 Y136.518 E209.08973
G1 X140.98 Y137.394 E209.65939
G1 X139.072 Y137.886 E210.13229
G1 X138.14 Y138.03 E210.35862
G1 X137.047 Y138.122 E210.62187
G1 X135.942 Y138.185 E210.8875
G1 X87.576 Y138.184 E222.49534
G1 X86.401 Y138.154 E222.77743
G1 X85.534 Y138.092 E222.98604
G1 X84.457 Y137.985 E223.24579
G1 X83.1 Y137.682 E223.57949
G1 X82.148 Y137.43 E223.81584
G1 X81.247 Y137.109 E224.0454
G1 X79.751 Y136.47 E224.43582
G1 X78.486 Y135.733 E224.78719
G1 X77.481 Y135.101 E225.07211
G1 X75.512 Y133.404 E225.69597
G1 X73.991 Y131.661 E226.25116
G1 X73.129 Y130.282 E226.64146
G1 X72.444 Y129.09 E226.97142
G1 X71.631 Y127.053 E227.4978
G1 X71.257 Y125.64 E227.84859
G1 X70.97 Y124.377 E228.15944
G1 X70.815 Y121.965 E228.73952
G1 X70.816 Y101.571 E233.63408
G1 X70.851 Y100.337 E233.93036
G1 X71.014 Y98.46 E234.38253
G1 X71.322 Y97.081 E234.72165
G1 X71.652 Y95.809 E235.03703
G1 X72.535 Y93.743 E235.57626
G1 X73.277 Y92.473 E235.92927
G1 X73.976 Y91.386 E236.23943
G1 X75.464 Y89.637 E236.79055
G1 X77.309 Y88.027 E237.37824
G0 F7200 X77.635 Y88.531
G1 F2400 X78.708 Y87.837 E237.68493
G1 X80.059 Y87.03 E238.06261
G1 X81.944 Y86.264 E238.55094
G1 X84.142 Y85.684 E239.09652
G1 X84.911 Y85.568 E239.28316
G1 X85.985 Y85.477 E239.54185
G1 X86.947 Y85.418 E239.77316
G1 X135.337 Y85.415 E251.38676
G1 X136.53 Y85.444 E251.67317
G1 X137.419 Y85.507 E251.88706
G1 X138.506 Y85.616 E252.14925
G1 X139.769 Y85.904 E252.46015
G1 X141.006 Y86.225 E252.76686
G1 X143.007 Y87.08 E253.28911
G1 X144.202 Y87.784 E253.62198
G1 X144.96 Y88.265 E253.83743
G1 X145.708 Y88.831 E254.06255
G1 X147.029 Y89.985 E254.48353
G1 X147.978 Y91.069 E254.8293
G1 X148.683 Y91.947 E255.09954
G1 X149.375 Y93.058 E255.41368
G1 X150.024 Y94.19 E255.72684
G1 X150.736 Y95.945 E256.18138
G1 X151.316 Y98.142 E256.72673
G1 X151.432 Y98.913 E256.91385
G1 X151.52 Y99.982 E257.17128
G1 X151.583 Y101.254 E257.47693
G1 X151.585 Y121.337 E262.29685
G1 X151.555 Y122.551 E262.5883
G1 X151.495 Y123.406 E262.79401
G1 X151.4 Y124.4 E263.03365
G1 X151.077 Y125.856 E263.39159
G1 X150.792 Y126.963 E263.66593
G1 X149.883 Y129.079 E264.21865
G1 X149.178 Y130.266 E264.54999
G1 X148.542 Y131.277 E264.83665
G1 X147.067 Y132.975 E265.37645
G1 X146.264 Y133.696 E265.63546
G1 X145.062 Y134.677 E266.00782
G1 X143.944 Y135.376 E266.32426
G1 X142.921 Y135.978 E266.60914
G1 X140.829 Y136.813 E267.14974
G1 X138.979 Y137.293 E267.60844
G1 X138.089 Y137.432 E267.82463
G1 X137.012 Y137.523 E268.08403
G1 X135.942 Y137.585 E268.34126
G1 X87.591 Y137.584 E279.9455
G1 X86.443 Y137.555 E280.22111
G1 X85.591 Y137.495 E280.42609
G1 X84.588 Y137.399 E280.66791
G1 X83.231 Y137.096 E281.00161
G1 X82.349 Y136.865 E281.22043
G1 X81.483 Y136.557 E281.44103
G1 X79.987 Y135.918 E281.83145
G1 X78.806 Y135.225 E282.16008
G1 X77.84 Y134.617 E282.43402
G1 X75.904 Y132.949 E283.04733
G1 X74.476 Y131.305 E283.56995
G1 X73.648 Y129.981 E283.94473
G1 X73.001 Y128.866 E284.25412
G1 X72.211 Y126.899 E284.76285
G1 X71.842 Y125.507 E285.10847
G1 X71.566 Y124.293 E285.40727
G1 X71.415 Y121.965 E285.96716
G1 X71.416 Y101.588 E290.85764
G1 X71.449 Y100.389 E291.14551
G1 X71.612 Y98.512 E291.59769
G1 X71.903 Y97.232 E291.91273
G1 X72.222 Y96.004 E292.21723
G1 X73.087 Y93.979 E292.74571
G1 X73.783 Y92.795 E293.07533
G1 X74.433 Y91.775 E293.36561
G1 X75.921 Y90.026 E293.91673
G1 X77.635 Y88.531 E294.46258
G0 F7200 X78.03 Y88.983
G1 F2400 X79.016 Y88.352 E294.74353
G1 X80.327 Y87.569 E295.11002
G1 X82.17 Y86.82 E295.58747
G1 X84.232 Y86.277 E296.09922
G1 X84.962 Y86.166 E296.27644
G1 X86.022 Y86.076 E296.53175
G1 X86.984 Y86.017 E296.76307
G1 X135.322 Y86.015 E308.36419
G1 X136.515 Y86.044 E308.65059
G1 X137.359 Y86.104 E308.85366
G1 X138.446 Y86.213 E309.11585
G1 X139.618 Y86.485 E309.4046
G1 X140.811 Y86.795 E309.70043
G1 X142.771 Y87.632 E310.21193
G1 X143.882 Y88.291 E310.52195
G1 X144.599 Y88.744 E310.7255
G1 X145.315 Y89.284 E310.94073
G1 X146.578 Y90.38 E311.34207
G1 X147.512 Y91.446 E311.68222
G1 X148.174 Y92.264 E311.93477
G1 X148.856 Y93.358 E312.24417
G1 X149.468 Y94.416 E312.53751
G1 X150.18 Y96.171 E312.99206
G1 X150.723 Y98.232 E313.50358
G1 X150.834 Y98.963 E313.68103
G1 X150.921 Y100.012 E313.93365
G1 X150.983 Y101.254 E314.2321
G1 X150.985 Y121.322 E319.04842
G1 X150.956 Y122.509 E319.33339
G1 X150.897 Y123.352 E319.5362
G1 X150.814 Y124.27 E319.75742
G1 X150.496 Y125.706 E320.11041
G1 X150.222 Y126.769 E320.37387
G1 X149.367 Y128.773 E320.89677
G1 X148.67 Y129.947 E321.22445
G1 X148.061 Y130.916 E321.49913
G1 X146.614 Y132.581 E322.02854
G1 X145.883 Y133.232 E322.26347
G1 X144.744 Y134.168 E322.61729
G1 X143.637 Y134.861 E322.93074
G1 X142.697 Y135.421 E323.19334
G1 X140.677 Y136.232 E323.71575
G1 X138.885 Y136.7 E324.16025
G1 X138.038 Y136.834 E324.36606
G1 X136.977 Y136.924 E324.62162
G1 X135.942 Y136.985 E324.87045
G1 X87.606 Y136.984 E336.47109
G1 X86.485 Y136.956 E336.74021
G1 X85.645 Y136.897 E336.94231
G1 X84.719 Y136.813 E337.16546
G1 X83.382 Y136.515 E337.49422
G1 X82.549 Y136.299 E337.70075
G1 X81.719 Y136.005 E337.91207
G1 X80.223 Y135.366 E338.3025
G1 X79.126 Y134.717 E338.6084
G1 X78.16 Y134.109 E338.88234
G1 X76.357 Y132.555 E339.45361
G1 X74.959 Y130.946 E339.96517
G1 X74.165 Y129.677 E340.32443
G1 X73.557 Y128.641 E340.61272
G1 X72.791 Y126.745 E341.1035
G1 X72.427 Y125.374 E341.44394
G1 X72.162 Y124.209 E341.73068
G1 X72.015 Y121.965 E342.27039
G1 X72.016 Y101.604 E347.15703
G1 X72.047 Y100.441 E347.43625
G1 X72.21 Y98.564 E347.88843
G1 X72.484 Y97.383 E348.1794
G1 X72.792 Y96.199 E348.47301
G1 X73.639 Y94.215 E348.99075
G1 X74.291 Y93.115 E349.29764
G1 X74.89 Y92.164 E349.56738
G1 X76.349 Y90.45 E350.1076
G1 X78.03 Y88.983 E350.64306
G0 F7200 X78.425 Y89.435
G1 F2400 X79.324 Y88.867 E350.89828
G1 X80.595 Y88.108 E351.25357
G1 X82.396 Y87.376 E351.72015
G1 X84.323 Y86.87 E352.19831
G1 X85.013 Y86.764 E352.36585
G1 X86.059 Y86.675 E352.6178
G1 X87.021 Y86.616 E352.84911
G1 X135.307 Y86.615 E364.43775
G1 X136.5 Y86.644 E364.72415
G1 X137.302 Y86.701 E364.91712
G1 X138.311 Y86.798 E365.1604
G1 X139.47 Y87.066 E365.4459
G1 X140.575 Y87.347 E365.71954
G1 X142.535 Y88.184 E366.23103
G1 X143.563 Y88.799 E366.51853
G1 X144.238 Y89.223 E366.70984
G1 X144.923 Y89.739 E366.91567
G1 X146.127 Y90.776 E367.29703
G1 X147.047 Y91.825 E367.6319
G1 X147.665 Y92.582 E367.86643
G1 X148.338 Y93.661 E368.17164
G1 X148.912 Y94.642 E368.44442
G1 X149.624 Y96.397 E368.89896
G1 X150.13 Y98.323 E369.37689
G1 X150.236 Y99.013 E369.54443
G1 X150.322 Y100.042 E369.79225
G1 X150.383 Y101.254 E370.0835
G1 X150.385 Y121.307 E374.89622
G1 X150.356 Y122.494 E375.18118
G1 X150.299 Y123.298 E375.37463
G1 X150.216 Y124.216 E375.59585
G1 X149.915 Y125.556 E375.92546
G1 X149.653 Y126.574 E376.17774
G1 X148.815 Y128.537 E376.69
G1 X148.162 Y129.628 E376.99515
G1 X147.577 Y130.558 E377.25884
G1 X146.161 Y132.188 E377.77704
G1 X145.5 Y132.77 E377.98841
G1 X144.426 Y133.659 E378.32301
G1 X143.33 Y134.345 E378.63333
G1 X142.426 Y134.883 E378.88581
G1 X140.525 Y135.651 E379.37787
G1 X138.733 Y136.119 E379.82238
G1 X137.987 Y136.236 E380.00361
G1 X136.941 Y136.325 E380.25555
G1 X135.942 Y136.385 E380.49574
G1 X87.621 Y136.384 E392.09278
G1 X86.5 Y136.356 E392.36191
G1 X85.699 Y136.299 E392.55463
G1 X84.773 Y136.215 E392.77779
G1 X83.531 Y135.934 E393.0834
G1 X82.749 Y135.733 E393.27718
G1 X81.955 Y135.453 E393.47924
G1 X80.459 Y134.814 E393.86967
G1 X79.446 Y134.209 E394.15284
G1 X78.48 Y133.601 E394.42678
