;FLAVOR:UltiGCode
;TIME:1828
;MATERIAL:4029
;MATERIAL2:0
;NOZZLE_DIAMETER:0.6
;MINX:100.694
;MINY:100.706
;MINZ:0.4
;MAXX:122.306
;MAXY:122.306
;MAXZ:20.05
;TARGET_MACHINE.NAME:Ultimaker 2+
;Generated with Cura_SteamEngine 5.10.0
G0 F3000 Y50 ;avoid prime blob
M104 S230 ; Régler la température de l'extrudeur à 230°C
M140 S58 ; Régle la température du plateau à 58°C
M221 S100 ; Augmente le material flow de +0%
M82 ;absolute extrusion mode
G92 E0
G92 E0
G10
;LAYER_COUNT:132
;LAYER:0
M107
;MESH:xyzCalibration_cube.stl
G0 F7200 X111.5 Y121.064 Z0.4
;TYPE:WALL-OUTER
G11
G1 F1380 X121.064 Y121.064 E2.5249
G1 X121.064 Y101.932 E7.57574
G1 X101.932 Y101.932 E12.62659
G1 X101.932 Y121.064 E17.67744
G1 X111.5 Y121.064 E20.20339
G0 F7200 X111.8 Y121.064
G0 X111.5 Y120.464
;TYPE:WALL-INNER
G1 F1620 X120.464 Y120.464 E22.24718
G1 X120.464 Y102.532 E26.33568
G1 X102.532 Y102.532 E30.42418
G1 X102.532 Y120.464 E34.51267
G1 X111.5 Y120.464 E36.55738
G0 F7200 X111.5 Y119.984
;TYPE:SKIN
G1 F1140 X119.984 Y119.984 E38.39501
G1 X119.984 Y103.012 E42.07115
G1 X103.012 Y103.012 E45.74728
G1 X103.012 Y119.984 E49.42342
G1 X111.5 Y119.984 E51.26192
G10
G0 F7200 X111.5 Y122.186
G0 X103.312 Y122.186
G0 X103.312 Y119.434
G11
G1 F1140 X103.562 Y119.684 E51.3385
G0 F7200 X104.411 Y119.684
G1 F1140 X103.312 Y118.585 E51.67514
G0 F7200 X103.312 Y117.737
G1 F1140 X105.259 Y119.684 E52.27154
G0 F7200 X106.108 Y119.684
G1 F1140 X103.312 Y116.888 E53.12801
G0 F7200 X103.312 Y116.04
G1 F1140 X106.956 Y119.684 E54.24424
G0 F7200 X107.805 Y119.684
G1 F1140 X103.312 Y115.191 E55.62052
G0 F7200 X103.312 Y114.343
G1 F1140 X108.653 Y119.684 E57.25657
G0 F7200 X109.502 Y119.684
G1 F1140 X103.312 Y113.494 E59.15269
G0 F7200 X103.312 Y112.646
G1 F1140 X110.35 Y119.684 E61.30856
G0 F7200 X111.199 Y119.684
G1 F1140 X103.312 Y111.797 E63.72449
G0 F7200 X103.312 Y110.949
G1 F1140 X112.047 Y119.684 E66.40018
G0 F7200 X112.896 Y119.684
G1 F1140 X103.312 Y110.1 E69.33594
G0 F7200 X103.312 Y109.252
G1 F1140 X113.744 Y119.684 E72.53146
G0 F7200 X114.593 Y119.684
G1 F1140 X103.312 Y108.403 E75.98704
G0 F7200 X103.312 Y107.554
G1 F1140 X115.442 Y119.684 E79.70269
G0 F7200 X116.29 Y119.684
G1 F1140 X103.312 Y106.706 E83.67809
G0 F7200 X103.312 Y105.857
G1 F1140 X117.139 Y119.684 E87.91356
G0 F7200 X117.987 Y119.684
G1 F1140 X103.312 Y105.009 E92.40878
G0 F7200 X103.312 Y104.16
G1 F1140 X118.836 Y119.684 E97.16407
G0 F7200 X119.684 Y119.684
G1 F1140 X103.312 Y103.312 E102.17912
G0 F7200 X104.16 Y103.312
G1 F1140 X119.684 Y118.836 E106.93441
G0 F7200 X119.684 Y117.987
G1 F1140 X105.009 Y103.312 E111.42964
G0 F7200 X105.857 Y103.312
G1 F1140 X119.684 Y117.139 E115.66511
G0 F7200 X119.684 Y116.29
G1 F1140 X106.706 Y103.312 E119.64051
G0 F7200 X107.554 Y103.312
G1 F1140 X119.684 Y115.442 E123.35616
G0 F7200 X119.684 Y114.593
G1 F1140 X108.403 Y103.312 E126.81174
G0 F7200 X109.252 Y103.312
G1 F1140 X119.684 Y113.744 E130.00725
G0 F7200 X119.684 Y112.896
G1 F1140 X110.1 Y103.312 E132.94301
G0 F7200 X110.949 Y103.312
G1 F1140 X119.684 Y112.047 E135.61871
G0 F7200 X119.684 Y111.199
G1 F1140 X111.797 Y103.312 E138.03464
G0 F7200 X112.646 Y103.312
G1 F1140 X119.684 Y110.35 E140.19051
G0 F7200 X119.684 Y109.502
G1 F1140 X113.494 Y103.312 E142.08662
G0 F7200 X114.343 Y103.312
G1 F1140 X119.684 Y108.653 E143.72267
G0 F7200 X119.684 Y107.805
G1 F1140 X115.191 Y103.312 E145.09896
G0 F7200 X116.04 Y103.312
G1 F1140 X119.684 Y106.956 E146.21519
G0 F7200 X119.684 Y106.108
G1 F1140 X116.888 Y103.312 E147.07165
G0 F7200 X117.737 Y103.312
G1 F1140 X119.684 Y105.259 E147.66806
G0 F7200 X119.684 Y104.411
G1 F1140 X118.585 Y103.312 E148.0047
G0 F7200 X119.434 Y103.312
G1 F1140 X119.684 Y103.562 E148.08128
G10
;MESH:NONMESH
G0 F600 X119.684 Y103.562 Z0.55
G0 F7200 X122.186 Y103.562
G0 X122.174 Y122.174
G0 X111.5 Y122.186
G0 X111.5 Y121.184
;TIME_ELAPSED:39.274529
;LAYER:1
M106 S255
;TYPE:WALL-OUTER
;MESH:xyzCalibration_cube.stl
G11
G1 F1380 X121.184 Y121.184 E148.95284
G1 X121.184 Y101.812 E150.69632
G1 X101.812 Y101.812 E152.4398
G1 X101.812 Y121.184 E154.18328
G1 X111.5 Y121.184 E155.0552
G0 F7200 X111.8 Y121.184
G0 X111.5 Y120.584
;TYPE:WALL-INNER
G1 F2010 X120.584 Y120.584 E155.87276
G1 X120.584 Y102.412 E157.50824
G1 X102.412 Y102.412 E159.14372
G1 X102.412 Y120.584 E160.7792
G1 X111.5 Y120.584 E161.59712
G0 F7200 X111.5 Y120.104
;TYPE:SKIN
G1 F1140 X120.104 Y120.104 E162.33276
G1 X120.104 Y102.892 E163.80439
G1 X102.892 Y102.892 E165.27601
G1 X102.892 Y120.104 E166.74764
G1 X111.5 Y120.104 E167.48362
G0 F7200 X119.481 Y119.804
G1 F1140 X119.804 Y119.481 E167.52268
G0 F7200 X119.804 Y118.633
G1 F1140 X118.633 Y119.804 E167.66427
G0 F7200 X117.784 Y119.804
G1 F1140 X119.804 Y117.784 E167.90852
G0 F7200 X119.804 Y116.936
G1 F1140 X116.936 Y119.804 E168.25531
G0 F7200 X116.087 Y119.804
G1 F1140 X119.804 Y116.087 E168.70475
G0 F7200 X119.804 Y115.239
G1 F1140 X115.239 Y119.804 E169.25673
G0 F7200 X114.39 Y119.804
G1 F1140 X119.804 Y114.39 E169.91136
G0 F7200 X119.804 Y113.542
G1 F1140 X113.542 Y119.804 E170.66853
G0 F7200 X112.693 Y119.804
G1 F1140 X119.804 Y112.693 E171.52836
G0 F7200 X119.804 Y111.844
G1 F1140 X111.844 Y119.804 E172.49085
G0 F7200 X110.996 Y119.804
G1 F1140 X119.804 Y110.996 E173.55587
G0 F7200 X119.804 Y110.147
G1 F1140 X110.147 Y119.804 E174.72355
G0 F7200 X109.299 Y119.804
G1 F1140 X119.804 Y109.299 E175.99376
G0 F7200 X119.804 Y108.45
G1 F1140 X108.45 Y119.804 E177.36663
G0 F7200 X107.602 Y119.804
G1 F1140 X119.804 Y107.602 E178.84204
G0 F7200 X119.804 Y106.753
G1 F1140 X106.753 Y119.804 E180.42011
G0 F7200 X105.905 Y119.804
G1 F1140 X119.804 Y105.905 E182.10071
G0 F7200 X119.804 Y105.056
G1 F1140 X105.056 Y119.804 E183.88397
G0 F7200 X104.208 Y119.804
G1 F1140 X119.804 Y104.208 E185.76976
G0 F7200 X119.804 Y103.359
G1 F1140 X103.359 Y119.804 E187.75821
G0 F7200 X103.192 Y119.122
G1 F1140 X119.122 Y103.192 E189.68439
G0 F7200 X118.274 Y103.192
G1 F1140 X103.192 Y118.274 E191.50804
G0 F7200 X103.192 Y117.425
G1 F1140 X117.425 Y103.192 E193.22902
G0 F7200 X116.576 Y103.192
G1 F1140 X103.192 Y116.576 E194.84735
G0 F7200 X103.192 Y115.728
G1 F1140 X115.728 Y103.192 E196.36315
G0 F7200 X114.879 Y103.192
G1 F1140 X103.192 Y114.879 E197.77628
G0 F7200 X103.192 Y114.031
G1 F1140 X114.031 Y103.192 E199.08688
G0 F7200 X113.182 Y103.192
G1 F1140 X103.192 Y113.182 E200.29483
G0 F7200 X103.192 Y112.334
G1 F1140 X112.334 Y103.192 E201.40023
G0 F7200 X111.485 Y103.192
G1 F1140 X103.192 Y111.485 E202.40298
G0 F7200 X103.192 Y110.637
G1 F1140 X110.637 Y103.192 E203.3032
G0 F7200 X109.788 Y103.192
G1 F1140 X103.192 Y109.788 E204.10075
G0 F7200 X103.192 Y108.94
G1 F1140 X108.94 Y103.192 E204.79578
G0 F7200 X108.091 Y103.192
G1 F1140 X103.192 Y108.091 E205.38814
G0 F7200 X103.192 Y107.243
G1 F1140 X107.243 Y103.192 E205.87797
G0 F7200 X106.394 Y103.192
G1 F1140 X103.192 Y106.394 E206.26514
G0 F7200 X103.192 Y105.546
G1 F1140 X105.546 Y103.192 E206.54977
G0 F7200 X104.697 Y103.192
G1 F1140 X103.192 Y104.697 E206.73175
G0 F7200 X103.192 Y103.849
G1 F1140 X103.849 Y103.192 E206.81119
G0 F7200 X103.849 Y103.325
G10
;MESH:NONMESH
G0 F600 X103.849 Y103.325 Z0.7
G0 F7200 X111.5 Y120.775
G0 X111.5 Y121.184
;TIME_ELAPSED:74.588089
;LAYER:2
;TYPE:WALL-OUTER
;MESH:xyzCalibration_cube.stl
G11
G1 F1380 X121.184 Y121.184 E207.68275
G1 X121.184 Y101.812 E209.42623
G1 X101.812 Y101.812 E211.16971
G1 X101.812 Y121.184 E212.91319
G1 X111.5 Y121.184 E213.78511
G0 F7200 X111.8 Y121.184
G0 X111.5 Y120.584
;TYPE:WALL-INNER
G1 F2400 X120.584 Y120.584 E214.60267
G1 X120.584 Y102.412 E216.23815
G1 X102.412 Y102.412 E217.87363
G1 X102.412 Y120.584 E219.50911
G1 X111.5 Y120.584 E220.32703
G0 F7200 X111.5 Y120.104
;TYPE:SKIN
G1 F1140 X120.104 Y120.104 E221.06267
G1 X120.104 Y102.892 E222.5343
G1 X102.892 Y102.892 E224.00593
G1 X102.892 Y120.104 E225.47755
G1 X111.5 Y120.104 E226.21354
G0 F7200 X103.192 Y119.314
G1 F1140 X103.682 Y119.804 E226.27278
G0 F7200 X104.53 Y119.804
G1 F1140 X103.192 Y118.466 E226.43457
G0 F7200 X103.192 Y117.617
G1 F1140 X105.379 Y119.804 E226.69901
G0 F7200 X106.227 Y119.804
G1 F1140 X103.192 Y116.769 E227.06599
G0 F7200 X103.192 Y115.92
G1 F1140 X107.076 Y119.804 E227.53562
G0 F7200 X107.924 Y119.804
G1 F1140 X103.192 Y115.072 E228.10779
G0 F7200 X103.192 Y114.223
G1 F1140 X108.773 Y119.804 E228.78262
G0 F7200 X109.621 Y119.804
G1 F1140 X103.192 Y113.375 E229.55999
G0 F7200 X103.192 Y112.526
G1 F1140 X110.47 Y119.804 E230.44001
G0 F7200 X111.318 Y119.804
G1 F1140 X103.192 Y111.678 E231.42256
G0 F7200 X103.192 Y110.829
G1 F1140 X112.167 Y119.804 E232.50778
G0 F7200 X113.015 Y119.804
G1 F1140 X103.192 Y109.981 E233.69553
G0 F7200 X103.192 Y109.132
G1 F1140 X113.864 Y119.804 E234.98594
G0 F7200 X114.713 Y119.804
G1 F1140 X103.192 Y108.284 E236.37894
G0 F7200 X103.192 Y107.435
G1 F1140 X115.561 Y119.804 E237.87454
G0 F7200 X116.41 Y119.804
G1 F1140 X103.192 Y106.586 E239.4728
G0 F7200 X103.192 Y105.738
G1 F1140 X117.258 Y119.804 E241.17359
G0 F7200 X118.107 Y119.804
G1 F1140 X103.192 Y104.889 E242.97705
G0 F7200 X103.192 Y104.041
G1 F1140 X118.955 Y119.804 E244.88303
G0 F7200 X119.804 Y119.804
G1 F1140 X103.192 Y103.192 E246.89168
G0 F7200 X104.041 Y103.192
G1 F1140 X119.804 Y118.955 E248.79766
G0 F7200 X119.804 Y118.107
G1 F1140 X104.889 Y103.192 E250.60112
G0 F7200 X105.738 Y103.192
G1 F1140 X119.804 Y117.258 E252.30191
G0 F7200 X119.804 Y116.41
G1 F1140 X106.586 Y103.192 E253.90017
G0 F7200 X107.435 Y103.192
G1 F1140 X119.804 Y115.561 E255.39577
G0 F7200 X119.804 Y114.713
G1 F1140 X108.284 Y103.192 E256.78877
G0 F7200 X109.132 Y103.192
G1 F1140 X119.804 Y113.864 E258.07918
G0 F7200 X119.804 Y113.015
G1 F1140 X109.981 Y103.192 E259.26693
G0 F7200 X110.829 Y103.192
G1 F1140 X119.804 Y112.167 E260.35215
G0 F7200 X119.804 Y111.318
G1 F1140 X111.678 Y103.192 E261.3347
G0 F7200 X112.526 Y103.192
G1 F1140 X119.804 Y110.47 E262.21472
G0 F7200 X119.804 Y109.621
G1 F1140 X113.375 Y103.192 E262.99209
G0 F7200 X114.223 Y103.192
G1 F1140 X119.804 Y108.773 E263.66692
G0 F7200 X119.804 Y107.924
G1 F1140 X115.072 Y103.192 E264.23909
G0 F7200 X115.92 Y103.192
G1 F1140 X119.804 Y107.076 E264.70872
G0 F7200 X119.804 Y106.227
G1 F1140 X116.769 Y103.192 E265.0757
G0 F7200 X117.617 Y103.192
G1 F1140 X119.804 Y105.379 E265.34014
G0 F7200 X119.804 Y104.53
G1 F1140 X118.466 Y103.192 E265.50193
G0 F7200 X119.314 Y103.192
G1 F1140 X119.804 Y103.682 E265.56117
G0 F7200 X119.675 Y103.682
G10
;MESH:NONMESH
G0 F600 X119.675 Y103.682 Z0.85
G0 F7200 X111.5 Y120.775
G0 X111.5 Y121.184
;TIME_ELAPSED:109.576903
;LAYER:3
;TYPE:WALL-OUTER
;MESH:xyzCalibration_cube.stl
G11
G1 F1380 X121.184 Y121.184 E266.43273
G1 X121.184 Y101.812 E268.17621
G1 X101.812 Y101.812 E269.91969
G1 X101.812 Y121.184 E271.66317
G1 X111.5 Y121.184 E272.53509
G0 F7200 X111.8 Y121.184
G0 X111.5 Y120.584
;TYPE:WALL-INNER
G1 F2400 X120.584 Y120.584 E273.35265
G1 X120.584 Y102.412 E274.98813
G1 X102.412 Y102.412 E276.62361
G1 X102.412 Y120.584 E278.25909
G1 X111.5 Y120.584 E279.07701
G0 F7200 X111.5 Y120.104
;TYPE:SKIN
G1 F1140 X120.104 Y120.104 E279.81266
G1 X120.104 Y102.892 E281.28428
G1 X102.892 Y102.892 E282.75591
G1 X102.892 Y120.104 E284.22753
G1 X111.5 Y120.104 E284.96352
G0 F7200 X119.481 Y119.804
G1 F1140 X119.804 Y119.481 E285.00257
G0 F7200 X119.804 Y118.633
G1 F1140 X118.633 Y119.804 E285.14417
G0 F7200 X117.784 Y119.804
G1 F1140 X119.804 Y117.784 E285.38841
G0 F7200 X119.804 Y116.936
G1 F1140 X116.936 Y119.804 E285.7352
G0 F7200 X116.087 Y119.804
G1 F1140 X119.804 Y116.087 E286.18464
G0 F7200 X119.804 Y115.239
G1 F1140 X115.239 Y119.804 E286.73662
G0 F7200 X114.39 Y119.804
G1 F1140 X119.804 Y114.39 E287.39126
G0 F7200 X119.804 Y113.542
G1 F1140 X113.542 Y119.804 E288.14843
G0 F7200 X112.693 Y119.804
G1 F1140 X119.804 Y112.693 E289.00825
G0 F7200 X119.804 Y111.844
G1 F1140 X111.844 Y119.804 E289.97074
G0 F7200 X110.996 Y119.804
G1 F1140 X119.804 Y110.996 E291.03576
G0 F7200 X119.804 Y110.147
G1 F1140 X110.147 Y119.804 E292.20344
G0 F7200 X109.299 Y119.804
G1 F1140 X119.804 Y109.299 E293.47366
G0 F7200 X119.804 Y108.45
G1 F1140 X108.45 Y119.804 E294.84653
G0 F7200 X107.602 Y119.804
G1 F1140 X119.804 Y107.602 E296.32194
G0 F7200 X119.804 Y106.753
G1 F1140 X106.753 Y119.804 E297.9
G0 F7200 X105.905 Y119.804
G1 F1140 X119.804 Y105.905 E299.5806
G0 F7200 X119.804 Y105.056
G1 F1140 X105.056 Y119.804 E301.36386
G0 F7200 X104.208 Y119.804
G1 F1140 X119.804 Y104.208 E303.24965
G0 F7200 X119.804 Y103.359
G1 F1140 X103.359 Y119.804 E305.23811
G0 F7200 X103.192 Y119.122
G1 F1140 X119.122 Y103.192 E307.16429
G0 F7200 X118.274 Y103.192
G1 F1140 X103.192 Y118.274 E308.98793
G0 F7200 X103.192 Y117.425
G1 F1140 X117.425 Y103.192 E310.70892
G0 F7200 X116.576 Y103.192
G1 F1140 X103.192 Y116.576 E312.32725
G0 F7200 X103.192 Y115.728
G1 F1140 X115.728 Y103.192 E313.84304
G0 F7200 X114.879 Y103.192
G1 F1140 X103.192 Y114.879 E315.25618
G0 F7200 X103.192 Y114.031
G1 F1140 X114.031 Y103.192 E316.56678
G0 F7200 X113.182 Y103.192
G1 F1140 X103.192 Y113.182 E317.77472
G0 F7200 X103.192 Y112.334
G1 F1140 X112.334 Y103.192 E318.88013
G0 F7200 X111.485 Y103.192
G1 F1140 X103.192 Y111.485 E319.88288
G0 F7200 X103.192 Y110.637
G1 F1140 X110.637 Y103.192 E320.78309
G0 F7200 X109.788 Y103.192
G1 F1140 X103.192 Y109.788 E321.58065
G0 F7200 X103.192 Y108.94
G1 F1140 X108.94 Y103.192 E322.27567
G0 F7200 X108.091 Y103.192
G1 F1140 X103.192 Y108.091 E322.86803
G0 F7200 X103.192 Y107.243
G1 F1140 X107.243 Y103.192 E323.35786
G0 F7200 X106.394 Y103.192
G1 F1140 X103.192 Y106.394 E323.74503
G0 F7200 X103.192 Y105.546
G1 F1140 X105.546 Y103.192 E324.02967
G0 F7200 X104.697 Y103.192
G1 F1140 X103.192 Y104.697 E324.21164
G0 F7200 X103.192 Y103.849
G1 F1140 X103.849 Y103.192 E324.29109
G0 F7200 X103.849 Y103.325
G10
;MESH:NONMESH
G0 F600 X103.849 Y103.325 Z1
G0 F7200 X111.5 Y120.775
G0 X111.5 Y121.184
;TIME_ELAPSED:144.546743
;LAYER:4
;TYPE:WALL-OUTER
;MESH:xyzCalibration_cube.stl
G11
G1 F1380 X121.184 Y121.184 E325.16265
G1 X121.184 Y101.812 E326.90613
G1 X101.812 Y101.812 E328.64961
G1 X101.812 Y121.184 E330.39309
G1 X111.5 Y121.184 E331.26501
G0 F7200 X111.8 Y121.184
G0 X111.5 Y120.584
;TYPE:WALL-INNER
G1 F2400 X120.584 Y120.584 E332.08257
G1 X120.584 Y102.412 E333.71805
G1 X102.412 Y102.412 E335.35353
G1 X102.412 Y120.584 E336.98901
G1 X111.5 Y120.584 E337.80693
G0 F7200 X111.5 Y120.104
;TYPE:SKIN
G1 F1140 X120.104 Y120.104 E338.54257
G1 X120.104 Y102.892 E340.01419
G1 X102.892 Y102.892 E341.48582
G1 X102.892 Y120.104 E342.95745
G1 X111.5 Y120.104 E343.69343
G0 F7200 X103.192 Y119.314
G1 F1140 X103.682 Y119.804 E343.75268
G0 F7200 X104.53 Y119.804
G1 F1140 X103.192 Y118.466 E343.91446
G0 F7200 X103.192 Y117.617
G1 F1140 X105.379 Y119.804 E344.1789
G0 F7200 X106.227 Y119.804
G1 F1140 X103.192 Y116.769 E344.54588
G0 F7200 X103.192 Y115.92
G1 F1140 X107.076 Y119.804 E345.01552
G0 F7200 X107.924 Y119.804
G1 F1140 X103.192 Y115.072 E345.58769
G0 F7200 X103.192 Y114.223
G1 F1140 X108.773 Y119.804 E346.26252
G0 F7200 X109.621 Y119.804
G1 F1140 X103.192 Y113.375 E347.03988
G0 F7200 X103.192 Y112.526
G1 F1140 X110.47 Y119.804 E347.9199
G0 F7200 X111.318 Y119.804
G1 F1140 X103.192 Y111.678 E348.90246
G0 F7200 X103.192 Y110.829
G1 F1140 X112.167 Y119.804 E349.98767
G0 F7200 X113.015 Y119.804
G1 F1140 X103.192 Y109.981 E351.17542
G0 F7200 X103.192 Y109.132
G1 F1140 X113.864 Y119.804 E352.46583
G0 F7200 X114.713 Y119.804
G1 F1140 X103.192 Y108.284 E353.85884
G0 F7200 X103.192 Y107.435
G1 F1140 X115.561 Y119.804 E355.35444
G0 F7200 X116.41 Y119.804
G1 F1140 X103.192 Y106.586 E356.95269
G0 F7200 X103.192 Y105.738
G1 F1140 X117.258 Y119.804 E358.65349
G0 F7200 X118.107 Y119.804
G1 F1140 X103.192 Y104.889 E360.45694
G0 F7200 X103.192 Y104.041
G1 F1140 X118.955 Y119.804 E362.36293
G0 F7200 X119.804 Y119.804
G1 F1140 X103.192 Y103.192 E364.37157
G0 F7200 X104.041 Y103.192
G1 F1140 X119.804 Y118.955 E366.27756
G0 F7200 X119.804 Y118.107
G1 F1140 X104.889 Y103.192 E368.08101
G0 F7200 X105.738 Y103.192
G1 F1140 X119.804 Y117.258 E369.7818
G0 F7200 X119.804 Y116.41
