;FLAVOR:UltiGCode
;TIME:348
;MATERIAL:672
;MATERIAL2:0
;NOZZLE_DIAMETER:0.6
;MINX:98.145
;MINY:98.141
;MINZ:0.4
;MAXX:124.859
;MAXY:124.851
;MAXZ:10
;TARGET_MACHINE.NAME:Ultimaker 2+
;Generated with Cura_SteamEngine 5.10.0
G0 F3000 Y50 ;avoid prime blob
M104 S230 ; Régler la température de l'extrudeur à 230°C
M140 S58 ; Régle la température du plateau à 58°C
M221 S100 ; Augmente le material flow de +25%
M82 ;absolute extrusion mode
G92 E0
G92 E0
G10
;LAYER_COUNT:65
;LAYER:0
M107
G0 F7200 X105.725 Y100.197 Z0.4
;TYPE:SKIRT
G11
G1 F2400 X107.401 Y99.071 E0.48459
G1 X109.629 Y98.263 E1.05339
G1 X111.375 Y98.141 E1.47345
G1 X112.887 Y98.201 E1.83661
G1 X114.437 Y98.652 E2.22404
G1 X115.863 Y99.218 E2.59225
G1 X117.258 Y100.201 E3.00183
G1 X119.093 Y102.109 E3.63716
G1 X121.556 Y104.539 E4.46754
G1 X122.644 Y105.573 E4.82778
G1 X123.889 Y107.291 E5.33698
G1 X124.739 Y109.626 E5.93336
G1 X124.859 Y111.371 E6.35314
G1 X124.799 Y112.887 E6.71727
G1 X124.369 Y114.36 E7.08555
G1 X123.653 Y116.04 E7.52384
G1 X122.718 Y117.261 E7.89293
G1 X122.004 Y118.029 E8.1446
G1 X121.131 Y118.871 E8.43569
G1 X119.178 Y120.808 E9.09585
G1 X117.074 Y122.98 E9.8216
G1 X115.043 Y124.173 E10.38691
G1 X112.78 Y124.848 E10.95368
G1 X110.151 Y124.851 E11.58464
G1 X107.913 Y124.129 E12.14902
G1 X106.403 Y123.308 E12.56152
G1 X105.407 Y122.435 E12.87939
G1 X103.825 Y120.796 E13.4261
G1 X101.138 Y118.163 E14.32898
G1 X100.122 Y117.206 E14.66396
G1 X99.258 Y115.891 E15.04158
G1 X98.35 Y113.733 E15.60348
G1 X98.145 Y111.886 E16.04948
G1 X98.153 Y110.599 E16.35837
G1 X98.493 Y108.915 E16.77068
G1 X99.075 Y107.537 E17.12969
G1 X99.794 Y106.257 E17.48204
G1 X100.892 Y105.077 E17.86888
G1 X102.279 Y103.732 E18.33257
G1 X104.67 Y101.301 E19.15092
G1 X105.725 Y100.197 E19.51741
G0 F7200 X106.115 Y100.658
G1 F2400 X107.675 Y99.61 E19.96845
G1 X109.757 Y98.855 E20.49997
G1 X111.351 Y98.741 E20.8835
G1 X112.793 Y98.798 E21.22985
G1 X114.216 Y99.21 E21.5854
G1 X115.577 Y99.75 E21.93681
G1 X116.863 Y100.656 E22.31436
G1 X118.66 Y102.525 E22.93662
G1 X121.143 Y104.974 E23.77362
G1 X122.19 Y105.969 E24.12028
G1 X123.354 Y107.575 E24.59631
G1 X124.146 Y109.75 E25.15184
G1 X124.259 Y111.347 E25.53608
G1 X124.202 Y112.793 E25.88339
G1 X123.817 Y114.125 E26.21615
G1 X123.131 Y115.735 E26.63616
G1 X122.278 Y116.853 E26.97366
G1 X121.587 Y117.597 E27.21736
G1 X120.714 Y118.439 E27.50845
G1 X118.755 Y120.382 E28.17065
G1 X116.698 Y122.505 E28.88011
G1 X114.803 Y123.618 E29.40755
G1 X112.697 Y124.248 E29.93512
G1 X110.245 Y124.251 E30.5236
G1 X108.151 Y123.576 E31.05162
G1 X106.749 Y122.813 E31.43471
G1 X105.839 Y122.018 E31.72471
G1 X104.257 Y120.379 E32.27142
G1 X101.558 Y117.734 E33.17837
G1 X100.584 Y116.816 E33.4996
G1 X99.79 Y115.607 E33.84674
G1 X98.937 Y113.58 E34.37454
G1 X98.745 Y111.89 E34.78275
G1 X98.753 Y110.66 E35.07795
G1 X99.069 Y109.092 E35.46184
G1 X99.598 Y107.831 E35.79003
G1 X100.282 Y106.613 E36.12529
G1 X101.31 Y105.508 E36.48751
G1 X102.697 Y104.163 E36.9512
G1 X105.098 Y101.722 E37.77294
G1 X106.115 Y100.658 E38.12619
G0 F7200 X106.505 Y101.119
G1 F2400 X107.949 Y100.149 E38.54368
G1 X109.885 Y99.447 E39.03792
G1 X111.327 Y99.341 E39.38494
G1 X112.697 Y99.395 E39.71399
G1 X113.995 Y99.768 E40.03812
G1 X115.29 Y100.282 E40.37251
G1 X116.469 Y101.112 E40.71855
G1 X118.227 Y102.941 E41.3274
G1 X120.73 Y105.409 E42.17103
G1 X121.736 Y106.365 E42.5041
G1 X122.819 Y107.859 E42.94696
G1 X123.554 Y109.878 E43.46263
G1 X123.659 Y111.323 E43.81034
G1 X123.605 Y112.698 E44.1406
G1 X123.265 Y113.89 E44.43809
G1 X122.609 Y115.43 E44.83983
G1 X121.838 Y116.445 E45.14573
G1 X121.17 Y117.165 E45.38145
G1 X120.297 Y118.007 E45.67254
G1 X118.332 Y119.956 E46.33678
G1 X116.324 Y122.029 E47.02943
G1 X114.563 Y123.063 E47.51954
G1 X112.613 Y123.648 E48.00815
G1 X110.339 Y123.651 E48.55391
G1 X108.389 Y123.023 E49.04558
G1 X107.095 Y122.318 E49.39924
G1 X106.234 Y121.566 E49.6736
G1 X104.677 Y119.95 E50.21217
G1 X101.978 Y117.305 E51.11912
G1 X101.045 Y116.426 E51.42677
G1 X100.323 Y115.327 E51.74236
G1 X99.524 Y113.427 E52.23703
G1 X99.345 Y111.894 E52.60745
G1 X99.353 Y110.72 E52.88922
G1 X99.645 Y109.27 E53.24421
G1 X100.121 Y108.125 E53.54181
G1 X100.77 Y106.969 E53.85998
G1 X101.728 Y105.939 E54.19758
G1 X103.115 Y104.594 E54.66127
G1 X105.526 Y102.143 E55.4864
G1 X106.505 Y101.119 E55.82641
G0 F7200 X106.894 Y101.58
G1 F2400 X108.221 Y100.689 E56.21002
G1 X110.013 Y100.039 E56.66752
G1 X111.303 Y99.941 E56.97801
G1 X112.602 Y99.992 E57.29001
G1 X113.773 Y100.326 E57.58226
G1 X115.004 Y100.815 E57.90016
G1 X116.078 Y101.571 E58.21537
G1 X117.806 Y103.368 E58.8137
G1 X120.317 Y105.844 E59.66004
G1 X121.282 Y106.761 E59.97953
G1 X122.284 Y108.143 E60.38922
G1 X122.962 Y110.006 E60.86503
G1 X123.059 Y111.3 E61.17646
G1 X123.008 Y112.603 E61.48942
G1 X122.713 Y113.655 E61.75163
G1 X122.086 Y115.128 E62.13585
G1 X121.398 Y116.037 E62.40945
G1 X120.753 Y116.733 E62.63719
G1 X119.88 Y117.575 E62.92828
G1 X117.909 Y119.53 E63.59455
G1 X115.948 Y121.554 E64.27092
G1 X114.324 Y122.508 E64.72295
G1 X112.529 Y123.048 E65.17282
G1 X110.433 Y123.051 E65.67586
G1 X108.627 Y122.47 E66.13118
G1 X107.441 Y121.823 E66.45542
G1 X106.629 Y121.114 E66.71413
G1 X105.097 Y119.521 E67.24457
G1 X102.398 Y116.876 E68.15152
G1 X101.507 Y116.036 E68.44541
G1 X100.855 Y115.043 E68.73051
G1 X100.11 Y113.273 E69.1914
G1 X99.945 Y111.898 E69.52377
G1 X99.953 Y110.781 E69.79186
G1 X100.222 Y109.446 E70.1187
G1 X100.675 Y108.355 E70.40221
G1 X101.257 Y107.326 E70.68593
G1 X102.146 Y106.37 E70.99925
G1 X103.533 Y105.025 E71.46294
G1 X105.954 Y102.564 E72.29147
G1 X106.894 Y101.58 E72.61807
G0 F7200 X107.284 Y102.041
G1 F2400 X108.496 Y101.227 E72.96846
G1 X110.14 Y100.631 E73.38815
G1 X111.28 Y100.541 E73.6626
G1 X112.508 Y100.589 E73.95755
G1 X113.608 Y100.903 E74.23209
G1 X114.716 Y101.346 E74.51848
G1 X115.684 Y102.027 E74.80253
G1 X117.373 Y103.784 E75.38745
G1 X119.904 Y106.279 E76.24041
G1 X120.828 Y107.157 E76.54632
G1 X121.749 Y108.427 E76.92284
G1 X122.37 Y110.134 E77.35878
G1 X122.459 Y111.277 E77.63393
G1 X122.411 Y112.51 E77.93008
G1 X122.135 Y113.493 E78.17512
G1 X121.563 Y114.824 E78.52281
G1 X120.958 Y115.629 E78.76449
G1 X120.336 Y116.301 E78.98425
G1 X119.463 Y117.143 E79.27535
G1 X117.486 Y119.104 E79.94365
G1 X115.574 Y121.078 E80.60321
G1 X114.081 Y121.955 E81.01878
G1 X112.445 Y122.448 E81.42886
G1 X110.526 Y122.451 E81.88942
G1 X108.866 Y121.917 E82.30792
G1 X107.787 Y121.328 E82.60295
G1 X107.024 Y120.662 E82.84602
G1 X105.517 Y119.092 E83.36832
G1 X102.818 Y116.447 E84.27527
G1 X101.968 Y115.646 E84.55558
G1 X101.388 Y114.763 E84.80912
G1 X100.695 Y113.116 E85.23797
G1 X100.545 Y111.903 E85.53131
G1 X100.553 Y110.841 E85.7862
G1 X100.798 Y109.623 E86.08437
G1 X101.197 Y108.651 E86.33654
G1 X101.745 Y107.683 E86.6035
G1 X102.564 Y106.801 E86.89237
G1 X103.951 Y105.456 E87.35606
G1 X106.382 Y102.985 E88.18799
G1 X107.284 Y102.041 E88.50134
G0 F7200 X107.674 Y102.502
G1 F2400 X108.771 Y101.765 E88.81852
G1 X110.267 Y101.223 E89.2004
G1 X111.257 Y101.141 E89.43882
G1 X112.416 Y101.186 E89.71719
G1 X113.385 Y101.46 E89.95886
G1 X114.428 Y101.877 E90.22845
G1 X115.293 Y102.486 E90.48234
G1 X116.952 Y104.211 E91.05673
G1 X119.491 Y106.714 E91.91241
G1 X120.374 Y107.553 E92.20474
G1 X121.214 Y108.711 E92.54808
G1 X121.778 Y110.263 E92.94439
G1 X121.859 Y111.254 E93.18302
G1 X121.814 Y112.417 E93.46235
G1 X121.557 Y113.331 E93.69022
G1 X121.042 Y114.518 E94.00076
G1 X120.478 Y115.268 E94.22597
G1 X119.919 Y115.869 E94.42296
G1 X119.046 Y116.711 E94.71405
G1 X117.063 Y118.678 E95.3844
G1 X115.2 Y120.602 E96.02715
G1 X113.839 Y121.401 E96.40592
G1 X112.361 Y121.848 E96.77651
G1 X110.619 Y121.851 E97.19459
G1 X109.107 Y121.364 E97.57583
G1 X108.129 Y120.83 E97.84326
G1 X107.457 Y120.247 E98.05677
G1 X105.937 Y118.663 E98.58365
G1 X103.238 Y116.018 E99.49061
G1 X102.432 Y115.259 E99.75632
G1 X101.92 Y114.479 E99.98024
G1 X101.28 Y112.959 E100.37606
G1 X101.145 Y111.908 E100.63037
G1 X101.153 Y110.902 E100.87182
G1 X101.375 Y109.798 E101.14208
G1 X101.719 Y108.946 E101.3626
G1 X102.231 Y108.041 E101.61215
G1 X103.004 Y107.209 E101.88471
G1 X104.379 Y105.877 E102.34417
G1 X106.81 Y103.406 E103.17609
G1 X107.674 Y102.502 E103.47621
G0 F7200 X108.064 Y102.963
G1 F2400 X109.046 Y102.303 E103.76017
G1 X110.394 Y101.815 E104.10424
G1 X111.234 Y101.741 E104.30662
G1 X112.323 Y101.783 E104.56817
G1 X113.162 Y102.017 E104.77722
G1 X114.14 Y102.408 E105.03
G1 X114.899 Y102.942 E105.25273
G1 X116.519 Y104.627 E105.81371
G1 X119.078 Y107.149 E106.67601
G1 X119.92 Y107.949 E106.95476
G1 X120.679 Y108.995 E107.26493
G1 X121.186 Y110.392 E107.6216
G1 X121.259 Y111.231 E107.82372
G1 X121.217 Y112.324 E108.08624
G1 X121.007 Y113.092 E108.27732
G1 X120.521 Y114.212 E108.57034
G1 X120.038 Y114.86 E108.76431
G1 X119.502 Y115.437 E108.95332
G1 X118.629 Y116.279 E109.24441
G1 X116.64 Y118.252 E109.91679
G1 X114.826 Y120.126 E110.54275
G1 X113.597 Y120.848 E110.88484
G1 X112.277 Y121.248 E111.21587
G1 X110.712 Y121.251 E111.59147
G1 X109.346 Y120.811 E111.93589
G1 X108.472 Y120.334 E112.17486
G1 X107.89 Y119.832 E112.35932
G1 X106.357 Y118.234 E112.89079
G1 X103.658 Y115.589 E113.79774
G1 X102.894 Y114.869 E114.04969
G1 X102.452 Y114.195 E114.24313
G1 X101.865 Y112.802 E114.60592
G1 X101.745 Y111.913 E114.82122
G1 X101.753 Y110.963 E115.04923
G1 X101.952 Y109.973 E115.29158
G1 X102.241 Y109.242 E115.48023
G1 X102.719 Y108.398 E115.71302
G1 X103.444 Y107.617 E115.96878
G1 X104.807 Y106.298 E116.42399
G1 X107.238 Y103.827 E117.25591
G1 X108.064 Y102.963 E117.54279
G0 F7200 X108.451 Y103.426
G1 F2400 X109.321 Y102.841 E117.7944
G1 X110.523 Y102.406 E118.10119
G1 X111.286 Y102.339 E118.28502
G1 X112.227 Y102.379 E118.51106
G1 X112.939 Y102.574 E118.68823
G1 X113.853 Y102.939 E118.92444
G1 X114.507 Y103.4 E119.11647
G1 X116.098 Y105.054 E119.66727
G1 X118.665 Y107.584 E120.53228
G1 X119.466 Y108.345 E120.79745
G1 X120.144 Y109.279 E121.07444
G1 X120.595 Y110.522 E121.39179
G1 X120.661 Y111.283 E121.57512
G1 X120.621 Y112.229 E121.80236
G1 X120.428 Y112.934 E121.97779
G1 X119.998 Y113.909 E122.23353
G1 X119.598 Y114.452 E122.3954
G1 X119.085 Y115.005 E122.57643
G1 X118.212 Y115.847 E122.86752
G1 X116.217 Y117.826 E123.54194
G1 X114.452 Y119.65 E124.15109
G1 X113.355 Y120.295 E124.45651
G1 X112.193 Y120.648 E124.74797
G1 X110.805 Y120.651 E125.0811
G1 X109.585 Y120.258 E125.38871
G1 X108.815 Y119.838 E125.59922
G1 X108.323 Y119.417 E125.75462
G1 X106.777 Y117.805 E126.29067
G1 X104.078 Y115.16 E127.19763
G1 X103.358 Y114.482 E127.43498
G1 X102.983 Y113.911 E127.59893
G1 X102.449 Y112.644 E127.92892
G1 X102.34 Y111.833 E128.12531
G1 X102.353 Y111.023 E128.31973
G1 X102.529 Y110.146 E128.53441
G1 X102.763 Y109.538 E128.69076
G1 X103.207 Y108.755 E128.90679
G1 X103.884 Y108.025 E129.14574
G1 X105.235 Y106.719 E129.59671
G1 X107.666 Y104.248 E130.42863
G1 X108.451 Y103.426 E130.70142
G10
;MESH:Accroche_fixation.STL
G0 F7200 X104.985 Y110.892
G0 X104.968 Y112.042
G0 X105.345 Y112.798
G0 X110.037 Y117.517
G0 X110.738 Y117.935
G0 X111.5 Y116.908
;TYPE:WALL-OUTER
G11
G1 F2400 X111.82 Y116.902 E130.78592
G1 X112.292 Y116.53 E130.94458
G1 X112.46 Y116.045 E131.08008
G1 X112.463 Y112.661 E131.97346
G1 X112.659 Y112.465 E132.04663
G1 X116.047 Y112.46 E132.94107
G1 X116.342 Y112.388 E133.02123
G1 X116.791 Y112.019 E133.17466
G1 X116.94 Y111.618 E133.2876
G1 X116.871 Y111.13 E133.41771
G1 X116.483 Y110.68 E133.57457
G1 X116.048 Y110.54 E133.69521
G1 X112.659 Y110.531 E134.58991
G1 X112.465 Y110.337 E134.66234
G1 X112.46 Y106.777 E135.60218
G1 X112.08 Y106.243 E135.77521
G1 X111.806 Y106.095 E135.85743
G1 X111.341 Y106.062 E135.98049
G1 X110.821 Y106.323 E136.1341
G1 X110.54 Y106.948 E136.31501
G1 X110.531 Y110.337 E137.2097
G1 X110.336 Y110.532 E137.28251
G1 X106.952 Y110.536 E138.17589
G1 X106.643 Y110.61 E138.25977
G1 X106.249 Y110.909 E138.39034
G1 X106.099 Y111.183 E138.47281
G1 X106.09 Y111.783 E138.63123
G1 X106.224 Y112.052 E138.71057
G1 X106.782 Y112.46 E138.89306
G1 X110.336 Y112.464 E139.83131
G1 X110.533 Y112.661 E139.90486
G1 X110.532 Y116.135 E140.822
G1 X110.861 Y116.706 E140.99598
G1 X111.211 Y116.913 E141.10333
G1 X111.5 Y116.908 E141.17964
G0 F7200 X111.8 Y116.903
G0 X111.434 Y116.311
;TYPE:WALL-INNER
G1 F2145.5 X111.5 Y116.287 E141.19736
G1 X111.738 Y116.199 E141.26138
G1 X111.828 Y115.939 E141.3308
G1 X111.831 Y112.764 E142.13192
G1 F2266.3 X112.127 Y112.127 E142.30061
G1 F2250.6 X112.683 Y111.832 E142.45273
G1 F2131.3 X116.029 Y111.83 E143.30208
G1 F2145.5 X116.26 Y111.641 E143.37739
G1 F2156.4 X116.274 Y111.401 E143.43777
G1 F2145.5 X116.074 Y111.17 E143.51487
G1 F2131.3 X112.683 Y111.164 E144.37564
G1 F2235 X112.359 Y111.041 E144.45992
G1 F2365.3 X111.955 Y110.637 E144.59193
G1 F2235 X111.832 Y110.313 E144.67621
G1 F2131.3 X111.83 Y106.977 E145.52302
G1 F2145.5 X111.651 Y106.728 E145.6004
G1 F2156.4 X111.469 Y106.702 E145.64658
G1 X111.244 Y106.815 E145.70982
G1 X111.17 Y107.047 E145.77099
G1 F2138.4 X111.164 Y110.313 E146.59755
G1 F2250.6 X110.869 Y110.869 E146.74966
G1 F2262.4 X110.233 Y111.165 E146.9184
G1 F2142 X106.951 Y111.167 E147.74777
G1 F2145.5 X106.727 Y111.349 E147.82059
G1 F2149.1 X106.724 Y111.634 E147.8924
G1 X106.988 Y111.829 E147.97509
G1 F2145.5 X110.233 Y111.831 E148.79386
G1 F2262.4 X110.635 Y111.959 E148.89534
G1 F2400 X111.037 Y112.361 E149.02497
G1 F2266.3 X111.165 Y112.764 E149.12651
G1 F2145.5 X111.164 Y115.966 E149.93444
G1 X111.434 Y116.311 E150.04498
G0 F7200 X111.501 Y112.081
;TYPE:SKIN
G1 F1929 X111.745 Y111.751 E150.15077
G1 F1932.1 X112.172 Y111.497 E150.27865
G1 X111.751 Y111.243 E150.40521
G1 X111.496 Y110.819 E150.53256
G1 F1929 X111.195 Y111.289 E150.67642
G1 X110.909 Y111.493 E150.76697
G1 X111.501 Y112.081 E150.98203
G10
;MESH:NONMESH
G0 F600 X111.501 Y112.081 Z0.55
G0 F7200 X109.426 Y113.573
G0 X106.417 Y113.579
G0 X105.345 Y112.798
G0 X104.968 Y112.042
G0 X104.985 Y110.892
G0 X108.451 Y103.426
;TIME_ELAPSED:20.758090
;LAYER:1
;note -- min layer time used
M106 S255
;TYPE:SKIRT
G11
G1 F1797.3 X109.321 Y102.841 E151.07639
G1 X110.523 Y102.406 E151.19143
G1 X111.286 Y102.339 E151.26037
G1 X112.227 Y102.379 E151.34513
G1 X112.939 Y102.574 E151.41157
G1 X113.853 Y102.939 E151.50015
G1 X114.507 Y103.4 E151.57216
G1 X116.098 Y105.054 E151.77871
G1 X118.665 Y107.584 E152.10309
G1 X119.466 Y108.345 E152.20253
G1 X120.144 Y109.279 E152.3064
G1 X120.595 Y110.522 E152.42541
G1 X120.661 Y111.283 E152.49416
G1 X120.621 Y112.229 E152.57937
G1 X120.428 Y112.934 E152.64516
G1 X119.998 Y113.909 E152.74106
G1 X119.598 Y114.452 E152.80176
G1 X119.085 Y115.005 E152.86965
G1 X118.212 Y115.847 E152.97881
G1 X116.217 Y117.826 E153.23171
G1 X114.452 Y119.65 E153.46015
G1 X113.355 Y120.295 E153.57468
G1 X112.193 Y120.648 E153.68398
G1 X110.805 Y120.651 E153.8089
G1 X109.585 Y120.258 E153.92425
G1 X108.815 Y119.838 E154.00319
G1 X108.323 Y119.417 E154.06147
G1 X106.777 Y117.805 E154.26249
G1 X104.078 Y115.16 E154.6026
G1 X103.358 Y114.482 E154.69161
G1 X102.983 Y113.911 E154.75309
G1 X102.449 Y112.644 E154.87683
G1 X102.34 Y111.833 E154.95048
G1 X102.353 Y111.023 E155.02339
G1 X102.529 Y110.146 E155.10389
G1 X102.763 Y109.538 E155.16252
G1 X103.207 Y108.755 E155.24353
G1 X103.884 Y108.025 E155.33314
G1 X105.235 Y106.719 E155.50225
G1 X107.666 Y104.248 E155.81423
G1 X108.451 Y103.426 E155.91652
G10
;MESH:Accroche_fixation.STL
G0 F7200 X108.451 Y109.294
G0 X111.5 Y117.035
;TYPE:WALL-OUTER
G11
G1 F1797.3 X111.932 Y116.988 E155.95563
G1 X112.425 Y116.551 E156.01492
G1 X112.58 Y116.069 E156.06049
G1 X112.584 Y112.78 E156.3565
G1 X112.779 Y112.585 E156.38132
G1 X116.063 Y112.584 E156.67688
G1 X116.66 Y112.348 E156.73466
G1 X116.894 Y112.103 E156.76515
G1 X117.064 Y111.674 E156.80668
G1 X117.064 Y111.323 E156.83827
G1 X116.854 Y110.841 E156.88559
G1 X116.59 Y110.596 E156.918
G1 X116.07 Y110.42 E156.96741
G1 X112.779 Y110.411 E157.2636
G1 X112.585 Y110.217 E157.28829
G1 X112.584 Y106.926 E157.58448
G1 X112.422 Y106.441 E157.6305
G1 X112.181 Y106.167 E157.66335
