;FLAVOR:UltiGCode
;TIME:2209
;MATERIAL:8515
;MATERIAL2:0
;NOZZLE_DIAMETER:0.6
;MINX:71.001
;MINY:71.002
;MINZ:0.4
;MAXX:152.001
;MAXY:152.001
;MAXZ:20.05
;TARGET_MACHINE.NAME:Ultimaker 2+
;Generated with Cura_SteamEngine 5.10.0
G0 F3000 Y50 ;avoid prime blob
M104 S230 ; Régler la température de l'extrudeur à 230°C
M140 S58 ; Régle la température du plateau à 58°C
M42 P8 S255 ; Allume les LED à pleine 100%
M82 ;absolute extrusion mode
G92 E0
G92 E0
G10
;LAYER_COUNT:132
;LAYER:0
M107
G0 F7200 X82.854 Y82.87 Z0.4
;TYPE:SKIRT
G11
G1 F2400 X83.61 Y82.141 E0.25205
G1 X84.694 Y81.143 E0.60568
G1 X85.455 Y80.491 E0.84619
G1 X86.513 Y79.627 E1.17402
G1 X87.411 Y78.952 E1.44364
G1 X88.863 Y77.91 E1.87256
G1 X90.582 Y76.823 E2.36069
G1 X91.538 Y76.268 E2.62599
G1 X93.083 Y75.422 E3.04874
G1 X94.854 Y74.581 E3.51927
G1 X95.893 Y74.132 E3.79092
G1 X97.2 Y73.608 E4.12887
G1 X98.135 Y73.274 E4.36716
G1 X99.397 Y72.854 E4.68637
G1 X100.544 Y72.514 E4.97349
G1 X101.797 Y72.181 E5.28465
G1 X102.868 Y71.936 E5.54833
G1 X104.307 Y71.646 E5.90063
G1 X105.311 Y71.482 E6.14478
G1 X106.608 Y71.298 E6.45918
G1 X107.755 Y71.18 E6.73591
G1 X109.147 Y71.072 E7.071
G1 X110.156 Y71.027 E7.3134
G1 X111.593 Y71.002 E7.65833
G1 X112.7 Y71.026 E7.92407
G1 X114.517 Y71.106 E8.36057
G1 X116.496 Y71.313 E8.83813
G1 X117.526 Y71.457 E9.08773
G1 X118.756 Y71.659 E9.38688
G1 X119.898 Y71.886 E9.66633
G1 X121.744 Y72.309 E10.12085
G1 X123.796 Y72.912 E10.63415
G1 X125.458 Y73.472 E11.05507
G1 X126.863 Y74.031 E11.41798
G1 X128.452 Y74.708 E11.83251
G1 X130.176 Y75.563 E12.29435
G1 X131.239 Y76.14 E12.58464
G1 X132.361 Y76.784 E12.89512
G1 X133.198 Y77.305 E13.13174
G1 X134.322 Y78.041 E13.45418
G1 X136.162 Y79.365 E13.99823
G1 X137.279 Y80.268 E14.34295
G1 X138.28 Y81.117 E14.65796
G1 X139.057 Y81.821 E14.9096
G1 X140.079 Y82.798 E15.24893
G1 X140.885 Y83.631 E15.52712
G1 X141.748 Y84.567 E15.83267
G1 X142.439 Y85.367 E16.08637
G1 X143.606 Y86.795 E16.52898
G1 X144.761 Y88.393 E17.00219
G1 X145.431 Y89.393 E17.29108
G1 X146.171 Y90.566 E17.62394
G1 X146.678 Y91.434 E17.86519
G1 X147.514 Y92.952 E18.28111
G1 X148.4 Y94.805 E18.77405
G1 X148.819 Y95.768 E19.0261
G1 X149.309 Y96.977 E19.33918
G1 X149.735 Y98.153 E19.63937
G1 X150.17 Y99.456 E19.96906
G1 X150.466 Y100.472 E20.22304
G1 X150.797 Y101.702 E20.52874
G1 X151.054 Y102.798 E20.79891
G1 X151.321 Y104.099 E21.11766
G1 X151.507 Y105.21 E21.38801
G1 X151.708 Y106.621 E21.73007
G1 X151.815 Y107.657 E21.98003
G1 X151.961 Y109.491 E22.42158
G1 X152.001 Y111.512 E22.90672
G1 X151.987 Y112.542 E23.15394
G1 X151.936 Y113.841 E23.46594
G1 X151.853 Y114.922 E23.72615
G1 X151.677 Y116.686 E24.15161
G1 X151.331 Y118.843 E24.67591
G1 X150.929 Y120.791 E25.15328
G1 X150.57 Y122.167 E25.49457
G1 X150.216 Y123.397 E25.80175
G1 X149.876 Y124.434 E26.06367
G1 X149.357 Y125.894 E26.43555
G1 X148.991 Y126.808 E26.67184
G1 X148.289 Y128.457 E27.10197
G1 X147.412 Y130.224 E27.57541
G1 X146.885 Y131.196 E27.84078
G1 X146.212 Y132.364 E28.1643
G1 X145.649 Y133.269 E28.4201
G1 X144.844 Y134.49 E28.7711
G1 X144.254 Y135.318 E29.01511
G1 X143.399 Y136.455 E29.35653
G1 X142.768 Y137.239 E29.59806
G1 X141.865 Y138.303 E29.93299
G1 X141.154 Y139.081 E30.18594
G1 X140.26 Y140.017 E30.49658
G1 X139.408 Y140.845 E30.78171
G1 X138.118 Y142.038 E31.20342
G1 X136.521 Y143.348 E31.69915
G1 X135.688 Y143.979 E31.94995
G1 X134.654 Y144.728 E32.25638
G1 X133.662 Y145.394 E32.54314
G1 X132.575 Y146.085 E32.85227
G1 X131.651 Y146.628 E33.10948
G1 X130.307 Y147.37 E33.47794
G1 X129.356 Y147.848 E33.73339
G1 X128.086 Y148.449 E34.07059
G1 X127.178 Y148.84 E34.30786
G1 X125.997 Y149.318 E34.61363
G1 X124.848 Y149.734 E34.90691
G1 X123.528 Y150.175 E35.24092
G1 X122.581 Y150.451 E35.47766
G1 X121.283 Y150.8 E35.80024
G1 X120.19 Y151.055 E36.06961
G1 X118.799 Y151.338 E36.41029
G1 X117.738 Y151.514 E36.66841
G1 X116.352 Y151.711 E37.00439
G1 X115.351 Y151.814 E37.2459
G1 X113.499 Y151.961 E37.69178
G1 X111.493 Y152.001 E38.17331
G1 X110.509 Y151.984 E38.40951
G1 X108.725 Y151.908 E38.83806
G1 X106.71 Y151.714 E39.32389
G1 X105.458 Y151.543 E39.62716
G1 X103.945 Y151.293 E39.99521
G1 X102.056 Y150.88 E40.45927
G1 X100.937 Y150.592 E40.73659
G1 X99.588 Y150.207 E41.07327
G1 X98.645 Y149.9 E41.31129
G1 X97.283 Y149.419 E41.65795
G1 X96.262 Y149.019 E41.92112
G1 X95.089 Y148.523 E42.22678
G1 X94.097 Y148.064 E42.48911
G1 X92.778 Y147.409 E42.84255
G1 X91.873 Y146.919 E43.08955
G1 X90.663 Y146.224 E43.42444
G1 X89.798 Y145.687 E43.66879
G1 X88.59 Y144.893 E44.01573
G1 X87.735 Y144.287 E44.26725
G1 X86.706 Y143.517 E44.57569
G1 X85.787 Y142.782 E44.85812
G1 X84.849 Y141.992 E45.15244
G1 X83.911 Y141.14 E45.45657
G1 X83.011 Y140.28 E45.75533
G1 X82.18 Y139.43 E46.04062
G1 X81.24 Y138.414 E46.37281
G1 X80.548 Y137.607 E46.62795
G1 X79.737 Y136.622 E46.93417
G1 X79.022 Y135.684 E47.21723
G1 X78.279 Y134.661 E47.52068
G1 X77.649 Y133.723 E47.79186
G1 X76.891 Y132.533 E48.13048
G1 X76.385 Y131.669 E48.37078
G1 X75.508 Y130.083 E48.80574
G1 X74.593 Y128.175 E49.31359
G1 X74.183 Y127.226 E49.5617
G1 X73.7 Y126.035 E49.87015
G1 X73.279 Y124.879 E50.16542
G1 X72.878 Y123.68 E50.46884
G1 X72.562 Y122.618 E50.73477
G1 X72.223 Y121.362 E51.047
G1 X71.949 Y120.193 E51.33516
G1 X71.673 Y118.845 E51.66539
G1 X71.498 Y117.799 E51.91992
G1 X71.325 Y116.606 E52.20923
G1 X71.192 Y115.39 E52.50282
G1 X71.086 Y114.085 E52.81705
G1 X71.031 Y112.947 E53.09049
G1 X71.001 Y111.506 E53.4364
G1 X71.016 Y110.478 E53.68315
G1 X71.068 Y109.149 E54.00235
G1 X71.156 Y108 E54.27892
G1 X71.295 Y106.636 E54.60797
G1 X71.429 Y105.655 E54.8456
G1 X71.726 Y103.823 E55.29102
G1 X72.266 Y101.415 E55.88329
G1 X72.908 Y99.185 E56.44023
G1 X73.624 Y97.16 E56.95572
G1 X74.021 Y96.163 E57.21327
G1 X74.516 Y95.001 E57.5164
G1 X75.477 Y92.978 E58.05392
G1 X76.142 Y91.756 E58.38781
G1 X76.986 Y90.294 E58.79296
G1 X78.108 Y88.585 E59.28362
G1 X78.747 Y87.685 E59.54852
G1 X79.653 Y86.482 E59.90996
G1 X80.292 Y85.694 E60.15345
G1 X81.205 Y84.622 E60.49139
G1 X81.918 Y83.843 E60.74484
G1 X82.854 Y82.87 E61.06887
G0 F7200 X83.271 Y83.302
G1 F2400 X84.017 Y82.582 E61.3177
G1 X85.084 Y81.599 E61.66589
G1 X85.835 Y80.956 E61.90317
G1 X86.893 Y80.092 E62.231
G1 X87.761 Y79.439 E62.49169
G1 X89.213 Y78.397 E62.92061
G1 X90.883 Y77.342 E63.39469
G1 X91.826 Y76.794 E63.65645
G1 X93.34 Y75.964 E64.07083
G1 X95.092 Y75.132 E64.53632
G1 X96.117 Y74.689 E64.80431
G1 X97.402 Y74.173 E65.13664
G1 X98.324 Y73.843 E65.37167
G1 X99.568 Y73.429 E65.68633
G1 X100.698 Y73.094 E65.9692
G1 X101.931 Y72.766 E66.27541
G1 X102.987 Y72.524 E66.53542
G1 X104.404 Y72.238 E66.88236
G1 X105.395 Y72.076 E67.12335
G1 X106.67 Y71.895 E67.43242
G1 X107.802 Y71.778 E67.70555
G1 X109.174 Y71.671 E68.03583
G1 X110.167 Y71.627 E68.27438
G1 X111.58 Y71.602 E68.61356
G1 X112.674 Y71.625 E68.87617
G1 X114.455 Y71.703 E69.30402
G1 X116.413 Y71.907 E69.77649
G1 X117.429 Y72.049 E70.0227
G1 X118.639 Y72.247 E70.31696
G1 X119.764 Y72.471 E70.59226
G1 X121.575 Y72.885 E71.03811
G1 X123.604 Y73.481 E71.54565
G1 X125.266 Y74.041 E71.96656
G1 X126.628 Y74.583 E72.31837
G1 X128.185 Y75.246 E72.72452
G1 X129.909 Y76.101 E73.18637
G1 X130.94 Y76.66 E73.46784
G1 X132.044 Y77.294 E73.77338
G1 X132.869 Y77.807 E74.00654
G1 X133.993 Y78.543 E74.32899
G1 X135.785 Y79.832 E74.85877
G1 X136.891 Y80.725 E75.19993
G1 X137.877 Y81.562 E75.51034
G1 X138.642 Y82.255 E75.75807
G1 X139.664 Y83.232 E76.0974
G1 X140.444 Y84.038 E76.36659
G1 X141.294 Y84.959 E76.66738
G1 X141.974 Y85.747 E76.91718
G1 X143.141 Y87.175 E77.35979
G1 X144.263 Y88.727 E77.81941
G1 X144.924 Y89.713 E78.1043
G1 X145.653 Y90.868 E78.4321
G1 X146.152 Y91.723 E78.66969
G1 X146.988 Y93.241 E79.08561
G1 X147.85 Y95.045 E79.56545
G1 X148.263 Y95.993 E79.81363
G1 X148.745 Y97.182 E80.12154
G1 X149.166 Y98.343 E80.41794
G1 X149.594 Y99.624 E80.74208
G1 X149.887 Y100.628 E80.99309
G1 X150.213 Y101.839 E81.29408
G1 X150.466 Y102.919 E81.5603
G1 X150.729 Y104.198 E81.87368
G1 X150.913 Y105.295 E82.14064
G1 X151.111 Y106.683 E82.47713
G1 X151.217 Y107.705 E82.72373
G1 X151.361 Y109.503 E83.15663
G1 X151.401 Y111.504 E83.63696
G1 X151.387 Y112.518 E83.88035
G1 X151.336 Y113.817 E84.19235
G1 X151.256 Y114.862 E84.44388
G1 X151.08 Y116.626 E84.86934
G1 X150.743 Y118.722 E85.37884
G1 X150.348 Y120.64 E85.84883
G1 X149.993 Y122.001 E86.18639
G1 X149.646 Y123.21 E86.48827
G1 X149.311 Y124.233 E86.74662
G1 X148.8 Y125.671 E87.11288
G1 X148.439 Y126.573 E87.34605
G1 X147.751 Y128.191 E87.76802
G1 X146.885 Y129.938 E88.23599
G1 X146.365 Y130.897 E88.49781
G1 X145.703 Y132.047 E88.81627
G1 X145.148 Y132.939 E89.06841
G1 X144.355 Y134.142 E89.41421
G1 X143.774 Y134.957 E89.65443
G1 X142.919 Y136.094 E89.99585
G1 X142.31 Y136.851 E90.22902
G1 X141.422 Y137.898 E90.55851
G1 X140.72 Y138.667 E90.80841
G1 X139.842 Y139.587 E91.11362
G1 X139.001 Y140.405 E91.39519
G1 X137.737 Y141.574 E91.8084
G1 X136.14 Y142.884 E92.30413
G1 X135.336 Y143.493 E92.5462
G1 X134.32 Y144.23 E92.84744
G1 X133.34 Y144.888 E93.13073
G1 X132.271 Y145.568 E93.4348
G1 X131.361 Y146.103 E93.68815
G1 X130.038 Y146.834 E94.05091
G1 X129.099 Y147.306 E94.30314
G1 X127.848 Y147.898 E94.6353
G1 X126.953 Y148.284 E94.86923
G1 X125.793 Y148.754 E95.16961
G1 X124.658 Y149.165 E95.45932
G1 X123.36 Y149.599 E95.7878
G1 X122.425 Y149.872 E96.02157
G1 X121.147 Y150.216 E96.3392
G1 X120.07 Y150.467 E96.60461
G1 X118.701 Y150.746 E96.93992
G1 X117.653 Y150.92 E97.19489
G1 X116.29 Y151.114 E97.5253
G1 X115.303 Y151.216 E97.76344
G1 X113.487 Y151.361 E98.20067
G1 X111.503 Y151.401 E98.67693
G1 X110.534 Y151.385 E98.90952
G1 X108.782 Y151.311 E99.33037
G1 X106.791 Y151.12 E99.81041
G1 X105.556 Y150.951 E100.10957
G1 X104.043 Y150.701 E100.47761
G1 X102.205 Y150.299 E100.92916
G1 X101.101 Y150.015 E101.20275
G1 X99.774 Y149.637 E101.5339
G1 X98.844 Y149.334 E101.76865
G1 X97.502 Y148.861 E102.11015
G1 X96.496 Y148.466 E102.36953
G1 X95.323 Y147.97 E102.67518
G1 X94.364 Y147.526 E102.92881
G1 X93.063 Y146.881 E103.27732
G1 X92.172 Y146.399 E103.52045
G1 X90.979 Y145.714 E103.85061
G1 X90.127 Y145.185 E104.09129
G1 X88.937 Y144.404 E104.43291
G1 X88.094 Y143.806 E104.68097
G1 X87.081 Y143.049 E104.98447
G1 X86.174 Y142.323 E105.2633
G1 X85.236 Y141.533 E105.55762
G1 X84.325 Y140.706 E105.85291
G1 X83.44 Y139.861 E106.14658
G1 X82.62 Y139.022 E106.42814
G1 X81.695 Y138.023 E106.7549
G1 X81.011 Y137.226 E107.00696
G1 X80.214 Y136.258 E107.3079
G1 X79.507 Y135.331 E107.5877
G1 X78.777 Y134.326 E107.88581
G1 X78.155 Y133.401 E108.15333
G1 X77.409 Y132.23 E108.48656
G1 X76.91 Y131.378 E108.72353
G1 X76.049 Y129.823 E109.15012
G1 X75.144 Y127.937 E109.65217
G1 X74.739 Y127 E109.89716
G1 X74.264 Y125.83 E110.20022
G1 X73.848 Y124.688 E110.49192
G1 X73.453 Y123.509 E110.79034
G1 X73.141 Y122.461 E111.05276
G1 X72.807 Y121.225 E111.36004
G1 X72.537 Y120.073 E111.64402
G1 X72.265 Y118.746 E111.96912
G1 X72.092 Y117.713 E112.22049
G1 X71.919 Y116.52 E112.50981
G1 X71.79 Y115.341 E112.79445
G1 X71.685 Y114.056 E113.10388
G1 X71.631 Y112.934 E113.37347
G1 X71.601 Y111.515 E113.71411
G1 X71.616 Y110.501 E113.9575
G1 X71.668 Y109.172 E114.2767
G1 X71.753 Y108.06 E114.54436
G1 X71.889 Y106.717 E114.86833
G1 X72.021 Y105.751 E115.10232
G1 X72.312 Y103.954 E115.53922
G1 X72.843 Y101.581 E116.12283
G1 X73.485 Y99.351 E116.67976
G1 X74.19 Y97.36 E117.18667
G1 X74.573 Y96.398 E117.43518
G1 X75.058 Y95.258 E117.73251
G1 X76.004 Y93.265 E118.26198
G1 X76.662 Y92.056 E118.59233
G1 X77.506 Y90.594 E118.99748
G1 X78.597 Y88.932 E119.47462
G1 X79.226 Y88.046 E119.7354
G1 X80.119 Y86.86 E120.09171
G1 X80.749 Y86.083 E120.33178
G1 X81.648 Y85.027 E120.66462
G1 X82.351 Y84.259 E120.91451
G1 X83.271 Y83.302 E121.2331
G0 F7200 X83.704 Y83.718
G1 F2400 X84.423 Y83.023 E121.4731
G1 X85.474 Y82.055 E121.81603
G1 X86.215 Y81.421 E122.05008
G1 X87.273 Y80.557 E122.37791
G1 X88.111 Y79.926 E122.62967
G1 X89.534 Y78.904 E123.05014
G1 X91.184 Y77.861 E123.51863
G1 X92.115 Y77.32 E123.77705
G1 X93.598 Y76.506 E124.18306
G1 X95.33 Y75.683 E124.64329
G1 X96.341 Y75.246 E124.90762
G1 X97.605 Y74.738 E125.23457
G1 X98.514 Y74.412 E125.46633
G1 X99.738 Y74.004 E125.77598
G1 X100.853 Y73.674 E126.05506
G1 X102.065 Y73.351 E126.35609
G1 X103.106 Y73.112 E126.61243
G1 X104.501 Y72.83 E126.954
G1 X105.479 Y72.67 E127.19184
G1 X106.732 Y72.492 E127.49558
G1 X107.849 Y72.376 E127.7651
G1 X109.2 Y72.27 E128.09034
G1 X110.178 Y72.227 E128.32528
G1 X111.568 Y72.202 E128.65894
G1 X112.648 Y72.224 E128.91819
G1 X114.393 Y72.3 E129.33739
G1 X116.33 Y72.501 E129.80477
G1 X117.332 Y72.641 E130.04758
G1 X118.522 Y72.835 E130.33695
G1 X119.631 Y73.056 E130.60835
G1 X121.406 Y73.461 E131.04529
G1 X123.412 Y74.05 E131.54706
G1 X125.074 Y74.61 E131.96797
G1 X126.393 Y75.135 E132.30869
G1 X127.95 Y75.798 E132.71483
G1 X129.623 Y76.628 E133.16305
G1 X130.641 Y77.18 E133.44098
G1 X131.727 Y77.803 E133.74146
G1 X132.54 Y78.309 E133.97128
G1 X133.664 Y79.045 E134.29373
G1 X135.408 Y80.299 E134.80926
G1 X136.503 Y81.182 E135.14686
G1 X137.474 Y82.007 E135.45266
G1 X138.227 Y82.689 E135.69648
G1 X139.249 Y83.666 E136.03581
G1 X140.003 Y84.445 E136.296
G1 X140.84 Y85.351 E136.59203
G1 X141.509 Y86.127 E136.83793
G1 X142.676 Y87.555 E137.28054
G1 X143.765 Y89.061 E137.72657
G1 X144.417 Y90.033 E138.00747
G1 X145.135 Y91.17 E138.33021
G1 X145.626 Y92.012 E138.56414
G1 X146.462 Y93.53 E138.98005
G1 X147.3 Y95.284 E139.44659
G1 X147.707 Y96.219 E139.69133
G1 X148.181 Y97.387 E139.99385
G1 X148.597 Y98.533 E140.28645
G1 X149.018 Y99.793 E140.60528
G1 X149.308 Y100.784 E140.8531
G1 X149.629 Y101.976 E141.14937
G1 X149.878 Y103.04 E141.41163
G1 X150.137 Y104.297 E141.71965
G1 X150.321 Y105.394 E141.9866
G1 X150.514 Y106.745 E142.31414
G1 X150.619 Y107.753 E142.55737
G1 X150.761 Y109.515 E142.98162
G1 X150.801 Y111.496 E143.45715
G1 X150.787 Y112.494 E143.6967
G1 X150.736 Y113.793 E144.0087
G1 X150.659 Y114.802 E144.25156
G1 X150.483 Y116.566 E144.67702
G1 X150.155 Y118.601 E145.17173
G1 X149.76 Y120.519 E145.64171
G1 X149.416 Y121.835 E145.96816
G1 X149.069 Y123.044 E146.27003
G1 X148.746 Y124.032 E146.5195
G1 X148.243 Y125.448 E146.88015
G1 X147.887 Y126.338 E147.1102
G1 X147.199 Y127.956 E147.53217
G1 X146.357 Y129.652 E147.98661
G1 X145.845 Y130.598 E148.24477
G1 X145.194 Y131.73 E148.55818
G1 X144.647 Y132.609 E148.80665
G1 X143.867 Y133.794 E149.14713
G1 X143.295 Y134.596 E149.38355
G1 X142.451 Y135.718 E149.72051
G1 X141.852 Y136.463 E149.94994
G1 X140.964 Y137.51 E150.27942
G1 X140.286 Y138.253 E150.52083
G1 X139.423 Y139.157 E150.82078
G1 X138.593 Y139.965 E151.09878
G1 X137.356 Y141.11 E151.50332
G1 X135.777 Y142.406 E151.99358
G1 X134.983 Y143.008 E152.23272
G1 X133.986 Y143.732 E152.52844
G1 X133.018 Y144.382 E152.80827
G1 X131.967 Y145.051 E153.10728
G1 X131.071 Y145.578 E153.35676
G1 X129.769 Y146.298 E153.71383
G1 X128.842 Y146.764 E153.96284
G1 X127.61 Y147.347 E154.28996
G1 X126.727 Y147.728 E154.52076
G1 X125.589 Y148.19 E154.81553
G1 X124.468 Y148.596 E155.10167
G1 X123.191 Y149.023 E155.42483
G1 X122.269 Y149.293 E155.65541
G1 X121.011 Y149.632 E155.9681
G1 X119.95 Y149.879 E156.22955
G1 X118.603 Y150.154 E156.55949
G1 X117.568 Y150.326 E156.8113
G1 X116.228 Y150.517 E157.13615
G1 X115.255 Y150.618 E157.37093
G1 X113.475 Y150.761 E157.7995
G1 X111.512 Y150.801 E158.27072
G1 X110.559 Y150.786 E158.49947
G1 X108.839 Y150.714 E158.91263
G1 X106.872 Y150.525 E159.38688
G1 X105.654 Y150.359 E159.68191
G1 X104.141 Y150.109 E160.04995
G1 X102.354 Y149.718 E160.48898
G1 X101.265 Y149.438 E160.75884
G1 X99.96 Y149.067 E161.08445
G1 X99.043 Y148.768 E161.31593
G1 X97.722 Y148.303 E161.65204
G1 X96.73 Y147.913 E161.90786
G1 X95.575 Y147.425 E162.20879
G1 X94.63 Y146.988 E162.45866
G1 X93.348 Y146.353 E162.80202
G1 X92.471 Y145.879 E163.04127
G1 X91.295 Y145.204 E163.3667
G1 X90.456 Y144.684 E163.6036
G1 X89.284 Y143.914 E163.94015
G1 X88.453 Y143.325 E164.18461
G1 X87.456 Y142.581 E164.48317
G1 X86.561 Y141.864 E164.7584
G1 X85.623 Y141.074 E165.05273
G1 X84.739 Y140.272 E165.33919
G1 X83.869 Y139.442 E165.62777
