;FLAVOR:UltiGCode
;TIME:3371
;MATERIAL:13527
;MATERIAL2:0
;NOZZLE_DIAMETER:0.6
;MINX:64.161
;MINY:64.157
;MINZ:0.4
;MAXX:158.845
;MAXY:158.844
;MAXZ:23.95
;TARGET_MACHINE.NAME:Ultimaker 2+
;Generated with Cura_SteamEngine 5.10.0
G0 F3000 Y50 ;avoid prime blob
M104 S230 ; Régler la température de l'extrudeur à 230°C
M140 S58 ; Régle la température du plateau à 58°C
M42 P8 S255 ; Allume les LED à pleine 100%
M82 ;absolute extrusion mode
G92 E0
G92 E0
G10
;LAYER_COUNT:158
;LAYER:0
M107
G0 F7200 X77.997 Y78.055 Z0.4
;TYPE:SKIRT
G11
G1 F2400 X78.838 Y77.24 E0.28107
G1 X80.111 Y76.066 E0.69668
G1 X80.908 Y75.383 E0.94858
G1 X82.395 Y74.166 E1.40975
G1 X83.218 Y73.545 E1.65719
G1 X84.706 Y72.474 E2.0972
G1 X85.549 Y71.916 E2.33982
G1 X87.004 Y70.992 E2.75349
G1 X88.044 Y70.388 E3.04213
G1 X89.629 Y69.519 E3.47595
G1 X90.578 Y69.043 E3.73076
G1 X92.115 Y68.314 E4.13902
G1 X93.145 Y67.872 E4.40802
G1 X94.715 Y67.239 E4.8143
G1 X95.892 Y66.815 E5.11455
G1 X97.575 Y66.255 E5.54024
G1 X99.852 Y65.606 E6.10848
G1 X101.162 Y65.306 E6.43102
G1 X102.856 Y64.952 E6.84637
G1 X103.976 Y64.764 E7.11893
G1 X105.809 Y64.5 E7.56339
G1 X106.785 Y64.398 E7.7989
G1 X109.069 Y64.21 E8.34892
G1 X111.509 Y64.157 E8.93465
G1 X112.542 Y64.172 E9.1826
G1 X114.28 Y64.237 E9.60001
G1 X115.391 Y64.322 E9.86743
G1 X117.202 Y64.501 E10.30419
G1 X118.24 Y64.642 E10.5556
G1 X120.284 Y64.968 E11.05236
G1 X122.836 Y65.533 E11.67967
G1 X123.822 Y65.792 E11.92434
G1 X125.572 Y66.295 E12.36134
G1 X126.576 Y66.626 E12.61506
G1 X128.553 Y67.325 E13.11832
G1 X130.9 Y68.313 E13.72948
G1 X131.832 Y68.748 E13.97632
G1 X133.415 Y69.533 E14.40039
G1 X134.402 Y70.068 E14.66983
G1 X135.634 Y70.763 E15.00931
G1 X136.803 Y71.49 E15.3397
G1 X138.334 Y72.495 E15.77924
G1 X139.243 Y73.145 E16.04743
G1 X140.595 Y74.153 E16.45217
G1 X141.486 Y74.871 E16.7268
G1 X142.889 Y76.056 E17.16756
G1 X143.652 Y76.753 E17.41558
G1 X144.825 Y77.869 E17.80415
G1 X145.726 Y78.796 E18.11441
G1 X147.13 Y80.312 E18.61031
G1 X148.76 Y82.29 E19.22545
G1 X149.387 Y83.117 E19.47453
G1 X150.403 Y84.521 E19.89046
G1 X151.034 Y85.463 E20.16257
G1 X152.016 Y87.007 E20.60173
G1 X152.543 Y87.909 E20.85245
G1 X153.554 Y89.732 E21.35275
G1 X154.683 Y92.09 E21.98019
G1 X155.093 Y93.043 E22.22918
G1 X155.927 Y95.11 E22.76412
G1 X156.781 Y97.647 E23.40657
G1 X157.47 Y100.17 E24.03427
G1 X157.693 Y101.15 E24.27548
G1 X158.072 Y102.975 E24.72282
G1 X158.244 Y104.012 E24.9751
G1 X158.505 Y105.832 E25.41637
G1 X158.606 Y106.8 E25.64995
G1 X158.791 Y109.057 E26.19345
G1 X158.845 Y111.503 E26.78063
G1 X158.83 Y112.549 E27.0317
G1 X158.765 Y114.273 E27.44575
G1 X158.676 Y115.433 E27.72497
G1 X158.499 Y117.21 E28.15356
G1 X158.363 Y118.208 E28.3953
G1 X158.094 Y119.902 E28.80695
G1 X157.868 Y121.045 E29.08658
G1 X157.488 Y122.754 E29.50676
G1 X157.217 Y123.791 E29.764
G1 X156.809 Y125.25 E30.12759
G1 X156.406 Y126.486 E30.4396
G1 X155.788 Y128.237 E30.88524
G1 X155.377 Y129.276 E31.15341
G1 X154.737 Y130.788 E31.54745
G1 X154.225 Y131.882 E31.83735
G1 X153.429 Y133.485 E32.26689
G1 X152.909 Y134.438 E32.52744
G1 X152.006 Y136.01 E32.96254
G1 X151.48 Y136.848 E33.19999
G1 X150.272 Y138.684 E33.72746
G1 X148.896 Y140.535 E34.281
G1 X148.131 Y141.486 E34.57392
G1 X146.754 Y143.113 E35.08548
G1 X144.728 Y145.236 E35.78978
G1 X142.68 Y147.138 E36.46057
G1 X140.735 Y148.741 E37.06548
G1 X139.931 Y149.351 E37.30769
G1 X138.414 Y150.451 E37.75741
G1 X137.567 Y151.017 E38.0019
G1 X136.107 Y151.947 E38.41735
G1 X135.137 Y152.515 E38.68713
G1 X133.244 Y153.566 E39.20677
G1 X130.922 Y154.677 E39.82456
G1 X129.944 Y155.098 E40.0801
G1 X127.913 Y155.918 E40.60577
G1 X125.323 Y156.79 E41.26166
G1 X122.825 Y157.469 E41.88293
G1 X121.785 Y157.706 E42.13893
G1 X120.135 Y158.048 E42.54334
G1 X119.071 Y158.231 E42.80245
G1 X117.374 Y158.479 E43.21406
G1 X116.108 Y158.613 E43.5196
G1 X114.353 Y158.755 E43.94217
G1 X113.316 Y158.804 E44.19133
G1 X111.503 Y158.844 E44.62656
G1 X110.419 Y158.827 E44.88675
G1 X108.727 Y158.763 E45.29312
G1 X107.615 Y158.678 E45.56078
G1 X105.391 Y158.458 E46.09714
G1 X103.046 Y158.084 E46.66706
G1 X101.936 Y157.863 E46.93868
G1 X100.31 Y157.502 E47.33843
G1 X99.161 Y157.202 E47.62343
G1 X97.152 Y156.625 E48.12508
G1 X94.741 Y155.777 E48.73847
G1 X93.755 Y155.386 E48.99304
G1 X92.184 Y154.721 E49.40247
G1 X91.114 Y154.223 E49.68572
G1 X89.63 Y153.487 E50.08328
G1 X88.622 Y152.94 E50.35852
G1 X86.804 Y151.893 E50.86202
G1 X84.529 Y150.412 E51.51353
G1 X82.453 Y148.877 E52.13317
G1 X81.668 Y148.248 E52.37459
G1 X79.924 Y146.78 E52.92169
G1 X78.254 Y145.198 E53.47378
G1 X77.409 Y144.335 E53.76365
G1 X76.242 Y143.089 E54.17337
G1 X75.487 Y142.216 E54.45038
G1 X74.321 Y140.801 E54.89042
G1 X73.68 Y139.959 E55.1444
G1 X72.433 Y138.245 E55.65311
G1 X71.029 Y136.053 E56.27785
G1 X70.54 Y135.217 E56.51029
G1 X69.691 Y133.703 E56.92688
G1 X69.155 Y132.647 E57.2111
G1 X68.373 Y131.014 E57.64564
G1 X67.966 Y130.075 E57.89126
G1 X67.317 Y128.488 E58.30276
G1 X66.903 Y127.359 E58.59136
G1 X66.368 Y125.783 E58.9908
G1 X66.045 Y124.7 E59.26203
G1 X65.476 Y122.605 E59.78305
G1 X64.943 Y120.066 E60.40569
G1 X64.776 Y119.072 E60.64759
G1 X64.536 Y117.441 E61.04325
G1 X64.404 Y116.227 E61.33633
G1 X64.261 Y114.522 E61.74696
G1 X64.203 Y113.342 E62.03051
G1 X64.161 Y111.502 E62.47222
G1 X64.175 Y110.525 E62.70672
G1 X64.239 Y108.762 E63.13012
G1 X64.325 Y107.63 E63.40259
G1 X64.505 Y105.799 E63.84414
G1 X64.643 Y104.792 E64.08808
G1 X64.94 Y102.949 E64.53611
G1 X65.136 Y101.963 E64.77738
G1 X65.59 Y99.919 E65.27989
G1 X66.269 Y97.533 E65.87527
G1 X66.651 Y96.369 E66.16929
G1 X67.26 Y94.656 E66.60562
G1 X67.631 Y93.723 E66.84659
G1 X68.239 Y92.27 E67.22461
G1 X68.778 Y91.123 E67.52877
G1 X69.778 Y89.116 E68.06693
G1 X71.026 Y86.948 E68.6673
G1 X71.556 Y86.103 E68.90669
G1 X72.519 Y84.639 E69.32725
G1 X73.161 Y83.74 E69.59238
G1 X74.198 Y82.353 E70.00801
G1 X74.96 Y81.411 E70.2988
G1 X76.121 Y80.047 E70.72869
G1 X76.834 Y79.269 E70.98196
G1 X77.997 Y78.055 E71.38544
G0 F7200 X78.414 Y78.486
G1 F2400 X79.245 Y77.681 E71.66312
G1 X80.502 Y76.521 E72.07362
G1 X81.288 Y75.847 E72.32212
G1 X82.756 Y74.645 E72.77748
G1 X83.569 Y74.032 E73.02185
G1 X85.057 Y72.961 E73.46185
G1 X85.871 Y72.422 E73.69616
G1 X87.305 Y71.511 E74.1039
G1 X88.333 Y70.914 E74.3892
G1 X89.898 Y70.055 E74.81766
G1 X90.835 Y69.585 E75.06925
G1 X92.352 Y68.865 E75.47225
G1 X93.369 Y68.428 E75.73791
G1 X94.919 Y67.803 E76.13902
G1 X96.081 Y67.384 E76.43547
G1 X97.74 Y66.832 E76.85509
G1 X99.986 Y66.191 E77.41566
G1 X101.285 Y65.893 E77.73552
G1 X102.955 Y65.544 E78.14497
G1 X104.062 Y65.358 E78.41438
G1 X105.872 Y65.097 E78.85327
G1 X106.834 Y64.996 E79.08542
G1 X109.082 Y64.81 E79.62678
G1 X111.5 Y64.757 E80.20724
G1 X112.52 Y64.772 E80.45207
G1 X114.258 Y64.837 E80.86948
G1 X115.332 Y64.919 E81.12799
G1 X117.121 Y65.096 E81.55945
G1 X118.145 Y65.235 E81.80746
G1 X120.189 Y65.561 E82.30422
G1 X122.683 Y66.113 E82.91727
G1 X123.656 Y66.369 E83.15874
G1 X125.384 Y66.865 E83.5902
G1 X126.376 Y67.192 E83.84088
G1 X128.353 Y67.891 E84.34415
G1 X130.646 Y68.857 E84.94131
G1 X131.565 Y69.286 E85.18472
G1 X133.148 Y70.071 E85.60879
G1 X134.107 Y70.591 E85.8706
G1 X135.339 Y71.286 E86.21009
G1 X136.474 Y71.992 E86.53088
G1 X137.985 Y72.983 E86.96456
G1 X138.885 Y73.626 E87.23002
G1 X140.219 Y74.62 E87.62929
G1 X141.099 Y75.329 E87.90051
G1 X142.484 Y76.499 E88.33564
G1 X143.238 Y77.188 E88.58077
G1 X144.411 Y78.304 E88.96935
G1 X145.286 Y79.204 E89.27061
G1 X146.667 Y80.694 E89.75818
G1 X148.297 Y82.672 E90.37332
G1 X148.901 Y83.469 E90.61333
G1 X149.905 Y84.855 E91.02407
G1 X150.528 Y85.785 E91.29272
G1 X151.498 Y87.31 E91.72649
G1 X152.018 Y88.2 E91.97387
G1 X153.029 Y90.023 E92.47417
G1 X154.132 Y92.327 E93.08723
G1 X154.537 Y93.268 E93.3331
G1 X155.358 Y95.301 E93.8593
G1 X156.212 Y97.838 E94.50176
G1 X156.885 Y100.303 E95.11501
G1 X157.106 Y101.272 E95.35354
G1 X157.48 Y103.073 E95.795
G1 X157.65 Y104.097 E96.04413
G1 X157.908 Y105.895 E96.48007
G1 X158.008 Y106.849 E96.71028
G1 X158.191 Y109.07 E97.24513
G1 X158.245 Y111.494 E97.82703
G1 X158.23 Y112.526 E98.07474
G1 X158.165 Y114.25 E98.48879
G1 X158.079 Y115.373 E98.7591
G1 X157.904 Y117.129 E99.18263
G1 X157.77 Y118.114 E99.42121
G1 X157.505 Y119.786 E99.82749
G1 X157.282 Y120.915 E100.10369
G1 X156.902 Y122.624 E100.52387
G1 X156.639 Y123.629 E100.77319
G1 X156.231 Y125.088 E101.13678
G1 X155.84 Y126.286 E101.43923
G1 X155.23 Y128.016 E101.87948
G1 X154.824 Y129.042 E102.1443
G1 X154.193 Y130.534 E102.53309
G1 X153.688 Y131.615 E102.81944
G1 X152.902 Y133.198 E103.24362
G1 X152.389 Y134.139 E103.50084
G1 X151.498 Y135.691 E103.93034
G1 X150.979 Y136.518 E104.16466
G1 X149.79 Y138.326 E104.68401
G1 X148.414 Y140.177 E105.23755
G1 X147.673 Y141.098 E105.52125
G1 X146.296 Y142.725 E106.03281
G1 X144.32 Y144.796 E106.71979
G1 X142.272 Y146.698 E107.39059
G1 X140.372 Y148.263 E107.98136
G1 X139.579 Y148.865 E108.22031
G1 X138.08 Y149.952 E108.6647
G1 X137.244 Y150.511 E108.90606
G1 X135.804 Y151.429 E109.31592
G1 X134.846 Y151.99 E109.58236
G1 X132.953 Y153.041 E110.102
G1 X130.685 Y154.126 E110.7054
G1 X129.719 Y154.542 E110.95783
G1 X127.722 Y155.349 E111.47476
G1 X125.132 Y156.221 E112.13065
G1 X122.692 Y156.884 E112.73748
G1 X121.663 Y157.118 E112.99075
G1 X120.013 Y157.46 E113.39516
G1 X118.984 Y157.637 E113.64575
G1 X117.311 Y157.882 E114.05155
G1 X116.059 Y158.015 E114.35372
G1 X114.325 Y158.156 E114.77126
G1 X113.303 Y158.204 E115.01681
G1 X111.513 Y158.244 E115.44651
G1 X110.442 Y158.227 E115.70359
G1 X108.75 Y158.163 E116.10996
G1 X107.674 Y158.081 E116.36895
G1 X105.485 Y157.865 E116.89686
G1 X103.14 Y157.491 E117.46677
G1 X102.066 Y157.277 E117.7296
G1 X100.44 Y156.916 E118.12934
G1 X99.327 Y156.625 E118.40544
G1 X97.318 Y156.048 E118.90709
G1 X94.962 Y155.219 E119.50651
G1 X93.989 Y154.833 E119.75774
G1 X92.437 Y154.177 E120.16212
G1 X91.381 Y153.685 E120.44172
G1 X89.897 Y152.949 E120.83928
G1 X88.921 Y152.42 E121.10571
G1 X87.131 Y151.39 E121.60136
G1 X84.856 Y149.909 E122.25286
G1 X82.828 Y148.409 E122.85825
G1 X82.054 Y147.789 E123.09626
G1 X80.337 Y146.344 E123.63485
G1 X78.683 Y144.778 E124.1815
G1 X77.847 Y143.925 E124.46815
G1 X76.696 Y142.697 E124.87209
G1 X75.95 Y141.834 E125.14587
G1 X74.798 Y140.437 E125.58044
G1 X74.165 Y139.606 E125.83115
G1 X72.918 Y137.892 E126.33986
G1 X71.547 Y135.75 E126.95023
G1 X71.063 Y134.923 E127.1802
G1 X70.226 Y133.431 E127.59078
G1 X69.696 Y132.388 E127.87156
G1 X68.923 Y130.775 E128.30084
G1 X68.521 Y129.848 E128.54334
G1 X67.88 Y128.282 E128.94945
G1 X67.471 Y127.166 E129.23471
G1 X66.943 Y125.611 E129.62884
G1 X66.624 Y124.543 E129.89635
G1 X66.055 Y122.448 E130.41736
G1 X65.535 Y119.967 E131.02574
G1 X65.37 Y118.985 E131.26472
G1 X65.13 Y117.354 E131.66038
G1 X65.002 Y116.177 E131.94452
G1 X64.86 Y114.493 E132.35012
G1 X64.803 Y113.328 E132.63005
G1 X64.761 Y111.511 E133.06625
G1 X64.775 Y110.547 E133.29763
G1 X64.839 Y108.784 E133.72103
G1 X64.922 Y107.689 E133.98458
G1 X65.1 Y105.88 E134.42084
G1 X65.235 Y104.888 E134.66112
G1 X65.529 Y103.066 E135.10405
G1 X65.722 Y102.093 E135.34212
G1 X66.176 Y100.049 E135.84464
G1 X66.839 Y97.72 E136.4258
G1 X67.216 Y96.57 E136.71626
G1 X67.817 Y94.878 E137.14719
G1 X68.185 Y93.954 E137.38589
G1 X68.782 Y92.525 E137.75758
G1 X69.315 Y91.391 E138.0583
G1 X70.315 Y89.384 E138.59646
G1 X71.534 Y87.267 E139.18275
G1 X72.057 Y86.433 E139.41901
G1 X73.008 Y84.987 E139.83438
G1 X73.641 Y84.099 E140.09611
G1 X74.665 Y82.73 E140.50641
G1 X75.417 Y81.8 E140.79345
G1 X76.564 Y80.452 E141.21824
G1 X77.267 Y79.684 E141.46812
G1 X78.414 Y78.486 E141.86617
G0 F7200 X78.832 Y78.917
G1 F2400 X79.652 Y78.122 E142.14028
G1 X80.893 Y76.976 E142.54569
G1 X81.668 Y76.311 E142.79078
G1 X83.118 Y75.124 E143.24051
G1 X83.919 Y74.519 E143.48142
G1 X85.389 Y73.461 E143.9161
G1 X86.193 Y72.928 E144.14761
G1 X87.606 Y72.03 E144.54942
G1 X88.622 Y71.44 E144.83139
G1 X90.167 Y70.591 E145.25449
G1 X91.092 Y70.127 E145.50285
G1 X92.589 Y69.416 E145.9006
G1 X93.593 Y68.984 E146.16292
G1 X95.123 Y68.367 E146.55885
G1 X96.271 Y67.953 E146.85174
G1 X97.905 Y67.409 E147.26506
G1 X100.12 Y66.776 E147.81794
G1 X101.408 Y66.48 E148.13512
G1 X103.055 Y66.136 E148.53893
G1 X104.148 Y65.952 E148.80494
G1 X105.935 Y65.694 E149.23827
G1 X106.884 Y65.594 E149.46729
G1 X109.095 Y65.41 E149.99976
G1 X111.491 Y65.357 E150.57494
G1 X112.498 Y65.372 E150.81665
G1 X114.236 Y65.437 E151.23406
G1 X115.273 Y65.516 E151.48366
G1 X117.04 Y65.691 E151.90982
G1 X118.05 Y65.828 E152.15444
G1 X120.094 Y66.154 E152.6512
G1 X122.53 Y66.693 E153.24998
G1 X123.491 Y66.946 E153.48848
G1 X125.196 Y67.435 E153.91417
G1 X126.176 Y67.758 E154.16182
G1 X128.153 Y68.457 E154.66508
G1 X130.392 Y69.401 E155.24825
G1 X131.298 Y69.824 E155.48822
G1 X132.881 Y70.609 E155.91229
G1 X133.812 Y71.114 E156.16649
G1 X135.044 Y71.809 E156.50597
G1 X136.145 Y72.494 E156.81718
G1 X137.636 Y73.471 E157.245
G1 X138.527 Y74.107 E157.50773
G1 X139.843 Y75.087 E157.90152
G1 X140.712 Y75.787 E158.16933
G1 X142.079 Y76.942 E158.59884
G1 X142.824 Y77.623 E158.84108
G1 X143.997 Y78.739 E159.22966
G1 X144.846 Y79.612 E159.52192
G1 X146.227 Y81.102 E160.00949
G1 X147.819 Y83.035 E160.6105
G1 X148.415 Y83.821 E160.84724
G1 X149.407 Y85.189 E161.2528
G1 X150.022 Y86.107 E161.51799
G1 X150.98 Y87.613 E161.94636
G1 X151.493 Y88.491 E162.19041
G1 X152.504 Y90.314 E162.69071
G1 X153.581 Y92.564 E163.28938
G1 X153.981 Y93.493 E163.53213
G1 X154.789 Y95.492 E164.0496
G1 X155.643 Y98.029 E164.69205
G1 X156.3 Y100.437 E165.2911
G1 X156.519 Y101.394 E165.52672
G1 X156.888 Y103.171 E165.96229
G1 X157.056 Y104.182 E166.20826
G1 X157.311 Y105.958 E166.63887
G1 X157.41 Y106.899 E166.86596
G1 X157.591 Y109.083 E167.39191
G1 X157.645 Y111.485 E167.96854
G1 X157.63 Y112.503 E168.21289
G1 X157.565 Y114.227 E168.62694
G1 X157.482 Y115.313 E168.88834
G1 X157.309 Y117.048 E169.30681
G1 X157.177 Y118.02 E169.54223
G1 X156.916 Y119.67 E169.94315
G1 X156.696 Y120.785 E170.21591
G1 X156.316 Y122.494 E170.63609
G1 X156.061 Y123.467 E170.87749
G1 X155.653 Y124.926 E171.24109
G1 X155.274 Y126.087 E171.5342
G1 X154.672 Y127.795 E171.96883
G1 X154.271 Y128.808 E172.23031
G1 X153.649 Y130.28 E172.61383
G1 X153.151 Y131.348 E172.89665
G1 X152.375 Y132.911 E173.31546
G1 X151.869 Y133.84 E173.56935
G1 X150.989 Y135.373 E173.99358
G1 X150.478 Y136.189 E174.22465
G1 X149.309 Y137.968 E174.73554
G1 X147.946 Y139.801 E175.28375
G1 X147.215 Y140.71 E175.5637
G1 X145.838 Y142.337 E176.07526
G1 X143.912 Y144.356 E176.74493
G1 X141.89 Y146.235 E177.4074
G1 X140.009 Y147.785 E177.99236
G1 X139.227 Y148.379 E178.22805
G1 X137.747 Y149.453 E178.66692
G1 X136.921 Y150.005 E178.90535
G1 X135.501 Y150.911 E179.30961
G1 X134.555 Y151.465 E179.57272
G1 X132.662 Y152.516 E180.09236
G1 X130.448 Y153.575 E180.68138
G1 X129.494 Y153.986 E180.93068
G1 X127.531 Y154.78 E181.43888
G1 X124.941 Y155.652 E182.09477
G1 X122.559 Y156.299 E182.68716
G1 X121.541 Y156.531 E182.93775
G1 X119.912 Y156.869 E183.33703
G1 X118.897 Y157.043 E183.58419
G1 X117.247 Y157.285 E183.98442
G1 X116.01 Y157.417 E184.28299
G1 X114.297 Y157.557 E184.69548
G1 X113.289 Y157.604 E184.93766
G1 X111.523 Y157.644 E185.36161
G1 X110.465 Y157.627 E185.61556
G1 X108.773 Y157.563 E186.02193
G1 X107.733 Y157.484 E186.27225
G1 X105.579 Y157.272 E186.79171
G1 X103.234 Y156.898 E187.36162
G1 X102.196 Y156.691 E187.61565
G1 X100.592 Y156.335 E188.00998
G1 X99.493 Y156.048 E188.28258
G1 X97.484 Y155.471 E188.78423
G1 X95.183 Y154.661 E189.36969
G1 X94.222 Y154.28 E189.6178
G1 X92.69 Y153.633 E190.01692
G1 X91.647 Y153.147 E190.29308
G1 X90.183 Y152.422 E190.68517
G1 X89.22 Y151.9 E190.94806
G1 X87.458 Y150.887 E191.43584
G1 X85.183 Y149.406 E192.08734
G1 X83.203 Y147.941 E192.67848
G1 X82.44 Y147.33 E192.91307
G1 X80.75 Y145.908 E193.44315
G1 X79.096 Y144.342 E193.98981
G1 X78.285 Y143.515 E194.2678
G1 X77.15 Y142.304 E194.66614
G1 X76.413 Y141.452 E194.93651
G1 X75.275 Y140.073 E195.36561
G1 X74.65 Y139.253 E195.61306
G1 X73.423 Y137.568 E196.11331
G1 X72.065 Y135.447 E196.71775
