;FLAVOR:UltiGCode
;TIME:2357
;MATERIAL:12113
;MATERIAL2:0
;NOZZLE_DIAMETER:0.6
;MINX:71.004
;MINY:71.002
;MINZ:0.4
;MAXX:151.998
;MAXY:152.009
;MAXZ:17.95
;TARGET_MACHINE.NAME:Ultimaker 2+
;Generated with Cura_SteamEngine 5.10.0
G0 F3000 Y50 ;avoid prime blob
M104 S230 ; Régler la température de l'extrudeur à 230°C
M140 S58 ; Régle la température du plateau à 58°C
M42 P8 S255 ; Allume les LED à pleine 100%
M82 ;absolute extrusion mode
G92 E0
G92 E0
G10
;LAYER_COUNT:118
;LAYER:0
M107
G0 F7200 X82.736 Y82.994 Z0.4
;TYPE:SKIRT
G11
G1 F2400 X83.46 Y82.282 E0.24371
G1 X84.333 Y81.463 E0.53099
G1 X86.029 Y80.009 E1.06714
G1 X87.216 Y79.098 E1.42625
G1 X88.668 Y78.044 E1.85686
G1 X90.445 Y76.904 E2.36356
G1 X91.937 Y76.029 E2.77868
G1 X93.207 Y75.37 E3.12207
G1 X94.43 Y74.772 E3.4488
G1 X95.424 Y74.331 E3.70978
G1 X97.132 Y73.624 E4.15343
G1 X99.28 Y72.876 E4.69932
G1 X101.334 Y72.294 E5.21168
G1 X103.211 Y71.847 E5.67476
G1 X104.638 Y71.586 E6.02292
G1 X106.077 Y71.362 E6.37244
G1 X107.092 Y71.243 E6.61771
G1 X108.513 Y71.11 E6.96024
G1 X110.536 Y71.003 E7.44644
G1 X111.842 Y71.002 E7.75988
G1 X113.345 Y71.039 E8.12071
G1 X114.346 Y71.101 E8.36141
G1 X115.604 Y71.205 E8.66436
G1 X116.769 Y71.344 E8.94594
G1 X118.423 Y71.585 E9.34709
G1 X120.516 Y72.013 E9.85981
G1 X121.546 Y72.267 E10.11441
G1 X122.77 Y72.598 E10.41873
G1 X123.834 Y72.926 E10.68594
G1 X125.017 Y73.322 E10.98535
G1 X126.087 Y73.721 E11.25942
G1 X127.434 Y74.264 E11.60798
G1 X128.34 Y74.668 E11.84606
G1 X129.645 Y75.287 E12.19271
G1 X131.363 Y76.193 E12.65885
G1 X132.609 Y76.935 E13.0069
G1 X133.672 Y77.604 E13.30834
G1 X134.631 Y78.257 E13.58679
G1 X135.81 Y79.103 E13.93506
G1 X137.32 Y80.284 E14.39513
G1 X139.192 Y81.936 E14.99434
G1 X140.228 Y82.951 E15.34243
G1 X141.353 Y84.118 E15.73146
G1 X142.949 Y85.97 E16.31821
G1 X144.136 Y87.518 E16.78638
G1 X145.375 Y89.285 E17.30433
G1 X146.11 Y90.468 E17.63858
G1 X146.736 Y91.529 E17.93424
G1 X147.318 Y92.606 E18.22805
G1 X147.951 Y93.846 E18.56218
G1 X148.388 Y94.786 E18.81097
G1 X148.959 Y96.106 E19.15614
G1 X149.52 Y97.548 E19.52749
G1 X150.075 Y99.165 E19.93779
G1 X150.522 Y100.649 E20.30976
G1 X150.769 Y101.604 E20.5465
G1 X151.196 Y103.432 E20.99703
G1 X151.525 Y105.32 E21.45698
G1 X151.674 Y106.393 E21.71697
G1 X151.821 Y107.698 E22.03215
G1 X151.912 Y108.888 E22.31858
G1 X151.983 Y110.255 E22.64711
G1 X151.998 Y111.257 E22.88761
G1 X151.983 Y112.689 E23.23131
G1 X151.94 Y113.702 E23.47465
G1 X151.82 Y115.428 E23.88989
G1 X151.518 Y117.789 E24.46115
G1 X151.026 Y120.374 E25.09268
G1 X150.536 Y122.298 E25.56918
G1 X150.257 Y123.243 E25.80566
G1 X149.679 Y125.043 E26.25939
G1 X148.973 Y126.87 E26.72947
G1 X148.545 Y127.869 E26.9903
G1 X148.009 Y129.04 E27.29939
G1 X147.53 Y129.994 E27.55559
G1 X146.909 Y131.165 E27.8737
G1 X146.327 Y132.174 E28.15326
G1 X145.42 Y133.654 E28.56985
G1 X144.039 Y135.633 E29.14902
G1 X142.734 Y137.282 E29.65372
G1 X142.058 Y138.074 E29.90363
G1 X141.116 Y139.126 E30.24253
G1 X140.394 Y139.875 E30.49221
G1 X139.463 Y140.798 E30.80685
G1 X138.672 Y141.528 E31.06518
G1 X137.696 Y142.387 E31.37722
G1 X136.792 Y143.128 E31.65776
G1 X135.668 Y143.999 E31.99903
G1 X134.881 Y144.565 E32.23168
G1 X133.799 Y145.31 E32.54697
G1 X132.814 Y145.933 E32.82668
G1 X131.481 Y146.729 E33.1993
G1 X129.934 Y147.574 E33.62236
G1 X128.726 Y148.153 E33.94386
G1 X127.353 Y148.771 E34.30522
G1 X125.48 Y149.521 E34.78944
G1 X124.262 Y149.935 E35.09819
G1 X122.829 Y150.387 E35.45881
G1 X121.88 Y150.646 E35.6949
G1 X120.6 Y150.967 E36.01161
G1 X119.532 Y151.195 E36.27371
G1 X118.216 Y151.44 E36.59497
G1 X117.147 Y151.601 E36.85443
G1 X115.286 Y151.833 E37.30453
G1 X113.406 Y151.957 E37.75671
G1 X111.246 Y152.009 E38.27526
G1 X109.89 Y151.966 E38.60086
G1 X108.401 Y151.881 E38.9588
G1 X106.394 Y151.684 E39.4428
G1 X105.023 Y151.476 E39.7756
G1 X103.784 Y151.257 E40.07757
G1 X102.727 Y151.035 E40.33679
G1 X101.282 Y150.688 E40.69344
G1 X100.327 Y150.423 E40.93131
G1 X98.973 Y150.013 E41.27084
G1 X98.02 Y149.686 E41.51265
G1 X96.811 Y149.241 E41.82184
G1 X94.809 Y148.409 E42.34216
G1 X93.612 Y147.832 E42.66107
G1 X92.458 Y147.243 E42.97202
G1 X91.353 Y146.629 E43.27541
G1 X90.157 Y145.916 E43.60959
G1 X88.439 Y144.8 E44.10127
G1 X86.922 Y143.685 E44.55311
G1 X85.522 Y142.566 E44.98325
G1 X84.175 Y141.397 E45.4113
G1 X82.794 Y140.065 E45.87178
G1 X81.343 Y138.536 E46.37768
G1 X80.477 Y137.522 E46.69771
G1 X79.309 Y136.081 E47.14289
G1 X78.193 Y134.53 E47.60148
G1 X77.526 Y133.528 E47.89037
G1 X76.84 Y132.442 E48.19865
G1 X75.773 Y130.575 E48.71475
G1 X75.12 Y129.276 E49.06368
G1 X74.585 Y128.146 E49.36374
G1 X74.171 Y127.189 E49.61399
G1 X73.509 Y125.542 E50.04001
G1 X72.69 Y123.096 E50.65908
G1 X72.171 Y121.145 E51.1436
G1 X71.946 Y120.161 E51.38586
G1 X71.664 Y118.774 E51.72555
G1 X71.493 Y117.742 E51.97661
G1 X71.308 Y116.451 E52.28961
G1 X71.194 Y115.373 E52.54977
G1 X71.089 Y114.077 E52.86183
G1 X71.033 Y112.912 E53.14176
G1 X71.004 Y111.509 E53.47855
G1 X71.018 Y110.518 E53.71641
G1 X71.063 Y109.303 E54.00821
G1 X71.158 Y108.022 E54.3165
G1 X71.286 Y106.727 E54.62881
G1 X71.426 Y105.689 E54.88019
G1 X71.697 Y103.988 E55.29357
G1 X72.233 Y101.562 E55.88986
G1 X72.826 Y99.493 E56.40641
G1 X73.467 Y97.574 E56.89198
G1 X73.981 Y96.265 E57.22949
G1 X74.475 Y95.097 E57.53386
G1 X74.931 Y94.112 E57.79436
G1 X75.599 Y92.765 E58.15521
G1 X76.072 Y91.893 E58.3933
G1 X76.72 Y90.758 E58.70696
G1 X77.321 Y89.788 E58.98083
G1 X78.087 Y88.62 E59.31605
G1 X78.674 Y87.793 E59.55945
G1 X79.463 Y86.728 E59.87755
G1 X80.138 Y85.884 E60.13692
G1 X81.038 Y84.816 E60.47212
G1 X81.766 Y84.015 E60.73189
G1 X82.736 Y82.994 E61.06989
G0 F7200 X83.156 Y83.422
G1 F2400 X83.871 Y82.72 E61.31037
G1 X84.744 Y81.901 E61.59766
G1 X86.394 Y80.485 E62.11949
G1 X87.569 Y79.583 E62.475
G1 X88.992 Y78.549 E62.89716
G1 X90.749 Y77.422 E63.39813
G1 X92.241 Y76.547 E63.81325
G1 X93.471 Y75.909 E64.1458
G1 X94.694 Y75.311 E64.47253
G1 X95.654 Y74.885 E64.72459
G1 X97.329 Y74.191 E65.15973
G1 X99.477 Y73.443 E65.70562
G1 X101.473 Y72.878 E66.20348
G1 X103.35 Y72.431 E66.66656
G1 X104.731 Y72.179 E67.00347
G1 X106.147 Y71.958 E67.34742
G1 X107.148 Y71.84 E67.58933
G1 X108.545 Y71.709 E67.92608
G1 X110.536 Y71.603 E68.40459
G1 X111.827 Y71.602 E68.71444
G1 X113.308 Y71.638 E69.06998
G1 X114.297 Y71.699 E69.30779
G1 X115.533 Y71.801 E69.60544
G1 X116.682 Y71.938 E69.88315
G1 X118.336 Y72.179 E70.2843
G1 X120.373 Y72.596 E70.78332
G1 X121.39 Y72.846 E71.03467
G1 X122.593 Y73.171 E71.33374
G1 X123.644 Y73.495 E71.59769
G1 X124.808 Y73.884 E71.89224
G1 X125.863 Y74.277 E72.16244
G1 X127.19 Y74.812 E72.50583
G1 X128.083 Y75.21 E72.74047
G1 X129.365 Y75.818 E73.081
G1 X131.056 Y76.709 E73.53973
G1 X132.289 Y77.443 E73.88411
G1 X133.352 Y78.112 E74.18555
G1 X134.281 Y78.744 E74.45522
G1 X135.44 Y79.576 E74.79763
G1 X136.95 Y80.757 E75.25771
G1 X138.772 Y82.365 E75.84093
G1 X139.796 Y83.368 E76.18494
G1 X140.898 Y84.51 E76.56582
G1 X142.494 Y86.362 E77.15257
G1 X143.645 Y87.863 E77.60654
G1 X144.865 Y89.602 E78.11636
G1 X145.593 Y90.773 E78.44728
G1 X146.208 Y91.814 E78.73747
G1 X146.784 Y92.879 E79.02806
G1 X147.407 Y94.099 E79.35682
G1 X147.837 Y95.025 E79.60186
G1 X148.4 Y96.324 E79.94164
G1 X148.952 Y97.743 E80.30706
G1 X149.507 Y99.36 E80.71736
G1 X149.941 Y100.799 E81.07809
G1 X150.185 Y101.741 E81.31163
G1 X150.605 Y103.535 E81.75383
G1 X150.931 Y105.403 E82.20893
G1 X151.078 Y106.46 E82.46505
G1 X151.223 Y107.744 E82.77517
G1 X151.313 Y108.919 E83.05799
G1 X151.383 Y110.264 E83.38123
G1 X151.398 Y111.251 E83.61814
G1 X151.384 Y112.663 E83.95703
G1 X151.341 Y113.66 E84.19653
G1 X151.221 Y115.386 E84.61177
G1 X150.923 Y117.713 E85.17482
G1 X150.445 Y120.226 E85.78875
G1 X149.961 Y122.128 E86.25978
G1 X149.686 Y123.06 E86.49299
G1 X149.119 Y124.827 E86.93837
G1 X148.421 Y126.634 E87.40328
G1 X147.999 Y127.619 E87.66046
G1 X147.463 Y128.79 E87.96954
G1 X147 Y129.713 E88.21737
G1 X146.389 Y130.865 E88.53033
G1 X145.815 Y131.86 E88.80602
G1 X144.908 Y133.34 E89.22261
G1 X143.547 Y135.289 E89.79313
G1 X142.277 Y136.893 E90.28415
G1 X141.611 Y137.674 E90.53049
G1 X140.684 Y138.71 E90.86413
G1 X139.972 Y139.449 E91.11042
G1 X139.056 Y140.357 E91.41997
G1 X138.275 Y141.078 E91.67507
G1 X137.316 Y141.923 E91.98183
G1 X136.424 Y142.654 E92.25861
G1 X135.318 Y143.512 E92.59456
G1 X134.541 Y144.071 E92.82428
G1 X133.478 Y144.803 E93.13404
G1 X132.507 Y145.418 E93.40989
G1 X131.193 Y146.202 E93.77712
G1 X129.646 Y147.047 E94.20018
G1 X128.48 Y147.606 E94.51051
G1 X127.13 Y148.214 E94.86586
G1 X125.287 Y148.953 E95.34241
G1 X124.082 Y149.363 E95.64789
G1 X122.671 Y149.808 E96.00297
G1 X121.734 Y150.064 E96.2361
G1 X120.475 Y150.38 E96.54763
G1 X119.422 Y150.605 E96.80605
G1 X118.126 Y150.847 E97.12247
G1 X117.073 Y151.006 E97.37805
G1 X115.246 Y151.234 E97.81994
G1 X113.391 Y151.357 E98.26611
G1 X111.265 Y151.409 E98.77651
G1 X109.924 Y151.367 E99.0985
G1 X108.459 Y151.284 E99.45067
G1 X106.484 Y151.091 E99.92693
G1 X105.127 Y150.885 E100.25634
G1 X103.907 Y150.67 E100.55365
G1 X102.867 Y150.452 E100.80867
G1 X101.442 Y150.11 E101.16038
G1 X100.501 Y149.849 E101.39475
G1 X99.168 Y149.446 E101.72897
G1 X98.227 Y149.123 E101.96775
G1 X97.041 Y148.687 E102.27101
G1 X95.069 Y147.868 E102.78348
G1 X93.885 Y147.298 E103.09886
G1 X92.75 Y146.719 E103.40466
G1 X91.66 Y146.113 E103.70397
G1 X90.484 Y145.413 E104.03242
G1 X88.794 Y144.316 E104.51598
G1 X87.297 Y143.216 E104.96183
G1 X85.897 Y142.097 E105.39197
G1 X84.592 Y140.965 E105.80658
G1 X83.211 Y139.633 E106.26707
G1 X81.799 Y138.146 E106.75921
G1 X80.943 Y137.144 E107.07549
G1 X79.775 Y135.703 E107.52067
G1 X78.692 Y134.197 E107.96587
G1 X78.033 Y133.208 E108.25109
G1 X77.361 Y132.144 E108.55312
G1 X76.294 Y130.277 E109.06921
G1 X75.662 Y129.019 E109.40709
G1 X75.136 Y127.908 E109.70211
G1 X74.728 Y126.965 E109.9487
G1 X74.066 Y125.318 E110.37472
G1 X73.27 Y122.942 E110.97611
G1 X72.756 Y121.011 E111.45568
G1 X72.534 Y120.041 E111.6945
G1 X72.256 Y118.676 E112.02883
G1 X72.087 Y117.657 E112.27673
G1 X71.905 Y116.388 E112.5844
G1 X71.792 Y115.324 E112.8412
G1 X71.688 Y114.048 E113.14846
G1 X71.633 Y112.899 E113.42453
G1 X71.604 Y111.518 E113.75605
G1 X71.618 Y110.54 E113.99079
G1 X71.663 Y109.325 E114.28259
G1 X71.755 Y108.081 E114.58196
G1 X71.881 Y106.807 E114.88922
G1 X72.019 Y105.783 E115.1372
G1 X72.29 Y104.082 E115.55059
G1 X72.81 Y101.727 E116.1294
G1 X73.395 Y99.683 E116.63966
G1 X74.026 Y97.793 E117.11787
G1 X74.534 Y96.499 E117.4515
G1 X75.02 Y95.349 E117.75114
G1 X75.469 Y94.378 E118.00789
G1 X76.126 Y93.051 E118.36326
G1 X76.593 Y92.19 E118.59834
G1 X77.23 Y91.074 E118.90674
G1 X77.823 Y90.117 E119.17694
G1 X78.576 Y88.967 E119.50684
G1 X79.156 Y88.15 E119.74731
G1 X79.931 Y87.103 E120.05994
G1 X80.597 Y86.271 E120.31572
G1 X81.497 Y85.203 E120.65091
G1 X82.201 Y84.428 E120.9022
G1 X83.156 Y83.422 E121.2351
G0 F7200 X83.576 Y83.85
G1 F2400 X84.282 Y83.158 E121.47236
G1 X85.155 Y82.339 E121.75965
G1 X86.759 Y80.961 E122.26716
G1 X87.922 Y80.068 E122.61907
G1 X89.316 Y79.054 E123.03278
G1 X91.053 Y77.94 E123.52803
G1 X92.545 Y77.065 E123.94315
G1 X93.735 Y76.448 E124.26485
G1 X94.958 Y75.85 E124.59158
G1 X95.884 Y75.439 E124.83473
G1 X97.526 Y74.758 E125.26136
G1 X99.674 Y74.01 E125.80724
G1 X101.612 Y73.462 E126.2906
G1 X103.489 Y73.015 E126.75367
G1 X104.824 Y72.772 E127.07934
G1 X106.218 Y72.554 E127.41797
G1 X107.204 Y72.437 E127.65627
G1 X108.577 Y72.308 E127.98724
G1 X110.536 Y72.203 E128.45807
G1 X111.813 Y72.202 E128.76455
G1 X113.271 Y72.237 E129.11457
G1 X114.248 Y72.297 E129.34949
G1 X115.462 Y72.397 E129.64184
G1 X116.595 Y72.532 E129.91568
G1 X118.249 Y72.773 E130.31684
G1 X120.23 Y73.179 E130.80216
G1 X121.234 Y73.425 E131.05025
G1 X122.416 Y73.744 E131.34408
G1 X123.454 Y74.064 E131.60476
G1 X124.599 Y74.446 E131.89445
G1 X125.639 Y74.833 E132.16078
G1 X126.946 Y75.36 E132.499
G1 X127.826 Y75.752 E132.7302
G1 X129.085 Y76.349 E133.06461
G1 X130.776 Y77.24 E133.52334
G1 X131.969 Y77.951 E133.85665
G1 X133.032 Y78.62 E134.15809
G1 X133.931 Y79.231 E134.41897
G1 X135.07 Y80.049 E134.75552
G1 X136.58 Y81.23 E135.2156
G1 X138.352 Y82.794 E135.78284
G1 X139.364 Y83.785 E136.12278
G1 X140.466 Y84.927 E136.50366
G1 X142.018 Y86.727 E137.07406
G1 X143.154 Y88.208 E137.52203
G1 X144.374 Y89.947 E138.03185
G1 X145.076 Y91.078 E138.35133
G1 X145.68 Y92.1 E138.63624
G1 X146.25 Y93.152 E138.9234
G1 X146.863 Y94.352 E139.2468
G1 X147.287 Y95.264 E139.48818
G1 X147.841 Y96.541 E139.82226
G1 X148.384 Y97.938 E140.18197
G1 X148.939 Y99.555 E140.59228
G1 X149.36 Y100.95 E140.94199
G1 X149.601 Y101.878 E141.1721
G1 X150.014 Y103.638 E141.60597
G1 X150.337 Y105.486 E142.05622
G1 X150.482 Y106.528 E142.30871
G1 X150.625 Y107.79 E142.61352
G1 X150.714 Y108.95 E142.89274
G1 X150.783 Y110.273 E143.21069
G1 X150.798 Y111.245 E143.444
G1 X150.785 Y112.637 E143.7781
G1 X150.742 Y113.618 E144.01376
G1 X150.622 Y115.344 E144.429
G1 X150.328 Y117.637 E144.98383
G1 X149.864 Y120.078 E145.58016
G1 X149.386 Y121.958 E146.04571
G1 X149.115 Y122.877 E146.27566
G1 X148.559 Y124.611 E146.71269
G1 X147.869 Y126.398 E147.17243
G1 X147.453 Y127.369 E147.42596
G1 X146.926 Y128.521 E147.73
G1 X146.47 Y129.432 E147.9745
G1 X145.869 Y130.565 E148.28231
G1 X145.303 Y131.546 E148.55412
G1 X144.396 Y133.026 E148.97072
G1 X143.055 Y134.945 E149.53259
G1 X141.821 Y136.504 E150.00977
G1 X141.164 Y137.274 E150.2527
G1 X140.252 Y138.294 E150.58108
G1 X139.55 Y139.023 E150.82398
G1 X138.649 Y139.916 E151.12843
G1 X137.879 Y140.628 E151.38013
G1 X136.935 Y141.459 E151.68196
G1 X136.056 Y142.18 E151.95481
G1 X134.968 Y143.025 E152.28544
G1 X134.201 Y143.577 E152.51223
G1 X133.157 Y144.296 E152.81646
G1 X132.199 Y144.903 E153.08865
G1 X130.905 Y145.676 E153.4504
G1 X129.387 Y146.506 E153.86563
G1 X128.234 Y147.059 E154.17253
G1 X126.906 Y147.657 E154.52207
G1 X125.093 Y148.385 E154.99096
G1 X123.902 Y148.791 E155.29295
G1 X122.513 Y149.229 E155.64249
G1 X121.588 Y149.482 E155.87265
G1 X120.35 Y149.793 E156.179
G1 X119.312 Y150.015 E156.43375
G1 X118.036 Y150.254 E156.74532
G1 X116.999 Y150.411 E156.99704
G1 X115.206 Y150.635 E157.4307
G1 X113.376 Y150.757 E157.87088
G1 X111.284 Y150.809 E158.37311
G1 X109.958 Y150.768 E158.6915
G1 X108.517 Y150.687 E159.03789
G1 X106.574 Y150.498 E159.50641
G1 X105.231 Y150.294 E159.83243
G1 X104.03 Y150.083 E160.12508
G1 X103.007 Y149.869 E160.37592
G1 X101.602 Y149.532 E160.72268
G1 X100.674 Y149.275 E160.95378
G1 X99.363 Y148.879 E161.28246
G1 X98.434 Y148.56 E161.5182
G1 X97.271 Y148.133 E161.81554
G1 X95.329 Y147.327 E162.32017
G1 X94.157 Y146.763 E162.63232
G1 X93.042 Y146.195 E162.93264
G1 X91.967 Y145.597 E163.22788
G1 X90.811 Y144.91 E163.55061
G1 X89.121 Y143.813 E164.03417
G1 X87.671 Y142.747 E164.46609
G1 X86.29 Y141.644 E164.89027
G1 X85.009 Y140.533 E165.29723
G1 X83.628 Y139.201 E165.75772
G1 X82.255 Y137.756 E166.23611
G1 X81.409 Y136.766 E166.54864
G1 X80.262 Y135.352 E166.98562
G1 X79.191 Y133.864 E167.42562
G1 X78.54 Y132.888 E167.70719
G1 X77.882 Y131.846 E168.00295
G1 X76.83 Y130.007 E168.51143
G1 X76.204 Y128.762 E168.84587
G1 X75.687 Y127.67 E169.13584
G1 X75.285 Y126.741 E169.37878
G1 X74.623 Y125.094 E169.8048
G1 X73.85 Y122.788 E170.3885
G1 X73.341 Y120.877 E170.86313
G1 X73.122 Y119.921 E171.09852
G1 X72.848 Y118.578 E171.42748
G1 X72.681 Y117.572 E171.67222
G1 X72.502 Y116.324 E171.9748
G1 X72.39 Y115.275 E172.228
G1 X72.287 Y114.019 E172.53045
G1 X72.233 Y112.886 E172.80268
G1 X72.204 Y111.527 E173.12891
G1 X72.218 Y110.562 E173.36053
G1 X72.263 Y109.347 E173.65233
G1 X72.352 Y108.14 E173.9428
G1 X72.476 Y106.887 E174.24499
G1 X72.612 Y105.877 E174.48958
G1 X72.883 Y104.176 E174.90297
G1 X73.396 Y101.857 E175.47298
G1 X73.964 Y99.873 E175.96827
G1 X74.585 Y98.012 E176.43912
G1 X75.087 Y96.732 E176.7691
G1 X75.564 Y95.601 E177.0637
G1 X76.007 Y94.644 E177.31679
G1 X76.654 Y93.337 E177.6668
G1 X77.114 Y92.487 E177.89876
G1 X77.74 Y91.39 E178.20189
G1 X78.325 Y90.446 E178.46842
G1 X79.066 Y89.314 E178.79314
G1 X79.638 Y88.507 E179.03053
