;FLAVOR:UltiGCode
;TIME:1271
;MATERIAL:6350
;MATERIAL2:0
;NOZZLE_DIAMETER:0.6
;MINX:77.854
;MINY:77.844
;MINZ:0.4
;MAXX:145.167
;MAXY:145.167
;MAXZ:14.35
;TARGET_MACHINE.NAME:Ultimaker 2+
;Generated with Cura_SteamEngine 5.10.0
G0 F3000 Y50 ;avoid prime blob
M104 S230 ; Régler la température de l'extrudeur à 230°C
M140 S58 ; Régle la température du plateau à 58°C
M42 P8 S255 ; Allume les LED à pleine 100%
M82 ;absolute extrusion mode
G92 E0
G92 E0
G10
;LAYER_COUNT:94
;LAYER:0
M107
G0 F7200 X87.301 Y88.092 Z0.4
;TYPE:SKIRT
G11
G1 F2400 X88.646 Y86.781 E0.45078
G1 X90.209 Y85.42 E0.94818
G1 X91.291 Y84.586 E1.27605
G1 X92.179 Y83.94 E1.53959
G1 X93.476 Y83.066 E1.91495
G1 X94.65 Y82.366 E2.243
G1 X95.53 Y81.872 E2.4852
G1 X96.449 Y81.396 E2.73359
G1 X97.782 Y80.754 E3.08868
G1 X99.211 Y80.165 E3.45963
G1 X100.614 Y79.639 E3.81924
G1 X102.6 Y79.032 E4.31764
G1 X104.589 Y78.549 E4.80888
G1 X106.506 Y78.204 E5.27635
G1 X108.497 Y77.968 E5.75753
G1 X110.596 Y77.847 E6.26213
G1 X111.958 Y77.844 E6.58901
G1 X113.048 Y77.876 E6.85072
G1 X114.633 Y77.977 E7.23189
G1 X116.004 Y78.144 E7.56337
G1 X117.068 Y78.304 E7.8216
G1 X118.521 Y78.574 E8.17629
G1 X120.41 Y79.032 E8.64278
G1 X122.411 Y79.649 E9.14533
G1 X124.377 Y80.39 E9.64957
G1 X126.149 Y81.184 E10.1156
G1 X128.032 Y82.17 E10.62572
G1 X129.656 Y83.144 E11.08021
G1 X131.443 Y84.376 E11.60114
G1 X132.989 Y85.581 E12.07157
G1 X134.442 Y86.86 E12.53614
G1 X135.503 Y87.906 E12.89372
G1 X136.237 Y88.674 E13.14869
G1 X137.502 Y90.127 E13.61105
G1 X138.532 Y91.43 E14.00967
G1 X139.612 Y92.971 E14.4613
G1 X140.359 Y94.175 E14.80136
G1 X140.88 Y95.073 E15.05052
G1 X141.359 Y95.962 E15.29288
G1 X141.983 Y97.199 E15.6254
G1 X142.65 Y98.747 E16.02994
G1 X143.022 Y99.69 E16.27323
G1 X143.361 Y100.635 E16.51418
G1 X143.735 Y101.808 E16.80967
G1 X144.195 Y103.497 E17.22979
G1 X144.446 Y104.603 E17.50198
G1 X144.664 Y105.749 E17.78195
G1 X144.902 Y107.346 E18.16946
G1 X145.067 Y108.875 E18.53856
G1 X145.147 Y110.522 E18.9343
G1 X145.167 Y111.948 E19.27658
G1 X145.065 Y114.154 E19.80658
G1 X144.85 Y116.144 E20.28696
G1 X144.53 Y118.037 E20.74773
G1 X144.113 Y119.872 E21.19935
G1 X143.671 Y121.402 E21.58157
G1 X143.36 Y122.37 E21.82559
G1 X142.847 Y123.796 E22.1893
G1 X142.285 Y125.111 E22.53251
G1 X141.827 Y126.11 E22.79627
G1 X141.144 Y127.465 E23.16045
G1 X140.068 Y129.322 E23.67554
G1 X139.072 Y130.83 E24.10927
G1 X137.84 Y132.468 E24.60118
G1 X136.51 Y134.042 E25.09574
G1 X135.486 Y135.116 E25.45188
G1 X134.758 Y135.834 E25.69728
G1 X133.713 Y136.803 E26.03931
G1 X131.958 Y138.242 E26.584
G1 X130.489 Y139.302 E27.01876
G1 X128.702 Y140.444 E27.52774
G1 X127.257 Y141.243 E27.92402
G1 X125.718 Y142.01 E28.33671
G1 X124.682 Y142.471 E28.60886
G1 X123.211 Y143.065 E28.98959
G1 X121.884 Y143.516 E29.32596
G1 X120.856 Y143.833 E29.58415
G1 X119.473 Y144.209 E29.92812
G1 X117.404 Y144.643 E30.43548
G1 X116.059 Y144.848 E30.76201
G1 X114.949 Y144.982 E31.03035
G1 X113.352 Y145.117 E31.41499
G1 X111.348 Y145.167 E31.8961
G1 X109.445 Y145.104 E32.35307
G1 X107.356 Y144.909 E32.85661
G1 X105.396 Y144.609 E33.33249
G1 X103.561 Y144.218 E33.78278
G1 X101.472 Y143.638 E34.3031
G1 X99.658 Y143.016 E34.76334
G1 X97.745 Y142.229 E35.2598
G1 X95.874 Y141.317 E35.75934
G1 X94.695 Y140.662 E36.08304
G1 X93.838 Y140.152 E36.32238
G1 X92.419 Y139.237 E36.72761
G1 X91.357 Y138.465 E37.04271
G1 X90.184 Y137.559 E37.39843
G1 X88.7 Y136.271 E37.87003
G1 X87.467 Y135.061 E38.28464
G1 X86.482 Y134.025 E38.62772
G1 X85.137 Y132.435 E39.12754
G1 X84.186 Y131.162 E39.5089
G1 X83.182 Y129.682 E39.93812
G1 X82.573 Y128.704 E40.21463
G1 X81.856 Y127.452 E40.56089
G1 X81.147 Y126.041 E40.93988
G1 X80.734 Y125.146 E41.17645
G1 X80.142 Y123.748 E41.54081
G1 X79.448 Y121.794 E42.03847
G1 X78.927 Y120.004 E42.4859
G1 X78.439 Y117.83 E43.02064
G1 X78.119 Y115.859 E43.49987
G1 X77.929 Y113.994 E43.94979
G1 X77.854 Y112.249 E44.36898
G1 X77.86 Y110.555 E44.77554
G1 X77.904 Y109.503 E45.02824
G1 X78.028 Y107.896 E45.41507
G1 X78.218 Y106.503 E45.75248
G1 X78.385 Y105.486 E45.99983
G1 X78.584 Y104.486 E46.24454
G1 X78.889 Y103.144 E46.57483
G1 X79.351 Y101.544 E46.97452
G1 X79.801 Y100.168 E47.32197
G1 X80.597 Y98.144 E47.84395
G1 X81.436 Y96.352 E48.31883
G1 X82.3 Y94.741 E48.75756
G1 X83.418 Y92.935 E49.26733
G1 X84.63 Y91.22 E49.77134
G1 X85.782 Y89.774 E50.21505
G1 X87.301 Y88.092 E50.75899
G0 F7200 X87.72 Y88.522
G1 F2400 X89.065 Y87.211 E51.20976
G1 X90.576 Y85.895 E51.69066
G1 X91.644 Y85.071 E52.0144
G1 X92.514 Y84.438 E52.27262
G1 X93.811 Y83.564 E52.64798
G1 X94.943 Y82.889 E52.96429
G1 X95.806 Y82.405 E53.20176
G1 X96.709 Y81.937 E53.44586
G1 X98.042 Y81.295 E53.80095
G1 X99.422 Y80.727 E54.15911
G1 X100.825 Y80.201 E54.51871
G1 X102.775 Y79.606 E55.00801
G1 X104.695 Y79.14 E55.48219
G1 X106.612 Y78.795 E55.94966
G1 X108.567 Y78.564 E56.42213
G1 X110.597 Y78.447 E56.91014
G1 X111.941 Y78.444 E57.2327
G1 X113.01 Y78.475 E57.48937
G1 X114.56 Y78.573 E57.86211
G1 X115.931 Y78.74 E58.19358
G1 X116.958 Y78.894 E58.44282
G1 X118.411 Y79.164 E58.79751
G1 X120.233 Y79.605 E59.24741
G1 X122.2 Y80.211 E59.74139
G1 X124.132 Y80.938 E60.23681
G1 X125.904 Y81.732 E60.70283
G1 X127.723 Y82.685 E61.19568
G1 X129.347 Y83.659 E61.65016
G1 X131.074 Y84.849 E62.15351
G1 X132.62 Y86.054 E62.62395
G1 X134.021 Y87.287 E63.07186
G1 X135.07 Y88.321 E63.42536
G1 X135.785 Y89.068 E63.67353
G1 X137.032 Y90.499 E64.12908
G1 X138.041 Y91.774 E64.5193
G1 X139.102 Y93.287 E64.96281
G1 X139.84 Y94.476 E65.29867
G1 X140.352 Y95.358 E65.54343
G1 X140.823 Y96.232 E65.78171
G1 X141.447 Y97.469 E66.11422
G1 X142.092 Y98.967 E66.50565
G1 X142.457 Y99.893 E66.74454
G1 X142.789 Y100.818 E66.9804
G1 X143.156 Y101.966 E67.26966
G1 X143.61 Y103.63 E67.68362
G1 X143.857 Y104.715 E67.95068
G1 X144.071 Y105.837 E68.22481
G1 X144.305 Y107.41 E68.60649
G1 X144.47 Y108.939 E68.97558
G1 X144.547 Y110.53 E69.35786
G1 X144.567 Y111.956 E69.70014
G1 X144.468 Y114.09 E70.21285
G1 X144.258 Y116.044 E70.68451
G1 X143.938 Y117.937 E71.14528
G1 X143.528 Y119.739 E71.58881
G1 X143.1 Y121.218 E71.95833
G1 X142.795 Y122.167 E72.19757
G1 X142.282 Y123.593 E72.56128
G1 X141.74 Y124.861 E72.89223
G1 X141.291 Y125.84 E73.15073
G1 X140.608 Y127.195 E73.5149
G1 X139.567 Y128.991 E74.01312
G1 X138.571 Y130.499 E74.44685
G1 X137.361 Y132.107 E74.92983
G1 X136.076 Y133.628 E75.4077
G1 X135.065 Y134.689 E75.75944
G1 X134.35 Y135.394 E76.00042
G1 X133.305 Y136.363 E76.34245
G1 X131.607 Y137.755 E76.86941
G1 X130.138 Y138.815 E77.30417
G1 X128.412 Y139.919 E77.7959
G1 X126.989 Y140.706 E78.18617
G1 X125.474 Y141.462 E78.59253
G1 X124.457 Y141.915 E78.85973
G1 X123.018 Y142.497 E79.23226
G1 X121.707 Y142.943 E79.56461
G1 X120.699 Y143.254 E79.81779
G1 X119.316 Y143.63 E80.16175
G1 X117.314 Y144.05 E80.65269
G1 X115.987 Y144.252 E80.97484
G1 X114.898 Y144.384 E81.23812
G1 X113.337 Y144.517 E81.61411
G1 X111.368 Y144.567 E82.08683
G1 X109.465 Y144.504 E82.5438
G1 X107.447 Y144.316 E83.03021
G1 X105.521 Y144.022 E83.49781
G1 X103.686 Y143.631 E83.94809
G1 X101.667 Y143.07 E84.45101
G1 X99.853 Y142.448 E84.91125
G1 X97.974 Y141.674 E85.39898
G1 X96.166 Y140.793 E85.88167
G1 X95.002 Y140.146 E86.20128
G1 X94.145 Y139.636 E86.44063
G1 X92.772 Y138.751 E86.83267
G1 X91.724 Y137.99 E87.14351
G1 X90.551 Y137.084 E87.49922
G1 X89.12 Y135.843 E87.95382
G1 X87.902 Y134.648 E88.36334
G1 X86.917 Y133.612 E88.70643
G1 X85.618 Y132.076 E89.18922
G1 X84.667 Y130.803 E89.57058
G1 X83.691 Y129.365 E89.98768
G1 X83.094 Y128.406 E90.2588
G1 X82.377 Y127.154 E90.60506
G1 X81.692 Y125.789 E90.9716
G1 X81.287 Y124.912 E91.20344
G1 X80.695 Y123.514 E91.5678
G1 X80.024 Y121.626 E92.04869
G1 X79.503 Y119.836 E92.49612
G1 X79.031 Y117.734 E93.01316
G1 X78.716 Y115.798 E93.48391
G1 X78.526 Y113.933 E93.93383
G1 X78.454 Y112.251 E94.33788
G1 X78.459 Y110.58 E94.73892
G1 X78.502 Y109.549 E94.98657
G1 X78.623 Y107.977 E95.36497
G1 X78.81 Y106.6 E95.69848
G1 X78.973 Y105.603 E95.94094
G1 X79.169 Y104.619 E96.18174
G1 X79.474 Y103.277 E96.51203
G1 X79.921 Y101.731 E96.89827
G1 X80.371 Y100.355 E97.24572
G1 X81.141 Y98.398 E97.75045
G1 X81.965 Y96.636 E98.21729
G1 X82.829 Y95.025 E98.65602
G1 X83.928 Y93.251 E99.15686
G1 X85.099 Y91.594 E99.64382
G1 X86.251 Y90.148 E100.08753
G1 X87.72 Y88.522 E100.61345
G0 F7200 X88.139 Y88.952
G1 F2400 X89.484 Y87.641 E101.06422
G1 X90.943 Y86.37 E101.52862
G1 X91.997 Y85.556 E101.84823
G1 X92.85 Y84.935 E102.10146
G1 X94.119 Y84.079 E102.46883
G1 X95.236 Y83.412 E102.78107
G1 X96.082 Y82.938 E103.0138
G1 X96.97 Y82.477 E103.25393
G1 X98.27 Y81.85 E103.60033
G1 X99.633 Y81.289 E103.95407
G1 X101.036 Y80.763 E104.31368
G1 X102.95 Y80.18 E104.79387
G1 X104.801 Y79.731 E105.251
G1 X106.718 Y79.386 E105.71847
G1 X108.637 Y79.16 E106.18221
G1 X110.598 Y79.047 E106.65363
G1 X111.924 Y79.044 E106.97187
G1 X112.972 Y79.074 E107.2235
G1 X114.487 Y79.169 E107.58781
G1 X115.858 Y79.336 E107.91928
G1 X116.848 Y79.484 E108.15952
G1 X118.301 Y79.754 E108.51421
G1 X120.057 Y80.179 E108.94782
G1 X121.989 Y80.773 E109.43292
G1 X123.887 Y81.486 E109.91952
G1 X125.659 Y82.28 E110.38554
G1 X127.414 Y83.2 E110.86111
G1 X129.038 Y84.174 E111.31559
G1 X130.705 Y85.322 E111.80137
G1 X132.224 Y86.505 E112.26344
G1 X133.6 Y87.715 E112.7032
G1 X134.637 Y88.736 E113.05247
G1 X135.333 Y89.462 E113.29384
G1 X136.562 Y90.871 E113.74257
G1 X137.55 Y92.119 E114.12459
G1 X138.592 Y93.604 E114.55997
G1 X139.321 Y94.778 E114.89163
G1 X139.824 Y95.643 E115.13178
G1 X140.287 Y96.502 E115.36598
G1 X140.911 Y97.739 E115.6985
G1 X141.534 Y99.187 E116.07682
G1 X141.892 Y100.096 E116.31129
G1 X142.224 Y101.021 E116.54715
G1 X142.577 Y102.124 E116.8251
G1 X143.025 Y103.763 E117.23289
G1 X143.268 Y104.828 E117.49506
G1 X143.478 Y105.925 E117.76312
G1 X143.709 Y107.475 E118.13923
G1 X143.871 Y108.968 E118.49965
G1 X143.947 Y110.538 E118.87689
G1 X143.967 Y111.964 E119.21917
G1 X143.871 Y114.026 E119.71458
G1 X143.666 Y115.944 E120.17752
G1 X143.346 Y117.837 E120.63829
G1 X142.943 Y119.606 E121.07373
G1 X142.529 Y121.034 E121.43056
G1 X142.23 Y121.964 E121.66501
G1 X141.717 Y123.39 E122.02872
G1 X141.195 Y124.611 E122.34742
G1 X140.755 Y125.57 E122.60065
G1 X140.072 Y126.925 E122.96483
G1 X139.066 Y128.66 E123.44616
G1 X138.07 Y130.168 E123.8799
G1 X136.882 Y131.746 E124.35394
G1 X135.642 Y133.214 E124.81513
G1 X134.643 Y134.262 E125.16262
G1 X133.942 Y134.954 E125.39902
G1 X132.897 Y135.923 E125.74106
G1 X131.256 Y137.268 E126.25028
G1 X129.787 Y138.328 E126.68504
G1 X128.122 Y139.394 E127.15953
G1 X126.721 Y140.169 E127.54378
G1 X125.229 Y140.914 E127.94402
G1 X124.232 Y141.359 E128.20605
G1 X122.825 Y141.929 E128.57039
G1 X121.53 Y142.37 E128.89872
G1 X120.542 Y142.675 E129.14688
G1 X119.159 Y143.051 E129.49085
G1 X117.224 Y143.457 E129.96536
G1 X115.915 Y143.656 E130.28313
G1 X114.847 Y143.786 E130.54134
G1 X113.321 Y143.917 E130.90893
G1 X111.388 Y143.967 E131.373
G1 X109.485 Y143.904 E131.82997
G1 X107.537 Y143.723 E132.29951
G1 X105.646 Y143.435 E132.75858
G1 X103.811 Y143.044 E133.20887
G1 X101.862 Y142.502 E133.69438
G1 X100.048 Y141.88 E134.15462
G1 X98.203 Y141.119 E134.63361
G1 X96.458 Y140.269 E135.09945
G1 X95.309 Y139.63 E135.41499
G1 X94.452 Y139.12 E135.65433
G1 X93.125 Y138.265 E136.03319
G1 X92.077 Y137.504 E136.34403
G1 X90.944 Y136.63 E136.68745
G1 X89.54 Y135.414 E137.13323
G1 X88.337 Y134.235 E137.53749
G1 X87.352 Y133.199 E137.88057
G1 X86.099 Y131.717 E138.34634
G1 X85.148 Y130.444 E138.7277
G1 X84.2 Y129.048 E139.13269
G1 X83.615 Y128.108 E139.39841
G1 X82.898 Y126.856 E139.74468
G1 X82.237 Y125.537 E140.09876
G1 X81.84 Y124.678 E140.32587
G1 X81.248 Y123.28 E140.69024
G1 X80.6 Y121.458 E141.15435
G1 X80.079 Y119.668 E141.60178
G1 X79.623 Y117.637 E142.10135
G1 X79.313 Y115.737 E142.56338
G1 X79.123 Y113.872 E143.0133
G1 X79.054 Y112.252 E143.40245
G1 X79.058 Y110.605 E143.79773
G1 X79.1 Y109.595 E144.04034
G1 X79.218 Y108.057 E144.41055
G1 X79.402 Y106.697 E144.73992
G1 X79.562 Y105.72 E144.97752
G1 X79.754 Y104.752 E145.21437
G1 X80.059 Y103.41 E145.54466
G1 X80.491 Y101.918 E145.91745
G1 X80.941 Y100.542 E146.2649
G1 X81.699 Y98.618 E146.76121
G1 X82.494 Y96.92 E147.21118
G1 X83.358 Y95.309 E147.64992
G1 X84.438 Y93.567 E148.14183
G1 X85.568 Y91.968 E148.61174
G1 X86.72 Y90.522 E149.05545
G1 X88.139 Y88.952 E149.56335
G0 F7200 X88.558 Y89.382
G1 F2400 X89.903 Y88.071 E150.01412
G1 X91.31 Y86.845 E150.46201
G1 X92.35 Y86.041 E150.7775
G1 X93.186 Y85.432 E151.02573
G1 X94.427 Y84.594 E151.38512
G1 X95.529 Y83.935 E151.69328
G1 X96.359 Y83.47 E151.92161
G1 X97.231 Y83.017 E152.15745
G1 X98.498 Y82.405 E152.49514
G1 X99.844 Y81.851 E152.84448
G1 X101.247 Y81.325 E153.20408
G1 X103.125 Y80.754 E153.67518
G1 X104.907 Y80.322 E154.11524
G1 X106.824 Y79.977 E154.58272
G1 X108.707 Y79.756 E155.03774
G1 X110.599 Y79.647 E155.49257
G1 X111.907 Y79.644 E155.80649
G1 X112.935 Y79.673 E156.05331
G1 X114.414 Y79.765 E156.40896
G1 X115.785 Y79.932 E156.74043
G1 X116.738 Y80.074 E156.97167
G1 X118.191 Y80.344 E157.32636
G1 X119.916 Y80.762 E157.75234
G1 X121.778 Y81.335 E158.2199
G1 X123.642 Y82.034 E158.69769
G1 X125.381 Y82.812 E159.15491
G1 X127.105 Y83.715 E159.62199
G1 X128.729 Y84.689 E160.07648
G1 X130.337 Y85.796 E160.54501
G1 X131.828 Y86.956 E160.99839
G1 X133.204 Y88.166 E161.43815
G1 X134.204 Y89.151 E161.77503
G1 X134.881 Y89.857 E162.00978
G1 X136.092 Y91.244 E162.45169
G1 X137.059 Y92.464 E162.82531
G1 X138.082 Y93.921 E163.25257
G1 X138.811 Y95.095 E163.58424
G1 X139.296 Y95.927 E163.81537
G1 X139.751 Y96.772 E164.0457
G1 X140.375 Y98.009 E164.37821
G1 X140.976 Y99.407 E164.74342
G1 X141.327 Y100.299 E164.97348
G1 X141.659 Y101.224 E165.20935
G1 X141.998 Y102.282 E165.47598
G1 X142.44 Y103.897 E165.87784
G1 X142.679 Y104.941 E166.13488
G1 X142.885 Y106.014 E166.3971
G1 X143.113 Y107.54 E166.76741
G1 X143.272 Y108.997 E167.11916
G1 X143.347 Y110.546 E167.49136
G1 X143.367 Y111.972 E167.83363
G1 X143.274 Y113.963 E168.31199
G1 X143.074 Y115.844 E168.76598
G1 X142.754 Y117.737 E169.22674
G1 X142.358 Y119.473 E169.65408
G1 X141.958 Y120.85 E169.99823
G1 X141.665 Y121.761 E170.2279
G1 X141.152 Y123.187 E170.59161
G1 X140.65 Y124.361 E170.89805
G1 X140.219 Y125.3 E171.14601
G1 X139.536 Y126.655 E171.51019
G1 X138.565 Y128.329 E171.97464
G1 X137.569 Y129.837 E172.40838
G1 X136.403 Y131.385 E172.8735
G1 X135.208 Y132.8 E173.318
G1 X134.222 Y133.835 E173.66108
G1 X133.534 Y134.514 E173.89307
G1 X132.489 Y135.483 E174.2351
G1 X130.905 Y136.781 E174.7266
G1 X129.436 Y137.841 E175.16136
G1 X127.831 Y138.869 E175.6188
G1 X126.453 Y139.632 E175.99683
G1 X124.984 Y140.366 E176.39095
G1 X124.006 Y140.803 E176.64803
G1 X122.631 Y141.361 E177.00417
G1 X121.353 Y141.797 E177.32825
G1 X120.385 Y142.096 E177.5714
G1 X119.002 Y142.472 E177.91537
G1 X117.134 Y142.864 E178.37345
G1 X115.842 Y143.06 E178.68708
G1 X114.795 Y143.188 E178.94023
G1 X113.305 Y143.317 E179.29917
G1 X111.408 Y143.367 E179.75461
G1 X109.505 Y143.304 E180.21158
G1 X107.627 Y143.13 E180.66423
G1 X105.771 Y142.848 E181.11478
G1 X103.936 Y142.457 E181.56507
G1 X102.057 Y141.934 E182.03317
G1 X100.243 Y141.312 E182.49341
G1 X98.432 Y140.564 E182.96367
G1 X96.75 Y139.745 E183.41266
G1 X95.616 Y139.114 E183.72412
G1 X94.759 Y138.604 E183.96346
G1 X93.478 Y137.779 E184.32914
G1 X92.43 Y137.018 E184.63998
G1 X91.337 Y136.176 E184.97111
G1 X89.933 Y134.96 E185.41688
G1 X88.772 Y133.822 E185.80706
G1 X87.787 Y132.786 E186.15014
G1 X86.58 Y131.358 E186.59889
G1 X85.629 Y130.085 E186.98025
G1 X84.709 Y128.731 E187.37312
G1 X84.136 Y127.81 E187.63345
G1 X83.419 Y126.558 E187.97972
G1 X82.782 Y125.285 E188.32135
G1 X82.393 Y124.444 E188.54374
G1 X81.801 Y123.046 E188.9081
G1 X81.176 Y121.29 E189.35544
G1 X80.655 Y119.5 E189.80287
G1 X80.215 Y117.54 E190.28497
G1 X79.91 Y115.676 E190.73828
G1 X79.72 Y113.811 E191.1882
G1 X79.654 Y112.253 E191.56245
G1 X79.657 Y110.63 E191.95197
G1 X79.698 Y109.641 E192.18954
G1 X79.813 Y108.137 E192.55155
G1 X79.994 Y106.794 E192.87679
G1 X80.151 Y105.836 E193.10977
G1 X80.339 Y104.885 E193.34243
