;FLAVOR:UltiGCode
;TIME:1422
;MATERIAL:4767
;MATERIAL2:0
;NOZZLE_DIAMETER:0.6
;MINX:77.834
;MINY:77.834
;MINZ:0.4
;MAXX:145.158
;MAXY:145.159
;MAXZ:16
;TARGET_MACHINE.NAME:Ultimaker 2+
;Generated with Cura_SteamEngine 5.10.0
G0 F3000 Y50 ;avoid prime blob
M104 S230 ; Régler la température de l'extrudeur à 230°C
M140 S58 ; Régle la température du plateau à 57°C
M42 P8 S255 ; Allume les LED à pleine 100%
M82 ;absolute extrusion mode
G92 E0
G92 E0
G10
;LAYER_COUNT:105
;LAYER:0
M107
G0 F7200 X87.436 Y87.955 Z0.4
;TYPE:SKIRT
G11
G1 F2400 X88.872 Y86.571 E0.47865
G1 X90.239 Y85.393 E0.91174
G1 X91.946 Y84.094 E1.42655
G1 X93.753 Y82.892 E1.94742
G1 X95.444 Y81.905 E2.41733
G1 X97.176 Y81.03 E2.88305
G1 X98.863 Y80.306 E3.32364
G1 X100.404 Y79.724 E3.71897
G1 X101.451 Y79.375 E3.98385
G1 X102.95 Y78.936 E4.35872
G1 X105.094 Y78.45 E4.88633
G1 X107.055 Y78.128 E5.36327
G1 X108.483 Y77.979 E5.70785
G1 X109.497 Y77.903 E5.9519
G1 X111.143 Y77.834 E6.34728
G1 X113.002 Y77.868 E6.79352
G1 X115.075 Y78.024 E7.29245
G1 X117.212 Y78.322 E7.81029
G1 X119.037 Y78.69 E8.2571
G1 X121.094 Y79.231 E8.76757
G1 X123.097 Y79.897 E9.27417
G1 X124.644 Y80.517 E9.67416
G1 X126.637 Y81.423 E10.19958
G1 X128.502 Y82.442 E10.70964
G1 X130.304 Y83.574 E11.22037
G1 X131.429 Y84.379 E11.55237
G1 X132.272 Y85.017 E11.8061
G1 X133.518 Y86.031 E12.19165
G1 X135.015 Y87.407 E12.67965
G1 X136.451 Y88.892 E13.17543
G1 X137.917 Y90.642 E13.72333
G1 X138.88 Y91.908 E14.10508
G1 X139.92 Y93.47 E14.55545
G1 X140.775 Y94.893 E14.95388
G1 X141.303 Y95.859 E15.21809
G1 X142.059 Y97.368 E15.62316
G1 X142.796 Y99.089 E16.07248
G1 X143.514 Y101.079 E16.58021
G1 X144.086 Y103.046 E17.07185
G1 X144.548 Y105.077 E17.57174
G1 X144.871 Y107.047 E18.05085
G1 X145.071 Y108.956 E18.51152
G1 X145.142 Y110.477 E18.87696
G1 X145.158 Y111.544 E19.13307
G1 X145.13 Y113.045 E19.49337
G1 X145.022 Y114.532 E19.85119
G1 X144.909 Y115.582 E20.10465
G1 X144.689 Y117.15 E20.48465
G1 X144.341 Y118.865 E20.90464
G1 X143.934 Y120.491 E21.30692
G1 X143.64 Y121.502 E21.55961
G1 X143.149 Y122.985 E21.93453
G1 X142.396 Y124.872 E22.42214
G1 X141.727 Y126.303 E22.80126
G1 X140.829 Y128.013 E23.2648
G1 X140.301 Y128.919 E23.51647
G1 X139.771 Y129.765 E23.75607
G1 X139.209 Y130.608 E23.99923
G1 X138.624 Y131.425 E24.24039
G1 X137.986 Y132.268 E24.49412
G1 X137.06 Y133.41 E24.84698
G1 X135.611 Y134.999 E25.36309
G1 X134.196 Y136.366 E25.83528
G1 X132.573 Y137.754 E26.34782
G1 X131.528 Y138.55 E26.66309
G1 X130.686 Y139.156 E26.91207
G1 X129.447 Y139.985 E27.26985
G1 X127.483 Y141.132 E27.81571
G1 X125.747 Y142.005 E28.28207
G1 X123.811 Y142.839 E28.78798
G1 X122.028 Y143.479 E29.24264
G1 X120.021 Y144.07 E29.74477
G1 X117.901 Y144.551 E30.2665
G1 X116.589 Y144.769 E30.58569
G1 X115.536 Y144.917 E30.8409
G1 X114.047 Y145.071 E31.20016
G1 X112.533 Y145.142 E31.56392
G1 X111.433 Y145.159 E31.82796
G1 X109.667 Y145.108 E32.25197
G1 X107.953 Y144.977 E32.66453
G1 X105.879 Y144.693 E33.16694
G1 X104.463 Y144.412 E33.5134
G1 X103.389 Y144.166 E33.77784
G1 X102.02 Y143.803 E34.11775
G1 X100.48 Y143.3 E34.50657
G1 X99.52 Y142.951 E34.75172
G1 X98.062 Y142.369 E35.12849
G1 X96.272 Y141.525 E35.60345
G1 X94.404 Y140.501 E36.11471
G1 X92.702 Y139.429 E36.59746
G1 X91.078 Y138.265 E37.077
G1 X89.82 Y137.247 E37.46539
G1 X88.927 Y136.478 E37.74823
G1 X87.752 Y135.35 E38.13914
G1 X86.887 Y134.455 E38.43786
G1 X85.714 Y133.131 E38.86239
G1 X84.779 Y131.981 E39.21811
G1 X83.85 Y130.692 E39.59944
G1 X83.144 Y129.631 E39.9053
G1 X82.225 Y128.105 E40.33283
G1 X81.688 Y127.126 E40.60081
G1 X80.992 Y125.736 E40.9739
G1 X80.427 Y124.433 E41.31475
G1 X80.023 Y123.423 E41.57582
G1 X79.505 Y121.981 E41.94355
G1 X78.912 Y119.95 E42.45135
G1 X78.604 Y118.604 E42.78274
G1 X78.38 Y117.484 E43.05686
G1 X78.116 Y115.853 E43.45339
G1 X77.93 Y114.046 E43.88936
G1 X77.834 Y111.854 E44.41595
G1 X77.866 Y110.012 E44.8581
G1 X77.982 Y108.425 E45.23999
G1 X78.12 Y107.104 E45.55876
G1 X78.397 Y105.42 E45.96835
G1 X78.716 Y103.836 E46.35614
G1 X79.215 Y101.953 E46.82366
G1 X79.831 Y100.072 E47.29869
G1 X80.617 Y98.099 E47.8084
G1 X81.272 Y96.696 E48.18001
G1 X82.115 Y95.085 E48.61639
G1 X82.699 Y94.082 E48.89494
G1 X83.587 Y92.675 E49.29425
G1 X84.71 Y91.108 E49.75693
G1 X85.966 Y89.558 E50.23573
G1 X87.436 Y87.955 E50.75773
G0 F7200 X87.852 Y88.387
G1 F2400 X89.264 Y87.026 E51.2284
G1 X90.631 Y85.848 E51.66149
G1 X92.309 Y84.572 E52.16742
G1 X94.055 Y83.41 E52.67078
G1 X95.715 Y82.441 E53.13209
G1 X97.447 Y81.566 E53.5978
G1 X99.075 Y80.867 E54.02301
G1 X100.594 Y80.293 E54.41274
G1 X101.62 Y79.951 E54.67229
G1 X103.119 Y79.512 E55.04717
G1 X105.191 Y79.042 E55.55708
G1 X107.118 Y78.725 E56.02577
G1 X108.528 Y78.577 E56.36603
G1 X109.522 Y78.502 E56.60527
G1 X111.132 Y78.434 E56.99202
G1 X112.991 Y78.468 E57.43825
G1 X114.992 Y78.618 E57.91984
G1 X117.093 Y78.91 E58.42892
G1 X118.918 Y79.278 E58.87574
G1 X120.905 Y79.8 E59.3688
G1 X122.874 Y80.454 E59.86675
G1 X124.396 Y81.063 E60.26018
G1 X126.349 Y81.95 E60.77498
G1 X128.214 Y82.969 E61.28504
G1 X129.955 Y84.062 E61.77839
G1 X131.067 Y84.857 E62.10646
G1 X131.894 Y85.483 E62.35539
G1 X133.112 Y86.473 E62.7321
G1 X134.609 Y87.849 E63.22009
G1 X135.991 Y89.277 E63.69703
G1 X137.439 Y91.005 E64.2381
G1 X138.402 Y92.271 E64.61986
G1 X139.406 Y93.779 E65.05465
G1 X140.249 Y95.181 E65.44728
G1 X140.767 Y96.128 E65.70633
G1 X141.507 Y97.604 E66.1026
G1 X142.244 Y99.325 E66.55192
G1 X142.938 Y101.247 E67.04235
G1 X143.51 Y103.214 E67.53399
G1 X143.956 Y105.174 E68.01641
G1 X144.274 Y107.11 E68.48728
G1 X144.474 Y109.019 E68.94795
G1 X144.542 Y110.486 E69.3004
G1 X144.558 Y111.533 E69.55171
G1 X144.53 Y113.034 E69.91202
G1 X144.425 Y114.468 E70.2571
G1 X144.315 Y115.499 E70.50594
G1 X144.101 Y117.031 E70.87719
G1 X143.759 Y118.719 E71.29054
G1 X143.358 Y120.323 E71.68735
G1 X143.07 Y121.313 E71.9348
G1 X142.579 Y122.796 E72.30972
G1 X141.852 Y124.618 E72.78053
G1 X141.183 Y126.049 E73.15964
G1 X140.31 Y127.711 E73.6102
G1 X139.792 Y128.601 E73.85735
G1 X139.272 Y129.432 E74.09262
G1 X138.721 Y130.259 E74.33112
G1 X138.146 Y131.063 E74.56834
G1 X137.52 Y131.89 E74.81727
G1 X136.594 Y133.032 E75.17014
G1 X135.194 Y134.567 E75.66875
G1 X133.779 Y135.934 E76.14094
G1 X132.209 Y137.277 E76.63679
G1 X131.177 Y138.063 E76.94813
G1 X130.352 Y138.657 E77.19211
G1 X129.113 Y139.486 E77.54989
G1 X127.213 Y140.596 E78.07801
G1 X125.477 Y141.469 E78.54436
G1 X123.608 Y142.274 E79.03276
G1 X121.825 Y142.914 E79.48741
G1 X119.852 Y143.494 E79.98097
G1 X117.802 Y143.959 E80.48547
G1 X116.506 Y144.175 E80.8008
G1 X115.474 Y144.32 E81.05091
G1 X113.985 Y144.474 E81.41018
G1 X112.523 Y144.542 E81.76143
G1 X111.45 Y144.559 E82.01899
G1 X109.684 Y144.508 E82.443
G1 X107.999 Y144.379 E82.84859
G1 X105.996 Y144.105 E83.33378
G1 X104.597 Y143.827 E83.67611
G1 X103.543 Y143.586 E83.9356
G1 X102.174 Y143.223 E84.27551
G1 X100.685 Y142.736 E84.6515
G1 X99.742 Y142.394 E84.89224
G1 X98.318 Y141.826 E85.26019
G1 X96.528 Y140.982 E85.73515
G1 X94.724 Y139.993 E86.2289
G1 X93.052 Y138.941 E86.703
G1 X91.428 Y137.777 E87.18254
G1 X90.212 Y136.792 E87.55811
G1 X89.319 Y136.023 E87.84095
G1 X88.183 Y134.933 E88.21879
G1 X87.336 Y134.057 E88.51124
G1 X86.18 Y132.752 E88.92965
G1 X85.245 Y131.602 E89.28536
G1 X84.337 Y130.341 E89.6583
G1 X83.658 Y129.321 E89.95238
G1 X82.751 Y127.816 E90.3741
G1 X82.225 Y126.857 E90.63661
G1 X81.529 Y125.467 E91.00969
G1 X80.978 Y124.195 E91.34238
G1 X80.588 Y123.22 E91.59441
G1 X80.07 Y121.778 E91.96214
G1 X79.497 Y119.816 E92.45269
G1 X79.192 Y118.486 E92.78017
G1 X78.972 Y117.388 E93.04893
G1 X78.713 Y115.792 E93.43698
G1 X78.527 Y113.985 E93.87295
G1 X78.434 Y111.864 E94.38248
G1 X78.466 Y110.022 E94.82463
G1 X78.579 Y108.487 E95.19403
G1 X78.717 Y107.166 E95.51279
G1 X78.985 Y105.538 E95.90877
G1 X79.296 Y103.99 E96.28771
G1 X79.795 Y102.107 E96.75523
G1 X80.401 Y100.259 E97.22199
G1 X81.161 Y98.353 E97.71446
G1 X81.804 Y96.974 E98.07963
G1 X82.647 Y95.363 E98.516
G1 X83.207 Y94.402 E98.78294
G1 X84.075 Y93.025 E99.1736
G1 X85.198 Y91.458 E99.63629
G1 X86.432 Y89.936 E100.10654
G1 X87.852 Y88.387 E100.61087
G0 F7200 X88.268 Y88.819
G1 F2400 X89.656 Y87.481 E101.07357
G1 X91.023 Y86.303 E101.50666
G1 X92.642 Y85.071 E101.99493
G1 X94.358 Y83.928 E102.48976
G1 X95.986 Y82.977 E102.94226
G1 X97.718 Y82.102 E103.40798
G1 X99.287 Y81.428 E103.81781
G1 X100.784 Y80.862 E104.20191
G1 X101.789 Y80.527 E104.45616
G1 X103.288 Y80.088 E104.83103
G1 X105.289 Y79.634 E105.32348
G1 X107.181 Y79.322 E105.78369
G1 X108.573 Y79.175 E106.11963
G1 X109.548 Y79.101 E106.3543
G1 X111.121 Y79.034 E106.73216
G1 X112.98 Y79.068 E107.1784
G1 X114.91 Y79.212 E107.64288
G1 X116.974 Y79.498 E108.14298
G1 X118.799 Y79.866 E108.58979
G1 X120.716 Y80.369 E109.06545
G1 X122.651 Y81.011 E109.55474
G1 X124.148 Y81.609 E109.94163
G1 X126.061 Y82.477 E110.4458
G1 X127.926 Y83.496 E110.95585
G1 X129.606 Y84.55 E111.43183
G1 X130.705 Y85.335 E111.75597
G1 X131.516 Y85.949 E112.0001
G1 X132.706 Y86.915 E112.36795
G1 X134.178 Y88.267 E112.84764
G1 X135.531 Y89.663 E113.31421
G1 X136.961 Y91.368 E113.84828
G1 X137.924 Y92.634 E114.23004
G1 X138.892 Y94.088 E114.64926
G1 X139.723 Y95.469 E115.03608
G1 X140.231 Y96.397 E115.28998
G1 X140.955 Y97.84 E115.67745
G1 X141.692 Y99.561 E116.12677
G1 X142.362 Y101.415 E116.59989
G1 X142.934 Y103.382 E117.09153
G1 X143.364 Y105.271 E117.55649
G1 X143.677 Y107.173 E118.01911
G1 X143.877 Y109.082 E118.47977
G1 X143.942 Y110.495 E118.81925
G1 X143.958 Y111.522 E119.06576
G1 X143.93 Y113.023 E119.42606
G1 X143.828 Y114.405 E119.75865
G1 X143.721 Y115.416 E120.00264
G1 X143.513 Y116.912 E120.36514
G1 X143.177 Y118.574 E120.77208
G1 X142.782 Y120.155 E121.16319
G1 X142.5 Y121.124 E121.4054
G1 X142.009 Y122.607 E121.78032
G1 X141.308 Y124.364 E122.23432
G1 X140.639 Y125.795 E122.61344
G1 X139.791 Y127.409 E123.05101
G1 X139.283 Y128.283 E123.29363
G1 X138.772 Y129.1 E123.5249
G1 X138.233 Y129.91 E123.75841
G1 X137.668 Y130.701 E123.9917
G1 X137.054 Y131.512 E124.23583
G1 X136.15 Y132.628 E124.58052
G1 X134.777 Y134.135 E125.0698
G1 X133.362 Y135.502 E125.54199
G1 X131.845 Y136.8 E126.02116
G1 X130.826 Y137.576 E126.32856
G1 X130.018 Y138.158 E126.56755
G1 X128.779 Y138.987 E126.92533
G1 X126.943 Y140.06 E127.4357
G1 X125.239 Y140.918 E127.89358
G1 X123.405 Y141.709 E128.37293
G1 X121.622 Y142.349 E128.82759
G1 X119.683 Y142.918 E129.31257
G1 X117.703 Y143.367 E129.79983
G1 X116.423 Y143.581 E130.1113
G1 X115.412 Y143.723 E130.35632
G1 X113.923 Y143.877 E130.71559
G1 X112.513 Y143.942 E131.05434
G1 X111.467 Y143.959 E131.30542
G1 X109.701 Y143.908 E131.72943
G1 X108.045 Y143.781 E132.12804
G1 X106.113 Y143.517 E132.59603
G1 X104.731 Y143.242 E132.93421
G1 X103.697 Y143.006 E133.18875
G1 X102.328 Y142.643 E133.52867
G1 X100.889 Y142.172 E133.89206
G1 X99.964 Y141.837 E134.12817
G1 X98.574 Y141.283 E134.48729
G1 X96.784 Y140.439 E134.96225
G1 X95.043 Y139.485 E135.43871
G1 X93.402 Y138.453 E135.90395
G1 X91.778 Y137.289 E136.38349
G1 X90.604 Y136.337 E136.74625
G1 X89.711 Y135.568 E137.02908
G1 X88.614 Y134.516 E137.39386
G1 X87.785 Y133.659 E137.68002
G1 X86.646 Y132.373 E138.09231
G1 X85.711 Y131.223 E138.44803
G1 X84.836 Y130.008 E138.80737
G1 X84.172 Y129.011 E139.09486
G1 X83.265 Y127.506 E139.51659
G1 X82.762 Y126.588 E139.76781
G1 X82.066 Y125.198 E140.14089
G1 X81.529 Y123.957 E140.46542
G1 X81.153 Y123.017 E140.7084
G1 X80.635 Y121.575 E141.07613
G1 X80.082 Y119.682 E141.54944
G1 X79.78 Y118.368 E141.87302
G1 X79.564 Y117.292 E142.13642
G1 X79.31 Y115.731 E142.51598
G1 X79.124 Y113.924 E142.95196
G1 X79.034 Y111.874 E143.44443
G1 X79.066 Y110.032 E143.88658
G1 X79.176 Y108.549 E144.24347
G1 X79.314 Y107.228 E144.56224
G1 X79.573 Y105.656 E144.94461
G1 X79.876 Y104.144 E145.3147
G1 X80.375 Y102.261 E145.78222
G1 X80.971 Y100.446 E146.2407
G1 X81.705 Y98.606 E146.71614
G1 X82.336 Y97.252 E147.07466
G1 X83.179 Y95.641 E147.51103
G1 X83.715 Y94.722 E147.76637
G1 X84.563 Y93.375 E148.14838
G1 X85.686 Y91.808 E148.61106
G1 X86.898 Y90.314 E149.07277
G1 X88.268 Y88.819 E149.55944
G0 F7200 X88.685 Y89.251
G1 F2400 X90.048 Y87.936 E150.01398
G1 X91.415 Y86.758 E150.44707
G1 X92.975 Y85.57 E150.91768
G1 X94.661 Y84.446 E151.404
G1 X96.257 Y83.513 E151.84768
G1 X97.989 Y82.638 E152.3134
G1 X99.499 Y81.989 E152.70785
G1 X100.974 Y81.431 E153.08634
G1 X101.958 Y81.103 E153.33527
G1 X103.457 Y80.664 E153.71014
G1 X105.387 Y80.226 E154.18512
G1 X107.244 Y79.919 E154.63685
G1 X108.619 Y79.773 E154.96871
G1 X109.574 Y79.7 E155.19858
G1 X111.11 Y79.634 E155.56756
G1 X112.969 Y79.668 E156.01379
G1 X114.828 Y79.806 E156.46118
G1 X116.855 Y80.086 E156.95228
G1 X118.68 Y80.454 E157.39909
G1 X120.563 Y80.949 E157.86637
G1 X122.429 Y81.568 E158.33821
G1 X123.9 Y82.155 E158.71832
G1 X125.773 Y83.004 E159.21186
G1 X127.638 Y84.023 E159.72192
G1 X129.257 Y85.038 E160.18052
G1 X130.343 Y85.813 E160.50072
G1 X131.138 Y86.415 E160.74005
G1 X132.3 Y87.357 E161.09906
G1 X133.747 Y88.685 E161.57043
G1 X135.1 Y90.081 E162.037
G1 X136.484 Y91.732 E162.55405
G1 X137.425 Y92.967 E162.92669
G1 X138.378 Y94.397 E163.33912
G1 X139.197 Y95.758 E163.72034
G1 X139.695 Y96.666 E163.96888
G1 X140.403 Y98.076 E164.34755
G1 X141.14 Y99.797 E164.79687
G1 X141.786 Y101.583 E165.25268
G1 X142.349 Y103.516 E165.73588
G1 X142.772 Y105.369 E166.19204
G1 X143.08 Y107.236 E166.64618
G1 X143.28 Y109.145 E167.10685
G1 X143.342 Y110.505 E167.43358
G1 X143.358 Y111.511 E167.67505
G1 X143.33 Y113.012 E168.03536
G1 X143.231 Y114.342 E168.35544
G1 X143.127 Y115.334 E168.59483
G1 X142.925 Y116.793 E168.94833
G1 X142.595 Y118.429 E169.34887
G1 X142.206 Y119.987 E169.73427
G1 X141.93 Y120.935 E169.97124
G1 X141.439 Y122.418 E170.34616
G1 X140.751 Y124.142 E170.79165
G1 X140.108 Y125.516 E171.15573
G1 X139.272 Y127.108 E171.58729
G1 X138.774 Y127.965 E171.82517
G1 X138.272 Y128.768 E172.05246
G1 X137.744 Y129.562 E172.2813
G1 X137.19 Y130.339 E172.51033
G1 X136.588 Y131.134 E172.74966
G1 X135.684 Y132.25 E173.09435
G1 X134.36 Y133.703 E173.56613
G1 X132.945 Y135.07 E174.03832
G1 X131.481 Y136.323 E174.5008
G1 X130.476 Y137.089 E174.80407
G1 X129.684 Y137.659 E175.03826
G1 X128.445 Y138.488 E175.39604
G1 X126.673 Y139.524 E175.88867
G1 X125.001 Y140.367 E176.33807
G1 X123.202 Y141.144 E176.80838
G1 X121.419 Y141.784 E177.26303
G1 X119.514 Y142.342 E177.73944
G1 X117.604 Y142.775 E178.20948
G1 X116.339 Y142.987 E178.51731
G1 X115.35 Y143.126 E178.757
G1 X113.861 Y143.28 E179.11627
G1 X112.503 Y143.342 E179.44253
G1 X111.484 Y143.359 E179.68712
G1 X109.718 Y143.308 E180.11114
G1 X108.091 Y143.183 E180.50277
G1 X106.23 Y142.929 E180.95355
G1 X104.864 Y142.657 E181.28783
G1 X103.851 Y142.426 E181.53719
G1 X102.482 Y142.063 E181.8771
G1 X101.093 Y141.608 E182.22789
G1 X100.186 Y141.28 E182.45937
G1 X98.83 Y140.74 E182.80966
G1 X97.04 Y139.896 E183.28462
G1 X95.362 Y138.977 E183.74379
G1 X93.751 Y137.965 E184.20038
G1 X92.156 Y136.823 E184.67119
G1 X90.996 Y135.882 E185.02967
G1 X90.103 Y135.113 E185.31251
G1 X89.045 Y134.099 E185.66421
G1 X88.234 Y133.261 E185.9441
G1 X87.111 Y131.994 E186.35043
G1 X86.198 Y130.872 E186.6976
G1 X85.335 Y129.675 E187.05176
G1 X84.686 Y128.701 E187.33266
G1 X83.791 Y127.217 E187.74857
G1 X83.298 Y126.319 E187.99444
G1 X82.617 Y124.96 E188.35926
G1 X82.08 Y123.719 E188.68379
G1 X81.718 Y122.814 E188.91772
G1 X81.2 Y121.372 E189.28545
G1 X80.667 Y119.547 E189.74175
G1 X80.368 Y118.25 E190.06119
G1 X80.156 Y117.195 E190.31945
G1 X79.907 Y115.67 E190.6903
G1 X79.721 Y113.863 E191.12627
G1 X79.634 Y111.884 E191.60169
G1 X79.666 Y110.042 E192.04384
G1 X79.773 Y108.611 E192.38823
G1 X79.911 Y107.29 E192.707
G1 X80.161 Y105.774 E193.07575
G1 X80.456 Y104.297 E193.43724
G1 X80.945 Y102.448 E193.89625
G1 X81.541 Y100.633 E194.35474
G1 X82.249 Y98.859 E194.81315
G1 X82.868 Y97.53 E195.16501
G1 X83.711 Y95.919 E195.60139
G1 X84.223 Y95.041 E195.84532
G1 X85.051 Y93.724 E196.21868
G1 X86.152 Y92.186 E196.67263
G1 X87.341 Y90.719 E197.12583
G1 X88.685 Y89.251 E197.6035
G0 F7200 X89.102 Y89.683
