;FLAVOR:UltiGCode
;TIME:410
;MATERIAL:755
;MATERIAL2:0
;NOZZLE_DIAMETER:0.6
;MINX:99.187
;MINY:100.315
;MINZ:0.4
;MAXX:122.681
;MAXY:123.775
;MAXZ:2.05
;TARGET_MACHINE.NAME:Ultimaker 2+
;Generated with Cura_SteamEngine 5.10.0
G0 F3000 Y50 ;avoid prime blob
M104 S230 ; Régler la température de l'extrudeur à 230°C
M140 S58 ; Régle la température du plateau à 58°C
M221 S100 ; Augmente le material flow de +0%
M82 ;absolute extrusion mode
G92 E0
G92 E0
G10
;LAYER_COUNT:12
;LAYER:0
M107
;MESH:Jeton simple.stl
G0 F7200 X115.607 Y111.268 Z0.4
;TYPE:WALL-OUTER
G11
G1 F1380 X114.577 Y111.139 E0.27404
G1 X113.655 Y110.758 E0.53742
G1 X112.868 Y110.161 E0.7982
G1 X112.238 Y109.341 E1.07119
G1 X111.861 Y108.419 E1.33416
G1 X111.729 Y107.457 E1.59051
G1 X111.858 Y106.458 E1.85644
G1 X112.232 Y105.532 E2.12009
G1 X112.837 Y104.735 E2.38425
G1 X113.668 Y104.095 E2.66116
G1 X114.589 Y103.723 E2.92338
G1 X115.586 Y103.597 E3.18869
G1 X116.539 Y103.723 E3.44247
G1 X117.451 Y104.093 E3.7023
G1 X118.265 Y104.712 E3.97227
G1 X118.903 Y105.544 E4.24906
G1 X119.277 Y106.459 E4.51002
G1 X119.403 Y107.414 E4.76433
G1 X119.277 Y108.405 E5.02806
G1 X118.899 Y109.33 E5.29186
G1 X118.29 Y110.131 E5.5575
G1 X117.464 Y110.764 E5.83223
G1 X116.538 Y111.142 E6.09628
G1 X115.607 Y111.268 E6.34431
G0 F7200 X115.31 Y111.231
G10
G0 X111.499 Y122.561
G11
G1 F1380 X114.353 Y122.183 E7.10434
G1 X117.028 Y121.077 E7.86852
G1 X119.322 Y119.322 E8.63104
G1 X121.077 Y117.028 E9.39356
G1 X122.183 Y114.353 E10.15774
G1 X122.561 Y111.5 E10.91752
G1 X122.183 Y108.643 E11.67834
G1 X121.077 Y105.968 E12.44252
G1 X119.322 Y103.679 E13.20399
G1 X117.028 Y101.923 E13.96667
G1 X114.353 Y100.813 E14.73126
G1 X111.5 Y100.435 E15.49103
G1 X108.643 Y100.813 E16.25185
G1 X105.968 Y101.922 E17.01634
G1 X103.678 Y103.678 E17.77818
G1 X101.923 Y105.968 E18.53986
G1 X100.813 Y108.643 E19.30445
G1 X100.435 Y111.499 E20.06501
G1 X100.813 Y114.353 E20.82504
G1 X101.923 Y117.028 E21.58963
G1 X103.679 Y119.322 E22.35231
G1 X105.968 Y121.077 E23.11378
G1 X108.643 Y122.183 E23.87796
G1 X111.499 Y122.561 E24.63852
G0 F7200 X111.796 Y122.522
G0 X111.499 Y121.956
;TYPE:WALL-INNER
G1 F1620 X114.197 Y121.599 E25.25902
G1 X116.726 Y120.553 E25.88301
G1 X118.894 Y118.894 E26.50543
G1 X120.553 Y116.726 E27.12786
G1 X121.598 Y114.196 E27.75197
G1 X121.955 Y111.5 E28.37202
G1 X121.599 Y108.799 E28.99317
G1 F1570.9 X120.497 Y106.135 E29.66911
G1 F1477.9 X119.543 Y105.172 E30.00495
G1 F1524.4 X119.877 Y106.418 E30.31574
G1 F1620 X120.009 Y107.416 E30.54526
G1 X119.862 Y108.559 E30.80801
G1 X119.424 Y109.632 E31.07226
G1 X118.721 Y110.557 E31.33715
G1 X117.765 Y111.292 E31.61209
G1 X116.695 Y111.73 E31.8757
G1 X115.583 Y111.875 E32.13138
G1 X114.448 Y111.732 E32.39221
G1 X113.38 Y111.3 E32.65488
G1 X112.438 Y110.588 E32.9241
G1 X111.697 Y109.618 E33.20241
G1 X111.268 Y108.547 E33.46546
G1 X111.124 Y107.461 E33.71524
G1 X111.266 Y106.333 E33.97445
G1 X111.691 Y105.259 E34.2378
G1 X112.406 Y104.309 E34.50889
G1 X113.363 Y103.572 E34.78429
G1 X114.44 Y103.136 E35.04921
G1 X115.586 Y102.991 E35.31258
G1 X116.578 Y103.123 E35.54075
G1 F1433.8 X117.808 Y103.441 E35.8642
G1 F1354.6 X116.859 Y102.502 E36.22186
G1 F1477.9 X115.527 Y101.95 E36.57909
G1 F1568.1 X114.195 Y101.398 E36.91769
G1 F1620 X111.5 Y101.04 E37.53755
G1 X108.8 Y101.397 E38.15851
G1 X106.27 Y102.446 E38.78297
G1 X104.106 Y104.106 E39.40481
G1 X102.447 Y106.271 E40.02669
G1 X101.397 Y108.8 E40.65102
G1 X101.04 Y111.499 E41.27175
G1 X101.397 Y114.196 E41.89203
G1 X102.447 Y116.726 E42.51658
G1 X104.107 Y118.894 E43.13914
G1 X106.27 Y120.553 E43.76066
G1 X108.799 Y121.599 E44.38464
G1 X111.499 Y121.956 E45.0056
G10
G0 F7200 X119.559 Y105.201
G11
G1 F1057.2 X118.779 Y104.181 E45.43353
G1 F1055.8 X117.792 Y103.437 E45.84591
G10
G0 F7200 X111.497 Y121.469
;TYPE:SKIN
G11
G1 F1140 X114.065 Y121.131 E46.40693
G1 X116.48 Y120.133 E46.97293
G1 X118.55 Y118.55 E47.53737
G1 X120.133 Y116.48 E48.10181
G1 X121.131 Y114.065 E48.6678
G1 X121.469 Y111.496 E49.22905
G1 X121.131 Y108.93 E49.78964
G1 X120.495 Y107.394 E50.14973
G1 X120.324 Y108.689 E50.43266
G1 X119.843 Y109.866 E50.70807
G1 X119.06 Y110.902 E50.98935
G1 X118.006 Y111.706 E51.27648
G1 X116.815 Y112.194 E51.55527
G1 X115.576 Y112.359 E51.826
G1 X114.325 Y112.197 E52.09923
G1 X113.127 Y111.708 E52.3795
G1 X112.098 Y110.936 E52.65814
G1 X111.284 Y109.868 E52.949
G1 X110.807 Y108.687 E53.22488
G1 X110.637 Y107.461 E53.49297
G1 X110.802 Y106.181 E53.77251
G1 X111.275 Y105.004 E54.04727
G1 X112.066 Y103.957 E54.33149
G1 X113.122 Y103.148 E54.61963
G1 X114.317 Y102.667 E54.89865
G1 X115.605 Y102.502 E55.17991
G1 X114.061 Y101.861 E55.54201
G1 X111.5 Y101.523 E56.10154
G1 X108.931 Y101.861 E56.66278
G1 X106.512 Y102.863 E57.2299
G1 X104.447 Y104.446 E57.79348
G1 X102.866 Y106.512 E58.35697
G1 X101.861 Y108.931 E58.92435
G1 X101.523 Y111.496 E59.48473
G1 X101.861 Y114.061 E60.04511
G1 X102.867 Y116.48 E60.61257
G1 X104.447 Y118.55 E61.17662
G1 X106.512 Y120.133 E61.7402
G1 X108.931 Y121.131 E62.307
G1 X111.497 Y121.469 E62.86759
G10
G0 F7200 X111.209 Y123.654
G0 X108.346 Y123.275
G0 X105.403 Y122.056
G0 X102.879 Y120.121
G0 X104.341 Y117.918
G11
G1 F1140 X105.084 Y118.66 E63.09503
G0 F7200 X107.48 Y120.207
G1 F1140 X102.793 Y115.521 E64.5306
G1 X102.687 Y115.415
G0 F7200 X102.19 Y114.069
G1 F1140 X108.924 Y120.804 E66.5935
G0 F7200 X109.929 Y120.96
G1 F1140 X102.032 Y113.063 E69.0125
G0 F7200 X101.903 Y112.086
G1 F1140 X110.906 Y121.089 E71.77028
G0 F7200 X111.793 Y121.127
G1 F1140 X101.864 Y111.198 E74.81172
G0 F7200 X101.963 Y110.449
G1 F1140 X112.543 Y121.028 E78.05242
G0 F7200 X113.293 Y120.929
G1 F1140 X102.062 Y109.698 E81.49269
G0 F7200 X102.173 Y108.961
G1 F1140 X114.032 Y120.82 E85.12532
G0 F7200 X114.632 Y120.572
G1 F1140 X102.422 Y108.362 E88.86547
G0 F7200 X102.671 Y107.762
G1 F1140 X115.233 Y120.324 E92.71344
G0 F7200 X115.833 Y120.076
G1 F1140 X102.92 Y107.163 E96.66894
G0 F7200 X103.189 Y106.583
G1 F1140 X116.412 Y119.807 E100.71954
G0 F7200 X116.893 Y119.439
G1 F1140 X103.556 Y106.102 E104.80491
G0 F7200 X103.924 Y105.621
G1 F1140 X117.374 Y119.071 E108.9249
G0 F7200 X117.855 Y118.703
G1 F1140 X104.293 Y105.141 E113.07919
G0 F7200 X104.66 Y104.66
G1 F1140 X118.336 Y118.336 E117.26841
G0 F7200 X118.704 Y117.856
G1 F1140 X112.344 Y111.495 E119.21675
G0 F7200 X111.52 Y110.671
G1 F1140 X105.141 Y104.293 E121.1706
G0 F7200 X105.621 Y103.924
G1 F1140 X110.55 Y108.853 E122.68045
G0 F7200 X110.385 Y107.839
G1 F1140 X106.102 Y103.556 E123.99241
G0 F7200 X106.582 Y103.188
G1 F1140 X110.394 Y106.999 E125.15994
G0 F7200 X110.489 Y106.246
G1 F1140 X107.162 Y102.919 E126.17906
G0 F7200 X107.762 Y102.67
G1 F1140 X110.706 Y105.615 E127.08102
G0 F7200 X110.95 Y105.01
G1 F1140 X108.361 Y102.422 E127.87393
G0 F7200 X108.962 Y102.173
G1 F1140 X111.286 Y104.498 E128.58596
G0 F7200 X111.649 Y104.013
G1 F1140 X109.699 Y102.062 E129.18344
G0 F7200 X110.449 Y101.964
G1 F1140 X112.065 Y103.58 E129.67845
G0 F7200 X112.545 Y103.211
G1 F1140 X111.199 Y101.865 E130.09075
G0 F7200 X112.086 Y101.903
G1 F1140 X113.04 Y102.857 E130.38298
G0 F7200 X113.645 Y102.614
G1 F1140 X113.064 Y102.033 E130.56095
G0 F7200 X114.069 Y102.19
G1 F1140 X114.25 Y102.371 E130.6164
G10
G0 F7200 X114.847 Y104.824
G0 X118.184 Y108.123
G0 X120.625 Y108.745
G11
G1 F1140 X120.806 Y108.926 E130.67184
G0 F7200 X120.379 Y109.348
G1 F1140 X120.961 Y109.93 E130.85012
G0 F7200 X120.133 Y109.951
G1 F1140 X121.09 Y110.908 E131.14326
G0 F7200 X121.128 Y111.794
G1 F1140 X119.78 Y110.446 E131.55618
G0 F7200 X119.414 Y110.929
G1 F1140 X121.029 Y112.544 E132.05089
G0 F7200 X120.931 Y113.294
G1 F1140 X118.978 Y111.341 E132.64913
G0 F7200 X118.496 Y111.708
G1 F1140 X120.821 Y114.032 E133.36116
G0 F7200 X120.572 Y114.633
G1 F1140 X117.983 Y112.043 E134.15438
G0 F7200 X117.379 Y112.288
G1 F1140 X120.325 Y115.234 E135.05679
G0 F7200 X120.077 Y115.834
G1 F1140 X116.751 Y112.508 E136.07561
G0 F7200 X115.999 Y112.605
G1 F1140 X119.807 Y116.413 E137.24207
G0 F7200 X119.44 Y116.894
G1 F1140 X115.152 Y112.607 E138.55541
G0 F7200 X114.141 Y112.444
G1 F1140 X119.072 Y117.375 E140.06587
G1 X119.178 Y117.481
G10
;MESH:NONMESH
G0 F600 X119.178 Y117.481 Z0.55
G0 F7200 X115.588 Y111.148
;TIME_ELAPSED:38.266809
;LAYER:1
M106 S255
;TYPE:WALL-OUTER
;MESH:Jeton simple.stl
G11
G1 F1380 X114.601 Y111.025 E140.15538
G1 X113.695 Y110.646 E140.24377
G1 X112.935 Y110.061 E140.33009
G1 X112.354 Y109.3 E140.41626
G1 X111.981 Y108.409 E140.50319
G1 X111.844 Y107.434 E140.5918
G1 X111.977 Y106.471 E140.6793
G1 X112.347 Y105.574 E140.76662
G1 X112.933 Y104.802 E140.85385
G1 X113.706 Y104.212 E140.94137
G1 X114.602 Y103.843 E141.02858
G1 X115.564 Y103.712 E141.11596
G1 X116.533 Y103.843 E141.20397
G1 X117.411 Y104.209 E141.28958
G1 X118.194 Y104.802 E141.37798
G1 X118.787 Y105.585 E141.46637
G1 X119.157 Y106.47 E141.5527
G1 X119.283 Y107.432 E141.64002
G1 X119.157 Y108.398 E141.7277
G1 X118.783 Y109.291 E141.81483
G1 X118.195 Y110.062 E141.9021
G1 X117.422 Y110.652 E141.98962
G1 X116.529 Y111.023 E142.07665
G1 X115.588 Y111.148 E142.16208
G0 F7200 X115.291 Y111.111
G0 X115.237 Y111.521
G0 X111.5 Y122.269
G0 X111.499 Y122.681
G1 F1380 X114.385 Y122.299 E142.42409
G1 X117.088 Y121.181 E142.68735
G1 X119.405 Y119.405 E142.95009
G1 X121.181 Y117.088 E143.21283
G1 X122.303 Y114.385 E143.47623
G1 X122.681 Y111.5 E143.7381
G1 X122.303 Y108.611 E144.00032
G1 X121.181 Y105.908 E144.26372
G1 X119.405 Y103.591 E144.52646
G1 X117.088 Y101.815 E144.7892
G1 X114.385 Y100.697 E145.05246
G1 X111.5 Y100.315 E145.31438
G1 X108.611 Y100.697 E145.57665
G1 X105.908 Y101.815 E145.83991
G1 X103.59 Y103.59 E146.10267
G1 X101.815 Y105.908 E146.36543
G1 X100.697 Y108.611 E146.62869
G1 X100.315 Y111.499 E146.89087
G1 X100.697 Y114.385 E147.15287
G1 X101.815 Y117.088 E147.41613
G1 X103.59 Y119.406 E147.67889
G1 X105.908 Y121.181 E147.94165
G1 X108.611 Y122.299 E148.20491
G1 X111.499 Y122.681 E148.46709
G0 F7200 X111.796 Y122.642
G0 X111.499 Y122.076
;TYPE:WALL-INNER
G1 F2010 X114.229 Y121.715 E148.71493
G1 X116.786 Y120.657 E148.96398
G1 X118.977 Y118.977 E149.21247
G1 X120.657 Y116.786 E149.46096
G1 X121.719 Y114.229 E149.71014
G1 X122.076 Y111.5 E149.95785
G1 X121.719 Y108.767 E150.20591
G1 F2055.1 X120.674 Y106.252 E150.44612
G1 F2155.3 X119.654 Y104.859 E150.59192
G1 F2197.9 X118.994 Y104.002 E150.68165
G1 F2176.4 X117.978 Y103.224 E150.78875
G1 F2126.4 X116.741 Y102.321 E150.9197
G1 F2047.5 X114.229 Y101.282 E151.16028
G1 F2010 X111.5 Y100.92 E151.40804
G1 X108.767 Y101.281 E151.65615
G1 X106.21 Y102.339 E151.9052
G1 X104.018 Y104.018 E152.1537
G1 X102.339 Y106.21 E152.4022
G1 X101.281 Y108.767 E152.65125
G1 X100.92 Y111.499 E152.89927
G1 X101.281 Y114.229 E153.14711
G1 X102.339 Y116.786 E153.39616
G1 X104.018 Y118.978 E153.64466
G1 X106.21 Y120.657 E153.89317
G1 X108.767 Y121.715 E154.14222
G1 X111.499 Y122.076 E154.39024
G0 F7200 X111.5 Y121.664
G0 X114.409 Y112.017
G0 X114.462 Y111.612
G1 F2010 X113.415 Y111.184 E154.49204
G1 X112.505 Y110.49 E154.59503
G1 X111.814 Y109.578 E154.69801
G1 X111.389 Y108.541 E154.79888
G1 X111.24 Y107.434 E154.89941
G1 X111.401 Y106.288 E155.00356
G1 X111.821 Y105.271 E155.10259
G1 X112.506 Y104.374 E155.20417
G1 X113.403 Y103.689 E155.30574
G1 X114.447 Y103.258 E155.4074
G1 X115.568 Y103.107 E155.5092
G1 X116.706 Y103.262 E155.61256
G1 F2090.2 X117.712 Y103.71 E155.70821
G1 F2185 X118.6 Y104.396 E155.80179
G1 X119.285 Y105.282 E155.89519
G1 F2094.2 X119.74 Y106.302 E155.99202
G1 F2010 X119.888 Y107.432 E156.09459
G1 X119.741 Y108.557 E156.1967
G1 X119.306 Y109.595 E156.298
G1 X118.623 Y110.49 E156.39932
G1 X117.728 Y111.177 E156.50087
G1 X116.686 Y111.61 E156.60242
G1 X115.559 Y111.756 E156.7047
G1 X114.462 Y111.612 E156.80427
G0 F7200 X114.409 Y112.017
G0 X116.778 Y111.949
G0 X117.906 Y111.482
G0 X118.874 Y110.737
G0 X119.615 Y109.769
G0 X120.082 Y108.641
G0 X120.071 Y106.039
G0 X120.047 Y106.048
;TYPE:SKIN
G1 F1361.3 X119.564 Y105.212 E156.87444
G1 X119.43 Y105.022 E156.89134
G0 F7200 X118.795 Y104.197
G1 F1361.3 X117.809 Y103.436 E156.98186
G1 X117.713 Y103.39 E156.98959
G10
G0 F7200 X117.368 Y103.192
G0 X115.568 Y102.759
G0 X114.353 Y102.919
G0 X113.226 Y103.388
G0 X112.259 Y104.13
G0 X111.516 Y105.099
G0 X111.05 Y106.227
G0 X111.497 Y121.589
G11
G1 F1140 X114.097 Y121.247 E157.21381
G1 X116.54 Y120.237 E157.43983
G1 X118.634 Y118.634 E157.66531
G1 X120.238 Y116.54 E157.89083
G1 X121.251 Y114.097 E158.11695
G1 X121.589 Y111.496 E158.34121
G1 X121.251 Y108.899 E158.56513
G1 X120.601 Y107.334 E158.71002
G1 F1165.6 X120.255 Y106.438 E158.79049
G1 F1192.2 X120.207 Y106.373 E158.79713
G1 F1178.8 X120.371 Y107.437 E158.88641
G1 F1152.7 X120.205 Y108.678 E158.99239
G1 F1140 X119.722 Y109.835 E159.09959
G1 X118.97 Y110.827 E159.20602
G1 X117.971 Y111.592 E159.3136
G1 X116.813 Y112.071 E159.42075
G1 X115.551 Y112.239 E159.5296
G1 X114.323 Y112.07 E159.63558
G1 X113.165 Y111.593 E159.74266
G1 X112.163 Y110.829 E159.8504
G1 X111.403 Y109.827 E159.95792
G1 X110.926 Y108.673 E160.06469
G1 X110.752 Y107.438 E160.17132
G1 X110.925 Y106.187 E160.2793
G1 X111.4 Y105.029 E160.38632
G1 X112.161 Y104.029 E160.49376
G1 X113.159 Y103.266 E160.60117
G1 X114.319 Y102.791 E160.70834
G1 X115.564 Y102.62 E160.81579
G1 X116.528 Y102.752 E160.89898
G1 X114.097 Y101.745 E161.12396
G1 X111.5 Y101.403 E161.34792
G1 X108.899 Y101.745 E161.57222
G1 X106.452 Y102.759 E161.79869
G1 X104.358 Y104.358 E162.02395
G1 X102.759 Y106.452 E162.24922
G1 X101.745 Y108.899 E162.47569
G1 X101.403 Y111.497 E162.69973
G1 X101.745 Y114.097 E162.92395
G1 X102.759 Y116.54 E163.1501
G1 X104.359 Y118.634 E163.37542
G1 X106.452 Y120.237 E163.60083
G1 X108.899 Y121.247 E163.82717
G1 X111.497 Y121.589 E164.05121
G0 F7200 X117.991 Y118.749
G1 F1140 X118.748 Y117.991 E164.14281
G0 F7200 X120.311 Y115.579
G1 F1140 X115.582 Y120.309 E164.71468
G1 X115.476 Y120.415
G0 F7200 X114.135 Y120.907
G1 F1140 X120.914 Y114.128 E165.53436
G0 F7200 X121.076 Y113.118
G1 F1140 X113.121 Y121.073 E166.49624
G0 F7200 X112.144 Y121.201
G1 F1140 X121.202 Y112.143 E167.59149
G0 F7200 X121.253 Y111.243
G1 F1140 X111.243 Y121.253 E168.80185
G0 F7200 X110.494 Y121.154
G1 F1140 X121.156 Y110.493 E170.09099
G0 F7200 X121.058 Y109.742
G1 F1140 X109.744 Y121.056 E171.45903
G0 F7200 X108.993 Y120.958
G1 F1140 X118.085 Y111.866 E172.55839
G1 X118.191 Y111.76
G0 F7200 X116.719 Y112.383
G1 F1140 X108.39 Y120.713 E173.56555
G0 F7200 X107.789 Y120.465
G1 F1140 X115.738 Y112.516 E174.52671
G0 F7200 X114.946 Y112.46
G1 F1140 X107.189 Y120.217 E175.46465
G0 F7200 X106.591 Y119.966
G1 F1140 X114.211 Y112.346 E176.38602
G0 F7200 X113.607 Y112.101
G1 F1140 X106.111 Y119.598 E177.29246
G0 F7200 X105.63 Y119.23
G1 F1140 X113.01 Y111.85 E178.18482
G0 F7200 X112.529 Y111.482
G1 F1140 X105.15 Y118.862 E179.07711
G0 F7200 X104.669 Y118.494
G1 F1140 X112.048 Y111.115 E179.96935
G0 F7200 X111.658 Y110.657
G1 F1140 X104.28 Y118.035 E180.86146
G0 F7200 X103.912 Y117.554
G1 F1140 X111.292 Y110.174 E181.75381
G0 F7200 X110.991 Y109.626
G1 F1140 X103.544 Y117.073 E182.65427
G0 F7200 X103.177 Y116.592
G1 F1140 X110.745 Y109.024 E183.56936
G0 F7200 X110.573 Y108.347
G1 F1140 X102.878 Y116.043 E184.49986
G0 F7200 X102.629 Y115.443
G1 F1140 X110.472 Y107.6 E185.4482
G0 F7200 X110.558 Y106.666
G1 F1140 X102.38 Y114.843 E186.43698
G0 F7200 X102.131 Y114.244
G1 F1140 X110.887 Y105.488 E187.49572
G1 X110.993 Y105.382
G0 F7200 X110.265 Y101.867
G1 F1140 X101.868 Y110.264 E188.51104
G0 F7200 X101.739 Y111.241
G1 F1140 X111.241 Y101.739 E189.65998
G0 F7200 X112.052 Y101.777
G1 F1140 X101.778 Y112.051 E190.90226
G0 F7200 X101.877 Y112.801
G1 F1140 X112.801 Y101.876 E192.2232
G0 F7200 X113.551 Y101.975
G1 F1140 X101.975 Y113.551 E193.62292
G1 X101.869 Y113.657
G0 F7200 X101.997 Y109.287
G1 F1140 X109.288 Y101.996 E194.50451
G1 X109.394 Y101.89
G0 F7200 X107.989 Y102.446
G1 F1140 X102.447 Y107.988 E195.17462
G1 X102.341 Y108.094
G0 F7200 X103.145 Y106.441
G1 F1140 X106.442 Y103.144 E195.57328
G1 X106.548 Y103.038
G0 F7200 X113.623 Y102.752
