;FLAVOR:UltiGCode
;TIME:1133
;MATERIAL:2100
;MATERIAL2:0
;NOZZLE_DIAMETER:0.6
;MINX:91.969
;MINY:91.969
;MINZ:0.4
;MAXX:161.015
;MAXY:131.031
;MAXZ:2.05
;TARGET_MACHINE.NAME:Ultimaker 2+
;Generated with Cura_SteamEngine 5.10.0
G0 F3000 Y50 ;avoid prime blob
M104 S230 ; Régler la température de l'extrudeur à 230°C
M140 S58 ; Régle la température du plateau à 58°C
M221 S100 ; Augmente le material flow de +x%
M82 ;absolute extrusion mode
G92 E0
G92 E0
G10
;LAYER_COUNT:12
;LAYER:0
M107
G0 F7200 X97.69 Y97.682 Z0.4
;TYPE:SKIRT
G11
G1 F1320 X101.733 Y94.588 E1.22185
G1 X106.451 Y92.628 E2.44799
G1 X111.5 Y91.969 E3.67003
G1 X116.549 Y92.628 E4.89207
G1 X121.267 Y94.588 E6.11821
G1 X125.31 Y97.682 E7.34006
G1 X126.492 Y99.225 E7.80655
G1 X127.674 Y97.682 E8.27304
G1 X131.717 Y94.588 E9.49489
G1 X136.434 Y92.628 E10.72081
G1 X141.484 Y91.969 E11.94308
G1 X146.533 Y92.628 E13.16512
G1 X151.248 Y94.587 E14.39051
G1 X155.298 Y97.686 E15.61442
G1 X158.397 Y101.736 E16.83833
G1 X160.356 Y106.452 E18.06394
G1 X161.015 Y111.5 E19.28574
G1 X160.356 Y116.544 E20.50659
G1 X158.396 Y121.265 E21.73339
G1 X155.288 Y125.324 E22.96033
G1 X151.271 Y128.398 E24.17431
G1 X146.501 Y130.372 E25.41327
G1 X141.481 Y131.031 E26.62841
G1 X136.434 Y130.372 E27.84997
G1 X131.717 Y128.412 E29.07589
G1 X127.674 Y125.318 E30.29774
G1 X126.492 Y123.774 E30.76442
G1 X125.306 Y125.322 E31.23244
G1 X121.282 Y128.401 E32.44848
G1 X116.519 Y130.372 E33.68561
G1 X111.496 Y131.031 E34.90146
G1 X106.451 Y130.372 E36.12255
G1 X101.736 Y128.413 E37.34793
G1 X97.686 Y125.314 E38.57185
G1 X94.587 Y121.264 E39.79576
G1 X92.628 Y116.548 E41.02137
G1 X91.969 Y111.5 E42.24317
G1 X92.628 Y106.456 E43.46401
G1 X94.588 Y101.735 E44.69082
G1 X97.69 Y97.682 E45.91574
G0 F7200 X98.116 Y98.112
G1 F1320 X102.038 Y95.111 E47.10097
G1 X106.607 Y93.213 E48.28838
G1 X111.5 Y92.574 E49.47267
G1 X116.393 Y93.213 E50.65696
G1 X120.962 Y95.111 E51.84437
G1 X124.884 Y98.112 E53.02959
G1 X126.492 Y100.212 E53.66438
G1 X128.1 Y98.112 E54.29916
G1 X132.022 Y95.111 E55.48438
G1 X136.59 Y93.213 E56.67157
G1 X141.484 Y92.574 E57.8561
G1 X146.377 Y93.213 E59.04039
G1 X150.946 Y95.111 E60.2278
G1 X154.87 Y98.114 E61.4137
G1 X157.873 Y102.038 E62.59959
G1 X159.771 Y106.608 E63.78723
G1 X160.41 Y111.5 E64.97128
G1 X159.771 Y116.388 E66.15438
G1 X157.872 Y120.963 E67.34321
G1 X154.862 Y124.894 E68.53146
G1 X150.965 Y127.876 E69.70915
G1 X146.347 Y129.787 E70.90862
G1 X141.481 Y130.426 E72.08649
G1 X136.59 Y129.787 E73.2703
G1 X132.022 Y127.889 E74.45749
G1 X128.1 Y124.888 E75.64271
G1 X126.492 Y122.787 E76.27769
G1 X124.88 Y124.892 E76.91401
G1 X120.976 Y127.879 E78.09376
G1 X116.365 Y129.787 E79.2914
G1 X111.497 Y130.426 E80.46974
G1 X106.607 Y129.787 E81.65332
G1 X102.038 Y127.889 E82.84073
G1 X98.114 Y124.886 E84.02662
G1 X95.111 Y120.962 E85.21252
G1 X93.213 Y116.392 E86.40015
G1 X92.574 Y111.5 E87.58421
G1 X93.213 Y106.612 E88.76731
G1 X95.112 Y102.037 E89.95614
G1 X98.116 Y98.112 E91.14237
G0 F7200 X98.544 Y98.54
G1 F1320 X102.34 Y95.635 E92.28958
G1 X106.763 Y93.798 E93.43901
G1 X111.5 Y93.179 E94.58556
G1 X116.237 Y93.798 E95.7321
G1 X120.66 Y95.635 E96.88154
G1 X124.456 Y98.54 E98.02874
G1 X126.492 Y101.199 E98.8325
G1 X128.528 Y98.54 E99.63625
G1 X132.324 Y95.635 E100.78345
G1 X136.746 Y93.798 E101.93267
G1 X141.484 Y93.179 E103.07945
G1 X146.221 Y93.798 E104.226
G1 X150.644 Y95.635 E105.37543
G1 X154.442 Y98.542 E106.52331
G1 X157.349 Y102.34 E107.67119
G1 X159.186 Y106.764 E108.82084
G1 X159.805 Y111.5 E109.96715
G1 X159.186 Y116.232 E111.11251
G1 X157.348 Y120.661 E112.26336
G1 X154.436 Y124.464 E113.41292
G1 X150.659 Y127.354 E114.55432
G1 X146.193 Y129.202 E115.7143
G1 X141.481 Y129.821 E116.8549
G1 X136.746 Y129.202 E118.00097
G1 X132.324 Y127.365 E119.15018
G1 X128.528 Y124.46 E120.29739
G1 X126.492 Y121.8 E121.10133
G1 X124.454 Y124.462 E121.90594
G1 X120.67 Y127.357 E123.0494
G1 X116.212 Y129.202 E124.20733
G1 X111.497 Y129.821 E125.34864
G1 X106.763 Y129.202 E126.49447
G1 X102.34 Y127.365 E127.64391
G1 X98.542 Y124.458 E128.79179
G1 X95.635 Y120.66 E129.93967
G1 X93.798 Y116.236 E131.08932
G1 X93.179 Y111.5 E132.23563
G1 X93.798 Y106.768 E133.38099
G1 X95.636 Y102.339 E134.53184
G1 X98.544 Y98.54 E135.68006
G0 F7200 X98.97 Y98.97
G1 F1320 X102.645 Y96.158 E136.79064
G1 X106.919 Y94.383 E137.90134
G1 X111.5 Y93.784 E139.01014
G1 X116.081 Y94.383 E140.11894
G1 X120.355 Y96.158 E141.22964
G1 X124.03 Y98.97 E142.34022
G1 X126.492 Y102.186 E143.31227
G1 X128.954 Y98.97 E144.28431
G1 X132.629 Y96.158 E145.39489
G1 X136.902 Y94.383 E146.50537
G1 X141.484 Y93.784 E147.61441
G1 X146.065 Y94.383 E148.72321
G1 X150.339 Y96.158 E149.83391
G1 X154.014 Y98.97 E150.94449
G1 X156.826 Y102.645 E152.05507
G1 X158.601 Y106.92 E153.166
G1 X159.2 Y111.5 E154.27456
G1 X158.601 Y116.076 E155.38217
G1 X156.824 Y120.359 E156.49505
G1 X154.01 Y124.034 E157.60592
G1 X150.353 Y126.832 E158.71103
G1 X146.04 Y128.617 E159.83129
G1 X141.481 Y129.216 E160.93486
G1 X136.902 Y128.617 E162.04318
G1 X132.629 Y126.842 E163.15366
G1 X128.954 Y124.03 E164.26424
G1 X126.492 Y120.813 E165.23648
G1 X124.026 Y124.034 E166.21006
G1 X120.367 Y126.834 E167.31584
G1 X116.058 Y128.617 E168.43504
G1 X111.497 Y129.216 E169.53908
G1 X106.919 Y128.617 E170.64716
G1 X102.645 Y126.842 E171.75787
G1 X98.97 Y124.03 E172.86845
G1 X96.158 Y120.355 E173.97903
G1 X94.383 Y116.08 E175.08995
G1 X93.784 Y111.5 E176.19851
G1 X94.383 Y106.924 E177.30612
G1 X96.16 Y102.641 E178.419
G1 X98.97 Y98.97 E179.52853
G0 F7200 X99.398 Y99.398
G1 F1320 X102.947 Y96.682 E180.60109
G1 X107.075 Y94.968 E181.67382
G1 X111.5 Y94.389 E182.74487
G1 X115.925 Y94.968 E183.81592
G1 X120.053 Y96.682 E184.88865
G1 X123.602 Y99.398 E185.96121
G1 X126.27 Y102.884 E187.01477
G1 X126.492 Y103.367 E187.14234
G1 X126.716 Y102.88 E187.27099
G1 X129.382 Y99.398 E188.32349
G1 X132.931 Y96.682 E189.39606
G1 X137.058 Y94.968 E190.46856
G1 X141.484 Y94.389 E191.53985
G1 X145.909 Y94.968 E192.61091
G1 X150.037 Y96.682 E193.68363
G1 X153.586 Y99.398 E194.7562
G1 X156.302 Y102.947 E195.82876
G1 X158.016 Y107.076 E196.90171
G1 X158.595 Y111.5 E197.97252
G1 X158.016 Y115.92 E199.04238
G1 X156.3 Y120.057 E200.11729
G1 X153.584 Y123.604 E201.18947
G1 X150.047 Y126.31 E202.25829
G1 X145.886 Y128.032 E203.33907
G1 X141.481 Y128.611 E204.40536
G1 X137.058 Y128.032 E205.47594
G1 X132.931 Y126.318 E206.54844
G1 X129.382 Y123.602 E207.62101
G1 X126.714 Y120.116 E208.67456
G1 X126.492 Y119.633 E208.80214
G1 X126.268 Y120.12 E208.93079
G1 X123.6 Y123.604 E209.98396
G1 X120.062 Y126.311 E211.05311
G1 X115.905 Y128.032 E212.13291
G1 X111.497 Y128.611 E213.19992
G1 X107.075 Y128.032 E214.27026
G1 X102.947 Y126.318 E215.34299
G1 X99.398 Y123.602 E216.41555
G1 X96.682 Y120.053 E217.48811
G1 X94.968 Y115.924 E218.56106
G1 X94.389 Y111.5 E219.63188
G1 X94.968 Y107.08 E220.70174
G1 X96.684 Y102.943 E221.77665
G1 X99.398 Y99.398 E222.84815
G0 F7200 X99.826 Y99.826
G1 F1320 X103.249 Y97.206 E223.8827
G1 X107.231 Y95.553 E224.91745
G1 X111.5 Y94.994 E225.95076
G1 X115.769 Y95.553 E226.98406
G1 X119.751 Y97.206 E228.01882
G1 X123.174 Y99.826 E229.05336
G1 X125.794 Y103.249 E230.08791
G1 X126.493 Y104.932 E230.52528
G1 X127.192 Y103.245 E230.96354
G1 X129.81 Y99.826 E231.99703
G1 X133.233 Y97.206 E233.03158
G1 X137.214 Y95.553 E234.06611
G1 X141.484 Y94.994 E235.09965
G1 X145.753 Y95.553 E236.13296
G1 X149.735 Y97.206 E237.16771
G1 X153.158 Y99.826 E238.20225
G1 X155.778 Y103.249 E239.2368
G1 X157.431 Y107.232 E240.27177
G1 X157.99 Y111.5 E241.30484
G1 X157.431 Y115.764 E242.33696
G1 X155.776 Y119.755 E243.37389
G1 X153.156 Y123.176 E244.40805
G1 X149.744 Y125.787 E245.43919
G1 X145.733 Y127.447 E246.48101
G1 X141.481 Y128.006 E247.51027
G1 X137.214 Y127.447 E248.5431
G1 X133.233 Y125.794 E249.57763
G1 X129.81 Y123.174 E250.61218
G1 X127.19 Y119.751 E251.64673
G1 X126.491 Y118.068 E252.0841
G1 X125.792 Y119.755 E252.52236
G1 X123.172 Y123.176 E253.55652
G1 X119.759 Y125.788 E254.588
G1 X115.751 Y127.447 E255.62906
G1 X111.497 Y128.006 E256.6588
G1 X107.231 Y127.447 E257.69139
G1 X103.249 Y125.794 E258.72614
G1 X99.826 Y123.174 E259.76069
G1 X97.206 Y119.751 E260.79523
G1 X95.553 Y115.768 E261.83021
G1 X94.994 Y111.5 E262.86328
G1 X95.553 Y107.236 E263.89539
G1 X97.208 Y103.245 E264.93232
G1 X99.826 Y99.826 E265.96582
G0 F7200 X100.254 Y100.254
G1 F1320 X103.551 Y97.73 E266.96234
G1 X107.387 Y96.138 E267.95912
G1 X111.5 Y95.599 E268.95468
G1 X115.613 Y96.138 E269.95024
G1 X119.449 Y97.73 E270.94702
G1 X122.746 Y100.254 E271.94355
G1 X125.27 Y103.551 E272.94007
G1 X126.493 Y106.498 E273.70584
G1 X127.716 Y103.547 E274.47249
G1 X130.238 Y100.254 E275.46797
G1 X133.535 Y97.73 E276.4645
G1 X137.37 Y96.138 E277.46105
G1 X141.484 Y95.599 E278.45685
G1 X145.597 Y96.138 E279.45241
G1 X149.433 Y97.73 E280.44919
G1 X152.73 Y100.254 E281.44572
G1 X155.254 Y103.551 E282.44224
G1 X156.846 Y107.388 E283.43924
G1 X157.385 Y111.5 E284.43456
G1 X156.846 Y115.608 E285.42893
G1 X155.252 Y119.453 E286.42789
G1 X152.73 Y122.746 E287.42336
G1 X149.438 Y125.265 E288.41821
G1 X145.579 Y126.862 E289.42055
G1 X141.481 Y127.401 E290.41254
G1 X137.37 Y126.862 E291.40762
G1 X133.535 Y125.27 E292.40418
G1 X130.238 Y122.746 E293.4007
G1 X127.714 Y119.449 E294.39723
G1 X126.491 Y116.502 E295.163
G1 X125.268 Y119.453 E295.92965
G1 X122.746 Y122.746 E296.92513
G1 X119.454 Y125.265 E297.91997
G1 X115.598 Y126.862 E298.92164
G1 X111.497 Y127.401 E299.91435
G1 X107.387 Y126.862 E300.9092
G1 X103.551 Y125.27 E301.90597
G1 X100.254 Y122.746 E302.9025
G1 X97.73 Y119.449 E303.89903
G1 X96.138 Y115.612 E304.89603
G1 X95.599 Y111.5 E305.89135
G1 X96.138 Y107.392 E306.88572
G1 X97.732 Y103.547 E307.88467
G1 X100.254 Y100.254 E308.88015
G0 F7200 X100.682 Y100.682
G1 F1320 X103.853 Y98.254 E309.83866
G1 X107.543 Y96.723 E310.79746
G1 X111.5 Y96.204 E311.75528
G1 X115.457 Y96.723 E312.71309
G1 X119.147 Y98.254 E313.67189
G1 X122.318 Y100.682 E314.6304
G1 X124.746 Y103.853 E315.58891
G1 X126.277 Y107.544 E316.54794
G1 X126.492 Y109.184 E316.9449
G1 X126.707 Y107.548 E317.34092
G1 X128.24 Y103.849 E318.3019
G1 X130.666 Y100.682 E319.25936
G1 X133.837 Y98.254 E320.21787
G1 X137.526 Y96.723 E321.17645
G1 X141.484 Y96.204 E322.1345
G1 X145.441 Y96.723 E323.09232
G1 X149.131 Y98.254 E324.05112
G1 X152.302 Y100.682 E325.00963
G1 X154.73 Y103.853 E325.96814
G1 X156.261 Y107.544 E326.92716
G1 X156.78 Y111.5 E327.88474
G1 X156.261 Y115.452 E328.84136
G1 X154.728 Y119.151 E329.80234
G1 X152.302 Y122.318 E330.7598
G1 X149.135 Y124.742 E331.71697
G1 X145.426 Y126.277 E332.68035
G1 X141.481 Y126.796 E333.63531
G1 X137.526 Y126.277 E334.59264
G1 X133.837 Y124.746 E335.55122
G1 X130.666 Y122.318 E336.50973
G1 X128.238 Y119.147 E337.46825
G1 X126.707 Y115.456 E338.42727
G1 X126.492 Y113.816 E338.82424
G1 X126.277 Y115.452 E339.22025
G1 X124.744 Y119.151 E340.18123
G1 X122.318 Y122.318 E341.13869
G1 X119.152 Y124.741 E342.09552
G1 X115.442 Y126.277 E343.05921
G1 X111.497 Y126.796 E344.01417
G1 X107.543 Y126.277 E344.97127
G1 X103.853 Y124.746 E345.93007
G1 X100.682 Y122.318 E346.88859
G1 X98.254 Y119.147 E347.8471
G1 X96.723 Y115.456 E348.80612
G1 X96.204 Y111.5 E349.7637
G1 X96.723 Y107.548 E350.72032
G1 X98.256 Y103.849 E351.6813
G1 X100.682 Y100.682 E352.63876
G0 F7200 X101.11 Y101.11
G1 F1320 X104.155 Y98.778 E353.55925
G1 X107.699 Y97.308 E354.48008
G1 X111.5 Y96.809 E355.40015
G1 X115.301 Y97.308 E356.32021
G1 X118.845 Y98.778 E357.24104
G1 X121.89 Y101.11 E358.16153
G1 X124.222 Y104.155 E359.08203
G1 X125.692 Y107.7 E360.00308
G1 X126.191 Y111.5 E360.9229
G1 X125.692 Y115.296 E361.84178
G1 X124.22 Y118.849 E362.76479
G1 X121.89 Y121.89 E363.68423
G1 X118.849 Y124.218 E364.60338
G1 X115.288 Y125.692 E365.52834
G1 X111.499 Y126.191 E366.44555
G1 X107.699 Y125.692 E367.36538
G1 X104.155 Y124.222 E368.28621
G1 X101.11 Y121.89 E369.2067
G1 X98.778 Y118.845 E370.1272
G1 X97.308 Y115.3 E371.04824
G1 X96.809 Y111.5 E371.96807
G1 X97.308 Y107.704 E372.88695
G1 X98.78 Y104.151 E373.80996
G1 X101.11 Y101.11 E374.7294
G10
G0 F7200 X108.346 Y99.725
G0 X111.5 Y99.308
G0 X114.654 Y99.725
G0 X117.597 Y100.944
G0 X127.292 Y107.704
G11
G1 F1320 X128.764 Y104.151 E375.6524
G1 X131.094 Y101.11 E376.57184
G1 X134.139 Y98.778 E377.49234
G1 X137.682 Y97.308 E378.41294
G1 X141.484 Y96.809 E379.33325
G1 X145.285 Y97.308 E380.25331
G1 X148.829 Y98.778 E381.17414
G1 X151.874 Y101.11 E382.09463
G1 X154.206 Y104.155 E383.01513
G1 X155.676 Y107.7 E383.93618
G1 X156.175 Y111.5 E384.85601
G1 X155.676 Y115.296 E385.77488
G1 X154.204 Y118.849 E386.69789
G1 X151.874 Y121.89 E387.61733
G1 X148.832 Y124.219 E388.53681
G1 X145.273 Y125.692 E389.46124
G1 X141.481 Y126.191 E390.37917
G1 X137.682 Y125.692 E391.29876
G1 X134.139 Y124.222 E392.21936
G1 X131.094 Y121.89 E393.13986
G1 X128.762 Y118.845 E394.06035
G1 X127.292 Y115.3 E394.9814
G1 X126.793 Y111.5 E395.90123
G1 X127.292 Y107.704 E396.82011
G0 F7200 X127.877 Y107.86
G1 F1320 X129.288 Y104.453 E397.70514
G1 X131.522 Y101.538 E398.58656
G1 X134.441 Y99.302 E399.46904
G1 X137.838 Y97.893 E400.35167
G1 X141.484 Y97.414 E401.23423
G1 X145.129 Y97.893 E402.11655
G1 X148.527 Y99.302 E402.9994
G1 X151.446 Y101.538 E403.88188
G1 X153.682 Y104.457 E404.76435
G1 X155.091 Y107.856 E405.64743
G1 X155.57 Y111.5 E406.52951
G1 X155.091 Y115.14 E407.41064
G1 X153.68 Y118.547 E408.29567
G1 X151.446 Y121.462 E409.17709
G1 X148.529 Y123.696 E410.0589
G1 X145.119 Y125.107 E410.94459
G1 X141.483 Y125.586 E411.82477
G1 X137.838 Y125.107 E412.7071
G1 X134.441 Y123.698 E413.58972
G1 X131.522 Y121.462 E414.4722
G1 X129.286 Y118.543 E415.35468
G1 X127.877 Y115.144 E416.23775
G1 X127.398 Y111.5 E417.11983
G1 X127.877 Y107.86 E418.00097
G0 F7200 X128.462 Y108.016
G1 F1320 X129.812 Y104.755 E418.84802
G1 X131.95 Y101.966 E419.69143
G1 X134.743 Y99.826 E420.53589
G1 X137.994 Y98.478 E421.38054
G1 X141.484 Y98.019 E422.22535
G1 X144.973 Y98.478 E423.06993
G1 X148.225 Y99.826 E423.91481
G1 X151.018 Y101.966 E424.75927
G1 X153.158 Y104.759 E425.60373
G1 X154.506 Y108.012 E426.44882
G1 X154.965 Y111.5 E427.29316
G1 X154.506 Y114.984 E428.13655
G1 X153.156 Y118.245 E428.9836
G1 X151.018 Y121.034 E429.82701
G1 X148.227 Y123.172 E430.67079
G1 X144.966 Y124.522 E431.51785
G1 X141.483 Y124.981 E432.361
G1 X137.994 Y124.522 E433.20557
G1 X134.743 Y123.174 E434.05023
G1 X131.95 Y121.034 E434.89469
G1 X129.81 Y118.241 E435.73915
G1 X128.462 Y114.988 E436.58424
G1 X128.003 Y111.5 E437.42858
G1 X128.462 Y108.016 E438.27197
G0 F7200 X129.047 Y108.17
G1 F1320 X130.335 Y105.058 E439.08029
G1 X132.378 Y102.394 E439.88601
G1 X135.045 Y100.35 E440.69246
G1 X138.15 Y99.063 E441.49914
G1 X141.484 Y98.624 E442.3062
G1 X144.817 Y99.063 E443.11303
G1 X147.923 Y100.35 E443.91993
G1 X150.59 Y102.394 E444.72638
G1 X152.634 Y105.061 E445.53282
G1 X153.921 Y108.168 E446.33994
G1 X154.36 Y111.5 E447.14653
G1 X153.921 Y114.83 E447.95265
G1 X152.633 Y117.942 E448.76097
G1 X150.59 Y120.606 E449.5667
G1 X147.924 Y122.649 E450.3728
G1 X144.812 Y123.937 E451.18113
G1 X141.485 Y124.376 E451.98653
G1 X138.15 Y123.937 E452.79383
G1 X135.045 Y122.65 E453.60051
G1 X132.378 Y120.606 E454.40695
G1 X130.334 Y117.939 E455.2134
G1 X129.047 Y114.832 E456.02052
G1 X128.608 Y111.5 E456.82711
G1 X129.047 Y108.17 E457.63322
G0 F7200 X130.217 Y108.478
G1 F1320 X131.381 Y105.666 E458.36364
G1 X133.234 Y103.25 E459.09439
G1 X135.649 Y101.398 E459.8248
G1 X138.461 Y100.233 E460.5553
G1 X141.484 Y99.834 E461.28711
G1 X144.506 Y100.233 E462.01869
G1 X147.319 Y101.398 E462.74942
G1 X149.734 Y103.25 E463.47983
G1 X151.587 Y105.666 E464.21057
G1 X152.751 Y108.478 E464.94099
G1 X153.15 Y111.5 E465.67256
G1 X152.751 Y114.522 E466.40414
G1 X151.587 Y117.334 E467.13455
G1 X149.734 Y119.75 E467.8653
G1 X147.319 Y121.602 E468.59571
G1 X144.506 Y122.767 E469.32643
G1 X141.484 Y123.166 E470.05801
G1 X138.461 Y122.767 E470.78982
G1 X135.649 Y121.602 E471.52033
G1 X133.234 Y119.75 E472.25074
G1 X131.381 Y117.334 E472.98148
G1 X130.217 Y114.522 E473.7119
G1 X129.818 Y111.5 E474.44347
G1 X130.217 Y108.478 E475.17505
