;FLAVOR:UltiGCode
;TIME:1775
;MATERIAL:3248
;MATERIAL2:0
;NOZZLE_DIAMETER:0.6
;MINX:95.535
;MINY:73.91
;MINZ:0.4
;MAXX:127.465
;MAXY:149.09
;MAXZ:19
;TARGET_MACHINE.NAME:Ultimaker 2+
;Generated with Cura_SteamEngine 5.10.0
G0 F3000 Y50 ;avoid prime blob
M104 S230 ; Régler la température de l'extrudeur à 230°C
M140 S58 ; Régle la température du plateau à 58°C
M221 S100 ; Augmente le material flow de +x%
M207 S10 F3000 ; Rétraction à 10 mm, à une vitesse de rétration de 25 mm/s
M82 ;absolute extrusion mode
G92 E0
G92 E0
G10
;LAYER_COUNT:125
;LAYER:0
M107
G1 F600 Z1.4
G0 F7200 X95.535 Y78.879 Z1.4
;TYPE:SKIRT
G1 F600 Z0.4
G11
G1 F2400 X98.687 Y75.556 E1.09923
G1 X100.117 Y74.558 E1.51774
G1 X102.445 Y73.91 E2.0977
G1 X122.498 Y73.91 E6.91042
G1 X125.82 Y77.062 E8.00948
G1 X126.818 Y78.492 E8.42799
G1 X127.465 Y80.817 E9.0072
G1 X127.465 Y85.73 E10.18632
G1 X126.79 Y88.269 E10.81684
G1 X125.533 Y90.026 E11.33533
G1 X123.507 Y91.895 E11.99687
G1 X121.356 Y92.754 E12.55275
G1 X120.864 Y92.812 E12.67165
G1 X120.698 Y93.958 E12.94956
G1 X119.932 Y95.703 E13.40693
G1 X120.166 Y96.104 E13.51836
G1 X121.085 Y98.508 E14.13604
G1 X120.773 Y101.965 E14.96909
G1 X120.126 Y103.197 E15.30307
G1 X121.358 Y108.702 E16.65695
G1 X119.981 Y111.594 E17.42569
G1 X120.23 Y112.027 E17.54557
G1 X121.101 Y115.181 E18.33086
G1 X120.696 Y117.959 E19.00463
G1 X119.932 Y119.709 E19.46291
G1 X120.208 Y120.179 E19.59372
G1 X121.097 Y122.547 E20.20077
G1 X120.751 Y126.007 E21.03531
G1 X120.057 Y127.329 E21.39365
G1 X120.307 Y127.775 E21.51636
G1 X120.688 Y129.66 E21.97791
G1 X122.498 Y129.66 E22.41231
G1 X125.82 Y132.812 E23.51136
G1 X126.818 Y134.242 E23.92988
G1 X127.465 Y136.567 E24.50908
G1 X127.465 Y142.324 E25.89076
G1 X126.519 Y144.976 E26.56653
G1 X125.949 Y145.889 E26.82484
G1 X123.444 Y148.188 E27.64086
G1 X121.631 Y149.09 E28.12685
G1 X101.755 Y149.085 E32.89709
G1 X99.455 Y148.098 E33.49777
G1 X97.174 Y145.93 E34.25304
G1 X96.185 Y144.516 E34.66717
G1 X95.535 Y142.183 E35.24842
G1 X95.535 Y134.629 E37.06138
G1 X98.687 Y131.306 E38.1606
G1 X100.117 Y130.308 E38.57912
G1 X101.907 Y129.81 E39.02504
G1 X101.954 Y129.436 E39.1155
G1 X103.055 Y127.001 E39.75686
G1 X101.765 Y124.235 E40.48935
G1 X102.369 Y120.33 E41.43769
G1 X103.073 Y119.115 E41.77471
G1 X102.491 Y118.214 E42.03214
G1 X101.78 Y113.988 E43.06063
G1 X103.061 Y110.991 E43.84286
G1 X102.218 Y109.516 E44.2506
G1 X101.989 Y104.811 E45.38114
G1 X102.906 Y103.316 E45.80205
G1 X101.697 Y98.533 E46.98608
G1 X102.889 Y95.258 E47.82252
G1 X103.059 Y94.972 E47.90237
G1 X101.924 Y92.812 E48.48798
G1 X99.275 Y91.677 E49.17964
G1 X97.184 Y89.69 E49.87193
G1 X96.18 Y88.25 E50.29324
G1 X95.535 Y85.911 E50.87555
G1 X95.535 Y78.879 E52.56323
G0 F7200 X96.135 Y79.118
G1 F2400 X99.08 Y76.013 E53.59031
G1 X100.376 Y75.109 E53.96954
G1 X102.527 Y74.51 E54.50542
G1 X122.259 Y74.51 E59.2411
G1 X125.363 Y77.455 E60.26801
G1 X126.267 Y78.751 E60.64724
G1 X126.865 Y80.899 E61.18236
G1 X126.865 Y85.651 E62.32284
G1 X126.238 Y88.009 E62.90843
G1 X125.081 Y89.626 E63.38562
G1 X123.181 Y91.379 E64.00606
G1 X121.133 Y92.197 E64.53533
G1 X120.34 Y92.239 E64.72592
G1 X120.115 Y93.794 E65.10301
G1 X119.257 Y95.75 E65.61563
G1 X119.606 Y96.318 E65.77562
G1 X120.475 Y98.59 E66.35943
G1 X120.186 Y101.793 E67.13127
G1 X119.415 Y103.261 E67.52923
G1 X119.595 Y103.575 E67.61609
G1 X120.727 Y108.632 E68.85981
G1 X119.294 Y111.64 E69.65946
G1 X119.652 Y112.187 E69.81636
G1 X120.489 Y115.218 E70.57102
G1 X120.114 Y117.793 E71.19554
G1 X119.257 Y119.756 E71.7096
G1 X119.646 Y120.39 E71.88812
G1 X120.486 Y122.627 E72.46161
G1 X120.166 Y125.832 E73.23463
G1 X119.356 Y127.373 E73.65245
G1 X119.719 Y127.894 E73.80485
G1 X120.197 Y130.26 E74.38416
G1 X122.259 Y130.26 E74.87904
G1 X125.363 Y133.205 E75.90594
G1 X126.267 Y134.501 E76.28518
G1 X126.865 Y136.649 E76.8203
G1 X126.865 Y142.22 E78.15734
G1 X125.976 Y144.713 E78.79256
G1 X125.483 Y145.502 E79.01585
G1 X123.106 Y147.687 E79.79073
G1 X121.491 Y148.49 E80.2236
G1 X101.878 Y148.485 E84.93072
G1 X99.79 Y147.589 E85.47603
G1 X97.633 Y145.539 E86.19021
G1 X96.735 Y144.255 E86.56626
G1 X96.135 Y142.101 E87.1029
G1 X96.135 Y134.868 E88.83882
G1 X99.08 Y131.763 E89.8659
G1 X100.376 Y130.859 E90.24513
G1 X102.53 Y130.259 E90.78177
G1 X102.501 Y129.683 E90.92019
G1 X103.716 Y126.997 E91.62771
G1 X102.386 Y124.146 E92.38275
G1 X102.945 Y120.533 E93.26018
G1 X103.777 Y119.098 E93.65828
G1 X103.062 Y117.992 E93.97436
G1 X102.401 Y114.061 E94.93105
G1 X103.61 Y111.233 E95.66919
G1 X103.761 Y111.006 E95.73462
G1 X102.81 Y109.342 E96.1946
G1 X102.597 Y104.967 E97.24584
G1 X103.55 Y103.414 E97.68315
G1 X102.324 Y98.565 E98.88353
G1 X103.453 Y95.463 E99.67578
G1 X103.756 Y95.008 E99.80698
G1 X102.497 Y92.612 E100.45657
G1 X102.516 Y92.235 E100.54717
G1 X101.99 Y92.187 E100.67393
G1 X99.609 Y91.167 E101.2956
G1 X97.641 Y89.297 E101.94714
G1 X96.73 Y87.991 E102.32931
G1 X96.135 Y85.832 E102.86678
G1 X96.135 Y79.118 E104.47814
G0 F7200 X96.735 Y79.357
G1 F2400 X99.472 Y76.472 E105.43256
G1 X100.636 Y75.659 E105.77331
G1 X102.609 Y75.11 E106.26482
G1 X122.02 Y75.11 E110.92346
G1 X124.904 Y77.847 E111.8777
G1 X125.717 Y79.011 E112.21846
G1 X126.265 Y80.981 E112.70921
G1 X126.265 Y85.572 E113.81105
G1 X125.686 Y87.749 E114.35169
G1 X124.629 Y89.226 E114.7876
G1 X122.855 Y90.863 E115.36693
G1 X120.91 Y91.64 E115.8696
G1 X119.821 Y91.639 E116.13096
G1 X119.532 Y93.63 E116.61381
G1 X118.578 Y95.805 E117.18381
G1 X119.046 Y96.532 E117.39132
G1 X119.865 Y98.672 E117.94125
G1 X119.599 Y101.621 E118.65188
G1 X118.689 Y103.354 E119.12165
G1 X119.009 Y103.706 E119.23583
G1 X120.096 Y108.562 E120.43011
G1 X118.775 Y111.342 E121.1688
G1 X118.556 Y111.656 E121.26068
G1 X119.074 Y112.347 E121.46795
G1 X119.877 Y115.255 E122.19198
G1 X119.531 Y117.628 E122.76753
G1 X118.58 Y119.808 E123.33834
G1 X119.084 Y120.601 E123.56385
G1 X119.875 Y122.707 E124.10377
G1 X119.581 Y125.657 E124.81527
G1 X118.628 Y127.469 E125.30663
G1 X119.131 Y128.013 E125.48445
G1 X119.706 Y130.86 E126.18153
G1 X122.02 Y130.86 E126.73689
G1 X124.904 Y133.597 E127.69113
G1 X125.717 Y134.761 E128.03188
G1 X126.265 Y136.731 E128.52263
G1 X126.265 Y142.117 E129.81527
G1 X125.434 Y144.448 E130.4092
G1 X125.017 Y145.115 E130.59799
G1 X122.761 Y147.189 E131.33347
G1 X121.351 Y147.89 E131.71138
G1 X102.001 Y147.885 E136.35538
G1 X100.125 Y147.08 E136.84532
G1 X98.092 Y145.148 E137.51842
G1 X97.285 Y143.994 E137.85638
G1 X96.735 Y142.019 E138.34842
G1 X96.735 Y135.107 E140.0073
G1 X99.472 Y132.222 E140.96172
G1 X100.636 Y131.409 E141.30247
G1 X102.53 Y130.882 E141.7743
G1 X103.213 Y130.86 E141.9383
G1 X103.082 Y129.854 E142.18178
G1 X104.377 Y126.993 E142.93549
G1 X103.007 Y124.057 E143.71307
G1 X103.521 Y120.736 E144.5196
G1 X104.48 Y119.08 E144.97887
G1 X103.633 Y117.77 E145.35326
G1 X103.022 Y114.134 E146.23814
G1 X104.162 Y111.469 E146.9338
G1 X104.479 Y111.054 E147.05913
G1 X103.402 Y109.168 E147.58038
G1 X103.205 Y105.123 E148.55233
G1 X104.247 Y103.425 E149.03046
G1 X104.126 Y103.255 E149.08054
G1 X102.951 Y98.597 E150.23348
G1 X104.017 Y95.668 E150.98155
G1 X104.46 Y95.059 E151.16229
G1 X103.097 Y92.464 E151.86577
G1 X103.177 Y91.636 E152.06541
G1 X102.226 Y91.635 E152.29366
G1 X99.943 Y90.657 E152.88973
G1 X98.098 Y88.904 E153.50053
G1 X97.281 Y87.732 E153.84341
G1 X96.735 Y85.752 E154.33635
G1 X96.735 Y79.357 E155.87115
G0 F7200 X97.335 Y79.596
G1 F2400 X99.865 Y76.929 E156.75342
G1 X100.895 Y76.21 E157.05489
G1 X102.691 Y75.71 E157.50232
G1 X121.781 Y75.71 E162.08392
G1 X124.447 Y78.24 E162.96601
G1 X125.166 Y79.27 E163.26748
G1 X125.665 Y81.063 E163.71416
G1 X125.665 Y85.493 E164.77736
G1 X125.134 Y87.489 E165.27306
G1 X124.177 Y88.826 E165.66767
G1 X122.529 Y90.347 E166.2059
G1 X120.795 Y91.04 E166.65406
G1 X119.195 Y91.039 E167.03806
G1 X119.247 Y91.418 E167.12987
G1 X118.949 Y93.466 E167.62657
G1 X117.899 Y95.859 E168.25374
G1 X118.508 Y96.804 E168.52356
G1 X119.255 Y98.755 E169.02495
G1 X119.012 Y101.449 E169.67413
G1 X117.941 Y103.489 E170.22711
G1 X118.447 Y103.943 E170.39026
G1 X119.465 Y108.492 E171.50903
G1 X118.233 Y111.085 E172.19802
G1 X117.788 Y111.685 E172.3773
G1 X118.496 Y112.507 E172.63767
G1 X119.265 Y115.292 E173.33108
G1 X118.949 Y117.462 E173.85737
G1 X117.902 Y119.86 E174.48536
G1 X118.543 Y120.868 E174.77205
G1 X119.264 Y122.788 E175.26427
G1 X118.996 Y125.481 E175.91378
G1 X117.885 Y127.593 E176.48652
G1 X118.564 Y128.236 E176.71095
G1 X119.215 Y131.46 E177.50033
G1 X121.781 Y131.46 E178.11617
G1 X124.447 Y133.99 E178.99826
G1 X125.166 Y135.02 E179.29973
G1 X125.665 Y136.813 E179.7464
G1 X125.665 Y142.014 E180.99464
G1 X124.869 Y144.247 E181.5636
G1 X124.551 Y144.728 E181.70198
G1 X122.416 Y146.691 E182.39805
G1 X121.211 Y147.29 E182.72101
G1 X102.124 Y147.285 E187.30189
G1 X100.46 Y146.571 E187.73646
G1 X98.551 Y144.757 E188.36848
G1 X97.835 Y143.733 E188.66836
G1 X97.335 Y141.937 E189.11579
G1 X97.335 Y135.346 E190.69763
G1 X99.865 Y132.679 E191.5799
G1 X100.895 Y131.96 E191.88137
G1 X102.691 Y131.46 E192.3288
G1 X103.897 Y131.46 E192.61824
G1 X103.699 Y129.945 E192.98493
G1 X104.811 Y127.489 E193.63198
G1 X105.154 Y127.086 E193.75899
G1 X104.966 Y126.836 E193.83406
G1 X103.628 Y123.968 E194.5936
G1 X104.097 Y120.939 E195.32922
G1 X105.184 Y119.063 E195.84958
G1 X104.205 Y117.549 E196.28229
G1 X103.643 Y114.207 E197.09563
G1 X104.714 Y111.705 E197.74881
G1 X105.209 Y111.121 E197.93255
G1 X103.994 Y108.994 E198.52044
G1 X103.813 Y105.279 E199.4131
G1 X105.005 Y103.336 E199.96018
G1 X104.688 Y103.028 E200.06626
G1 X103.578 Y98.629 E201.15511
G1 X104.552 Y95.953 E201.83857
G1 X105.164 Y95.11 E202.08858
G1 X103.711 Y92.343 E202.83865
G1 X103.837 Y91.036 E203.15379
G1 X102.35 Y91.035 E203.51067
G1 X100.277 Y90.147 E204.05191
G1 X98.555 Y88.511 E204.62197
G1 X97.831 Y87.473 E204.9257
G1 X97.335 Y85.673 E205.3738
G1 X97.335 Y79.596 E206.83228
G0 F7200 X97.935 Y79.835
G1 F2400 X100.258 Y77.386 E207.6424
G1 X101.154 Y76.761 E207.90459
G1 X102.773 Y76.31 E208.30794
G1 X121.542 Y76.31 E212.8125
G1 X123.99 Y78.633 E213.62245
G1 X124.615 Y79.529 E213.88463
G1 X125.065 Y81.145 E214.28723
G1 X125.065 Y85.414 E215.31179
G1 X124.582 Y87.229 E215.76255
G1 X123.725 Y88.426 E216.11587
G1 X122.203 Y89.831 E216.613
G1 X120.68 Y90.44 E217.00665
G1 X118.407 Y90.439 E217.55217
G1 X118.653 Y91.331 E217.77425
G1 X118.366 Y93.3 E218.2518
G1 X117.368 Y95.588 E218.85088
G1 X117.168 Y95.833 E218.92679
G1 X117.971 Y97.077 E219.28215
G1 X118.645 Y98.838 E219.73469
G1 X118.425 Y101.277 E220.32242
G1 X117.312 Y103.398 E220.89729
G1 X117.13 Y103.613 E220.9649
G1 X117.893 Y104.216 E221.1983
G1 X118.834 Y108.422 E222.23269
G1 X117.716 Y110.775 E222.85792
G1 X117.021 Y111.713 E223.1381
G1 X117.954 Y112.797 E223.48135
G1 X118.653 Y115.329 E224.11176
G1 X118.366 Y117.297 E224.58908
G1 X117.362 Y119.603 E225.1927
G1 X117.176 Y119.836 E225.26425
G1 X118.002 Y121.135 E225.6337
G1 X118.653 Y122.869 E226.07823
G1 X118.411 Y125.305 E226.66574
G1 X117.143 Y127.715 E227.31932
G1 X118.013 Y128.541 E227.60723
G1 X118.724 Y132.06 E228.46886
G1 X121.542 Y132.06 E229.14518
G1 X123.99 Y134.383 E229.95512
G1 X124.615 Y135.279 E230.21731
G1 X125.065 Y136.895 E230.61991
G1 X125.065 Y141.911 E231.82375
G1 X124.304 Y144.046 E232.36772
G1 X124.145 Y144.286 E232.43682
G1 X122.071 Y146.193 E233.11301
G1 X121.071 Y146.69 E233.38102
G1 X102.247 Y146.685 E237.89878
G1 X100.795 Y146.062 E238.27798
G1 X99.01 Y144.366 E238.86892
G1 X98.385 Y143.472 E239.13071
G1 X97.935 Y141.855 E239.53354
G1 X97.935 Y135.585 E241.03834
G1 X100.258 Y133.136 E241.84846
G1 X101.154 Y132.511 E242.11064
G1 X102.773 Y132.06 E242.514
G1 X104.58 Y132.06 E242.94768
G1 X104.316 Y130.037 E243.43731
G1 X105.358 Y127.737 E244.04332
G1 X105.969 Y127.109 E244.25361
G1 X105.51 Y126.582 E244.42133
G1 X104.249 Y123.879 E245.13718
G1 X104.673 Y121.142 E245.80189
G1 X105.888 Y119.045 E246.38354
G1 X104.776 Y117.327 E246.8747
G1 X104.264 Y114.281 E247.61599
G1 X105.231 Y112.022 E248.20574
G1 X105.939 Y111.188 E248.4683
G1 X104.586 Y108.82 E249.12284
G1 X104.421 Y105.435 E249.93621
G1 X105.794 Y103.197 E250.56635
G1 X105.238 Y102.755 E250.73682
G1 X104.205 Y98.661 E251.75017
G1 X105.087 Y96.237 E252.36925
G1 X105.912 Y95.101 E252.7062
G1 X105.707 Y94.853 E252.78342
G1 X104.325 Y92.222 E253.49667
G1 X104.498 Y90.436 E253.92732
G1 X102.474 Y90.435 E254.41308
G1 X100.611 Y89.637 E254.89949
G1 X99.012 Y88.118 E255.42881
G1 X98.382 Y87.214 E255.69326
G1 X97.935 Y85.593 E256.09682
G1 X97.935 Y79.835 E257.47874
G0 F7200 X98.535 Y80.074
G1 F2400 X100.65 Y77.845 E258.21619
G1 X101.414 Y77.311 E258.4399
G1 X102.855 Y76.91 E258.79888
G1 X121.303 Y76.91 E263.2264
G1 X123.531 Y79.025 E263.96368
G1 X124.065 Y79.789 E264.18739
G1 X124.465 Y81.227 E264.54562
G1 X124.465 Y85.335 E265.53154
G1 X124.03 Y86.969 E265.93736
G1 X123.273 Y88.026 E266.24938
G1 X121.877 Y89.315 E266.7054
G1 X120.565 Y89.84 E267.04456
G1 X117.619 Y89.839 E267.7516
G1 X118.041 Y91.368 E268.13228
G1 X117.784 Y93.134 E268.56058
G1 X116.818 Y95.348 E269.14032
G1 X116.342 Y95.661 E269.27704
G1 X117.435 Y97.353 E269.76048
G1 X118.035 Y98.921 E270.16341
G1 X117.838 Y101.105 E270.6897
G1 X116.781 Y103.119 E271.23559
G1 X116.205 Y103.647 E271.42312
G1 X117.354 Y104.555 E271.77459
G1 X118.204 Y108.35 E272.70796
G1 X117.198 Y110.467 E273.27048
G1 X116.538 Y111.357 E273.53641
G1 X116.173 Y111.648 E273.64844
G1 X117.412 Y113.087 E274.10418
G1 X118.041 Y115.366 E274.67159
G1 X117.784 Y117.131 E275.09966
G1 X116.812 Y119.363 E275.68393
G1 X116.353 Y119.66 E275.81514
G1 X117.461 Y121.402 E276.31062
G1 X118.042 Y122.95 E276.70745
G1 X117.826 Y125.129 E277.23297
G1 X116.563 Y127.53 E277.88407
G1 X116.331 Y127.771 E277.96436
G1 X117.462 Y128.845 E278.33868
G1 X118.14 Y132.2 E279.16016
G1 X117.976 Y132.66 E279.27737
G1 X121.303 Y132.66 E280.07585
G1 X123.531 Y134.775 E280.81313
G1 X124.065 Y135.539 E281.03684
G1 X124.465 Y136.977 E281.39506
G1 X124.465 Y141.808 E282.5545
G1 X123.739 Y143.845 E283.0735
G1 X121.732 Y145.692 E283.72811
G1 X120.931 Y146.09 E283.94277
G1 X102.37 Y146.085 E288.39741
G1 X101.13 Y145.553 E288.72125
G1 X99.469 Y143.975 E289.2711
G1 X98.935 Y143.211 E289.49481
G1 X98.535 Y141.773 E289.85304
G1 X98.535 Y135.824 E291.2808
G1 X100.65 Y133.595 E292.01825
G1 X101.414 Y133.061 E292.24196
G1 X102.855 Y132.66 E292.60094
G1 X105.263 Y132.66 E293.17886
G1 X104.933 Y130.13 E293.79121
G1 X105.862 Y128.08 E294.33137
G1 X106.802 Y127.115 E294.65469
G1 X106.054 Y126.328 E294.91527
G1 X104.87 Y123.79 E295.58741
G1 X105.249 Y121.345 E296.18122
G1 X106.498 Y119.189 E296.77921
G1 X106.701 Y118.983 E296.84863
G1 X106.319 Y118.606 E296.97743
G1 X105.347 Y117.105 E297.40661
G1 X104.885 Y114.355 E298.07586
G1 X105.748 Y112.339 E298.60217
G1 X106.787 Y111.116 E298.98731
G1 X106.374 Y110.74 E299.12136
G1 X105.178 Y108.646 E299.70011
G1 X105.029 Y105.591 E300.43418
G1 X106.136 Y103.786 E300.94236
G1 X106.74 Y103.134 E301.15567
G1 X105.782 Y102.458 E301.43707
G1 X104.832 Y98.693 E302.36899
G1 X105.622 Y96.521 E302.92368
G1 X106.28 Y95.615 E303.19241
G1 X106.795 Y95.165 E303.35655
G1 X106.238 Y94.574 E303.55146
G1 X104.939 Y92.101 E304.22188
G1 X105.159 Y89.836 E304.76804
G1 X102.598 Y89.835 E305.38268
G1 X100.945 Y89.127 E305.81425
G1 X99.469 Y87.725 E306.30283
G1 X98.933 Y86.955 E306.52799
G1 X98.535 Y85.513 E306.88701
G1 X98.535 Y80.074 E308.19237
G0 F7200 X99.135 Y80.313
G1 F2400 X101.042 Y78.304 E308.85717
G1 X101.675 Y77.861 E309.04259
G1 X102.937 Y77.51 E309.35697
G1 X121.064 Y77.51 E313.70745
G1 X123.072 Y79.417 E314.37207
G1 X123.515 Y80.05 E314.5575
G1 X123.865 Y81.309 E314.87112
G1 X123.865 Y85.256 E315.8184
G1 X123.478 Y86.709 E316.17927
G1 X122.821 Y87.626 E316.45001
G1 X121.551 Y88.799 E316.86493
G1 X120.45 Y89.24 E317.14958
G1 X116.75 Y89.239 E318.03758
G1 X116.905 Y89.507 E318.11188
G1 X117.429 Y91.405 E318.58444
G1 X117.201 Y92.969 E318.96377
G1 X116.33 Y94.967 E319.48687
G1 X115.281 Y95.602 E319.78116
G1 X115.923 Y96.119 E319.97899
G1 X116.898 Y97.628 E320.41017
G1 X117.425 Y99.004 E320.76381
G1 X117.251 Y100.933 E321.22865
