;FLAVOR:UltiGCode
;TIME:2113
;MATERIAL:7741
;MATERIAL2:0
;NOZZLE_DIAMETER:0.6
;MINX:87.77
;MINY:65.903
;MINZ:0.4
;MAXX:138.398
;MAXY:156.697
;MAXZ:8.05
;TARGET_MACHINE.NAME:Ultimaker 2+
;Generated with Cura_SteamEngine 5.10.0
G0 F3000 Y50 ;avoid prime blob
M104 S230 ; Régler la température de l'extrudeur à 230°C
M140 S58 ; Régle la température du plateau à 58°C
M221 S100 ; Augmente le material flow de +x%
M221 S100 ;M207 S10 F3000  Rétraction à 10 mm, à une vitesse de rétration de 25 mm/s
M82 ;absolute extrusion mode
G92 E0
G92 E0
G10
;LAYER_COUNT:52
;LAYER:0
M107
G0 F7200 X100.504 Y67.896 Z0.4
;TYPE:SKIRT
G11
G1 F2100 X101.811 Y66.766 E0.41466
G1 X103.94 Y65.903 E0.966
G1 X121.88 Y69.547 E5.35953
G1 X123.835 Y72.298 E6.16951
G1 X123.836 Y95.838 E11.81911
G1 X123.893 Y97.473 E12.21175
G1 X124.052 Y98.963 E12.57138
G1 X124.301 Y100.365 E12.91312
G1 X124.678 Y101.866 E13.28455
G1 X125.139 Y103.272 E13.63967
G1 X125.69 Y104.617 E13.9885
G1 X126.96 Y107.435 E14.73033
G1 X127.461 Y108.486 E15.00977
G1 X127.994 Y109.476 E15.27961
G1 X131.432 Y115.112 E16.86405
G1 X132.601 Y116.943 E17.38542
G1 X134.42 Y119.703 E18.17874
G1 X135.371 Y121.176 E18.59954
G1 X135.969 Y122.196 E18.88331
G1 X136.606 Y123.476 E19.22645
G1 X137.08 Y124.609 E19.5212
G1 X137.5 Y125.834 E19.832
G1 X137.886 Y127.259 E20.18633
G1 X138.12 Y128.441 E20.47551
G1 X138.339 Y130.335 E20.9331
G1 X138.398 Y131.949 E21.32072
G1 X138.121 Y133.737 E21.75496
G1 X137.744 Y135.523 E22.19304
G1 X137.325 Y137.048 E22.57261
G1 X136.124 Y140.998 E23.56346
G1 X135.61 Y142.442 E23.93132
G1 X134.937 Y143.944 E24.32633
G1 X134.54 Y144.735 E24.53874
G1 X133.744 Y146.155 E24.92943
G1 X133.023 Y147.247 E25.24349
G1 X132.012 Y148.555 E25.64025
G1 X131.011 Y149.743 E26.01309
G1 X129.683 Y151.152 E26.47777
G1 X128.265 Y152.407 E26.93224
G1 X127.1 Y153.283 E27.28206
G1 X125.362 Y154.364 E27.77329
G1 X124.058 Y155.026 E28.12427
G1 X122.126 Y155.77 E28.62114
G1 X120.623 Y156.199 E28.99626
G1 X118.465 Y156.697 E29.5278
G1 X113.389 Y156.183 E30.75227
G1 X111.548 Y155.89 E31.19967
G1 X109.873 Y155.471 E31.61405
G1 X108.853 Y155.164 E31.8697
G1 X107.295 Y154.605 E32.26696
G1 X105.773 Y153.911 E32.66842
G1 X103.856 Y152.754 E33.20581
G1 X102.383 Y151.712 E33.63884
G1 X100.675 Y150.312 E34.16887
G1 X99.317 Y149.033 E34.61658
G1 X95.956 Y145.656 E35.76006
G1 X93.569 Y141.878 E36.8326
G1 X92.586 Y140.174 E37.30473
G1 X91.523 Y137.953 E37.89567
G1 X90.806 Y136.11 E38.37029
G1 X90.019 Y133.57 E39.00848
G1 X90.027 Y122.572 E41.648
G1 X90.145 Y120.127 E42.23548
G1 X90.462 Y117.737 E42.8141
G1 X90.906 Y115.669 E43.32173
G1 X91.684 Y113.096 E43.96687
G1 X92.504 Y111.032 E44.49989
G1 X93.061 Y109.791 E44.82635
G1 X93.767 Y108.034 E45.2808
G1 X94.237 Y106.508 E45.66402
G1 X94.662 Y104.607 E46.13152
G1 X97.04 Y91.45 E49.34036
G1 X99.83 Y69.354 E54.68551
G1 X100.504 Y67.896 E55.07101
G0 F7200 X100.995 Y68.266
G1 F2100 X102.13 Y67.284 E55.43121
G1 X103.998 Y66.527 E55.91495
G1 X121.528 Y70.088 E60.20808
G1 X123.235 Y72.49 E60.9153
G1 X123.236 Y95.859 E66.52386
G1 X123.294 Y97.516 E66.92178
G1 X123.457 Y99.045 E67.29082
G1 X123.713 Y100.488 E67.64255
G1 X124.101 Y102.031 E68.0244
G1 X124.575 Y103.476 E68.38938
G1 X125.143 Y104.864 E68.74931
G1 X126.418 Y107.693 E69.49404
G1 X126.919 Y108.744 E69.77348
G1 X127.474 Y109.775 E70.05449
G1 X130.926 Y115.435 E71.6456
G1 X132.095 Y117.266 E72.16697
G1 X133.916 Y120.029 E72.96115
G1 X134.853 Y121.479 E73.37549
G1 X135.451 Y122.499 E73.65926
G1 X136.052 Y123.708 E73.98329
G1 X136.526 Y124.841 E74.27805
G1 X136.921 Y125.991 E74.56988
G1 X137.297 Y127.376 E74.91431
G1 X137.531 Y128.558 E75.20349
G1 X137.739 Y130.357 E75.63813
G1 X137.796 Y131.915 E76.0123
G1 X137.528 Y133.645 E76.43245
G1 X137.157 Y135.399 E76.86273
G1 X136.751 Y136.874 E77.22989
G1 X135.559 Y140.797 E78.21391
G1 X135.062 Y142.197 E78.57046
G1 X134.4 Y143.675 E78.95913
G1 X134.016 Y144.442 E79.165
G1 X133.243 Y145.824 E79.54503
G1 X132.522 Y146.916 E79.85909
G1 X131.553 Y148.168 E80.23905
G1 X130.552 Y149.356 E80.61189
G1 X129.285 Y150.703 E81.05571
G1 X127.904 Y151.927 E81.49859
G1 X126.739 Y152.803 E81.84842
G1 X125.09 Y153.829 E82.31453
G1 X123.786 Y154.491 E82.66551
G1 X121.961 Y155.193 E83.13479
G1 X120.458 Y155.622 E83.50992
G1 X118.438 Y156.091 E84.00762
G1 X113.483 Y155.59 E85.20288
G1 X111.642 Y155.297 E85.65028
G1 X110.046 Y154.896 E86.04523
G1 X109.026 Y154.589 E86.30087
G1 X107.544 Y154.059 E86.67861
G1 X106.022 Y153.365 E87.08008
G1 X104.203 Y152.264 E87.59038
G1 X102.73 Y151.222 E88.02341
G1 X101.086 Y149.875 E88.5335
G1 X99.742 Y148.61 E88.97646
G1 X96.429 Y145.281 E90.10365
G1 X94.089 Y141.578 E91.15494
G1 X93.106 Y139.874 E91.62707
G1 X92.082 Y137.735 E92.19623
G1 X91.379 Y135.932 E92.66067
G1 X90.619 Y133.479 E93.277
G1 X90.626 Y122.601 E95.88772
G1 X90.74 Y120.205 E96.46341
G1 X91.049 Y117.863 E97.03037
G1 X91.493 Y115.795 E97.538
G1 X92.242 Y113.318 E98.15906
G1 X93.062 Y111.254 E98.69208
G1 X93.618 Y110.015 E99.01801
G1 X94.33 Y108.242 E99.47656
G1 X94.82 Y106.653 E99.87564
G1 X95.248 Y104.738 E100.34658
G1 X97.633 Y91.539 E103.56564
G1 X100.413 Y69.524 E108.8912
G1 X100.995 Y68.266 E109.22386
G0 F7200 X101.486 Y68.634
G1 F2100 X102.447 Y67.803 E109.52877
G1 X104.056 Y67.151 E109.94543
G1 X121.176 Y70.629 E114.13816
G1 X122.635 Y72.682 E114.74264
G1 X122.636 Y95.88 E120.31016
G1 X122.695 Y97.559 E120.71336
G1 X122.862 Y99.127 E121.09181
G1 X123.125 Y100.611 E121.45352
G1 X123.524 Y102.196 E121.84579
G1 X124.011 Y103.68 E122.22064
G1 X124.596 Y105.11 E122.59145
G1 X125.876 Y107.951 E123.33929
G1 X126.377 Y109.002 E123.61873
G1 X126.954 Y110.074 E123.91091
G1 X130.42 Y115.758 E125.50869
G1 X131.589 Y117.589 E126.03005
G1 X133.412 Y120.355 E126.8251
G1 X134.335 Y121.782 E127.23298
G1 X134.933 Y122.802 E127.51675
G1 X135.498 Y123.94 E127.82168
G1 X135.972 Y125.073 E128.11643
G1 X136.353 Y126.185 E128.39855
G1 X136.708 Y127.493 E128.72382
G1 X136.942 Y128.675 E129.01301
G1 X137.139 Y130.379 E129.42469
G1 X137.194 Y131.881 E129.78541
G1 X136.935 Y133.553 E130.19148
G1 X136.578 Y135.24 E130.60533
G1 X136.177 Y136.7 E130.9687
G1 X134.993 Y140.597 E131.9462
G1 X134.514 Y141.952 E132.29112
G1 X133.863 Y143.406 E132.67346
G1 X133.479 Y144.173 E132.87932
G1 X132.742 Y145.493 E133.24215
G1 X132.021 Y146.585 E133.55621
G1 X131.094 Y147.781 E133.91937
G1 X130.093 Y148.969 E134.29221
G1 X128.887 Y150.254 E134.71516
G1 X127.543 Y151.447 E135.14646
G1 X126.378 Y152.323 E135.49629
G1 X124.818 Y153.294 E135.93729
G1 X123.514 Y153.956 E136.28827
G1 X121.796 Y154.616 E136.72997
G1 X120.321 Y155.038 E137.09817
G1 X118.411 Y155.485 E137.56896
G1 X113.576 Y154.997 E138.73525
G1 X111.788 Y154.715 E139.16968
G1 X110.219 Y154.321 E139.55793
G1 X109.199 Y154.014 E139.81358
G1 X107.793 Y153.513 E140.1718
G1 X106.271 Y152.819 E140.57326
G1 X104.55 Y151.774 E141.05648
G1 X103.077 Y150.732 E141.48952
G1 X101.497 Y149.438 E141.97966
G1 X100.167 Y148.187 E142.41787
G1 X96.902 Y144.906 E143.52877
G1 X94.609 Y141.278 E144.55882
G1 X93.626 Y139.574 E145.03095
G1 X92.641 Y137.516 E145.57853
G1 X91.952 Y135.754 E146.03259
G1 X91.219 Y133.388 E146.62706
G1 X91.225 Y122.629 E149.20922
G1 X91.335 Y120.283 E149.77288
G1 X91.636 Y117.989 E150.32815
G1 X92.08 Y115.921 E150.83579
G1 X92.8 Y113.54 E151.43278
G1 X93.62 Y111.476 E151.9658
G1 X94.175 Y110.239 E152.29119
G1 X94.894 Y108.45 E152.75393
G1 X95.403 Y106.798 E153.16881
G1 X95.834 Y104.869 E153.64318
G1 X98.226 Y91.628 E156.87246
G1 X100.996 Y69.694 E162.17843
G1 X101.486 Y68.634 E162.4587
G0 F7200 X101.977 Y69.004
G1 F2100 X102.766 Y68.321 E162.70915
G1 X104.114 Y67.775 E163.0582
G1 X120.824 Y71.17 E167.15054
G1 X122.035 Y72.874 E167.65225
G1 X122.036 Y95.901 E173.17873
G1 X122.096 Y97.602 E173.58723
G1 X122.267 Y99.206 E173.97437
G1 X122.538 Y100.739 E174.34799
G1 X122.946 Y102.358 E174.7487
G1 X123.447 Y103.884 E175.13417
G1 X124.049 Y105.356 E175.51586
G1 X125.334 Y108.209 E176.26682
G1 X125.835 Y109.26 E176.54626
G1 X126.434 Y110.373 E176.8496
G1 X129.914 Y116.081 E178.45405
G1 X131.083 Y117.912 E178.97541
G1 X132.908 Y120.681 E179.77133
G1 X133.817 Y122.085 E180.17275
G1 X134.415 Y123.105 E180.45652
G1 X134.945 Y124.172 E180.74245
G1 X135.404 Y125.267 E181.0274
G1 X135.785 Y126.379 E181.30951
G1 X136.119 Y127.61 E181.61564
G1 X136.353 Y128.792 E181.90482
G1 X136.539 Y130.401 E182.29355
G1 X136.592 Y131.847 E182.64083
G1 X136.342 Y133.461 E183.0328
G1 X135.999 Y135.081 E183.43022
G1 X135.603 Y136.526 E183.78981
G1 X134.427 Y140.397 E184.76078
G1 X133.948 Y141.752 E185.1057
G1 X133.326 Y143.137 E185.47008
G1 X132.942 Y143.904 E185.67594
G1 X132.241 Y145.162 E186.02157
G1 X131.52 Y146.254 E186.33562
G1 X130.635 Y147.395 E186.68218
G1 X129.655 Y148.559 E187.04737
G1 X128.488 Y149.806 E187.45726
G1 X127.182 Y150.967 E187.87665
G1 X126.017 Y151.843 E188.22647
G1 X124.546 Y152.759 E188.64237
G1 X123.242 Y153.421 E188.99335
G1 X121.631 Y154.039 E189.40746
G1 X120.156 Y154.461 E189.77566
G1 X118.372 Y154.878 E190.21536
G1 X113.669 Y154.404 E191.3498
G1 X111.934 Y154.133 E191.77125
G1 X110.365 Y153.739 E192.1595
G1 X109.399 Y153.448 E192.40163
G1 X108.042 Y152.967 E192.74717
G1 X106.52 Y152.273 E193.14863
G1 X104.897 Y151.284 E193.60477
G1 X103.424 Y150.242 E194.0378
G1 X101.908 Y149.001 E194.508
G1 X100.592 Y147.764 E194.94147
G1 X97.373 Y144.53 E196.03658
G1 X95.129 Y140.978 E197.04493
G1 X94.146 Y139.274 E197.51706
G1 X93.2 Y137.297 E198.04306
G1 X92.511 Y135.535 E198.49712
G1 X91.819 Y133.298 E199.05911
G1 X91.824 Y122.657 E201.61295
G1 X91.93 Y120.361 E202.16457
G1 X92.223 Y118.115 E202.70818
G1 X92.667 Y116.047 E203.21581
G1 X93.358 Y113.762 E203.78874
G1 X94.178 Y111.698 E204.32176
G1 X94.732 Y110.463 E204.64661
G1 X95.458 Y108.658 E205.11354
G1 X95.986 Y106.943 E205.54421
G1 X96.42 Y105 E206.02202
G1 X98.819 Y91.717 E209.26151
G1 X101.579 Y69.864 E214.5479
G1 X101.977 Y69.004 E214.77533
G0 F7200 X102.466 Y69.375
G1 F2100 X103.085 Y68.839 E214.97185
G1 X104.172 Y68.399 E215.25329
G1 X120.472 Y71.711 E219.24523
G1 X121.435 Y73.066 E219.64419
G1 X121.436 Y95.922 E225.12963
G1 X121.497 Y97.645 E225.54341
G1 X121.672 Y99.288 E225.93996
G1 X121.951 Y100.865 E226.32432
G1 X122.368 Y102.52 E226.73393
G1 X122.883 Y104.088 E227.13003
G1 X123.502 Y105.602 E227.52259
G1 X124.792 Y108.467 E228.27667
G1 X125.293 Y109.518 E228.55611
G1 X125.914 Y110.672 E228.87062
G1 X129.408 Y116.404 E230.48173
G1 X130.577 Y118.235 E231.0031
G1 X132.404 Y121.007 E231.79988
G1 X133.299 Y122.388 E232.19484
G1 X133.897 Y123.408 E232.47861
G1 X134.392 Y124.404 E232.74554
G1 X134.836 Y125.461 E233.02069
G1 X135.217 Y126.573 E233.3028
G1 X135.53 Y127.727 E233.58977
G1 X135.764 Y128.909 E233.87895
G1 X135.939 Y130.423 E234.24473
G1 X135.99 Y131.813 E234.57856
G1 X135.749 Y133.369 E234.95645
G1 X135.42 Y134.923 E235.33768
G1 X135.029 Y136.352 E235.69324
G1 X133.861 Y140.197 E236.65768
G1 X133.382 Y141.552 E237.0026
G1 X132.789 Y142.868 E237.34903
G1 X132.405 Y143.635 E237.55489
G1 X131.74 Y144.831 E237.88331
G1 X131.019 Y145.923 E238.19737
G1 X130.176 Y147.009 E238.52732
G1 X129.216 Y148.15 E238.88519
G1 X128.089 Y149.358 E239.28169
G1 X126.821 Y150.487 E239.68916
G1 X125.656 Y151.363 E240.03898
G1 X124.274 Y152.224 E240.42977
G1 X122.97 Y152.886 E240.78074
G1 X121.466 Y153.462 E241.16727
G1 X119.991 Y153.884 E241.53547
G1 X118.334 Y154.271 E241.94386
G1 X113.761 Y153.811 E243.04692
G1 X112.08 Y153.551 E243.45515
G1 X110.511 Y153.157 E243.8434
G1 X109.599 Y152.882 E244.07202
G1 X108.242 Y152.401 E244.41755
G1 X106.832 Y151.761 E244.78918
G1 X105.244 Y150.794 E245.2354
G1 X103.771 Y149.752 E245.66843
G1 X102.319 Y148.564 E246.11869
G1 X101.017 Y147.341 E246.54741
G1 X97.846 Y144.155 E247.62623
G1 X95.649 Y140.678 E248.61334
G1 X94.666 Y138.974 E249.08547
G1 X93.759 Y137.078 E249.58989
G1 X93.07 Y135.316 E250.04395
G1 X92.419 Y133.208 E250.57345
G1 X92.423 Y122.684 E253.09921
G1 X92.525 Y120.438 E253.6388
G1 X92.81 Y118.241 E254.1705
G1 X93.254 Y116.173 E254.67813
G1 X93.916 Y113.984 E255.22699
G1 X94.736 Y111.92 E255.76001
G1 X95.289 Y110.687 E256.08433
G1 X96.021 Y108.866 E256.55536
G1 X96.569 Y107.088 E257.00189
G1 X97.006 Y105.131 E257.48314
G1 X99.412 Y91.806 E260.73285
G1 X102.162 Y70.031 E266.00036
G1 X102.466 Y69.375 E266.17389
G0 F7200 X102.882 Y69.807
G1 F2100 X103.31 Y69.395 E266.31646
G1 X104.23 Y69.023 E266.55463
G1 X120.12 Y72.252 E270.44617
G1 X120.835 Y73.258 E270.74238
G1 X120.836 Y95.943 E276.18678
G1 X120.898 Y97.687 E276.60561
G1 X121.077 Y99.371 E277.01205
G1 X121.364 Y100.991 E277.4069
G1 X121.79 Y102.682 E277.82542
G1 X122.319 Y104.292 E278.23214
G1 X122.955 Y105.848 E278.63557
G1 X124.25 Y108.725 E279.39278
G1 X124.751 Y109.776 E279.67221
G1 X125.394 Y110.971 E279.99789
G1 X128.902 Y116.727 E281.61567
G1 X130.071 Y118.558 E282.13704
G1 X131.901 Y121.333 E282.93482
G1 X132.782 Y122.692 E283.32352
G1 X133.36 Y123.676 E283.5974
G1 X133.839 Y124.637 E283.85511
G1 X134.268 Y125.655 E284.12023
G1 X134.649 Y126.767 E284.40235
G1 X134.941 Y127.844 E284.67016
G1 X135.175 Y129.026 E284.95934
G1 X135.339 Y130.445 E285.30217
G1 X135.388 Y131.78 E285.62279
G1 X135.162 Y133.245 E285.97854
G1 X134.841 Y134.765 E286.35139
G1 X134.455 Y136.178 E286.70294
G1 X133.295 Y139.997 E287.66084
G1 X132.816 Y141.352 E288.00577
G1 X132.252 Y142.6 E288.33445
G1 X131.88 Y143.344 E288.53409
G1 X131.239 Y144.5 E288.85133
G1 X130.518 Y145.592 E289.16538
G1 X129.717 Y146.623 E289.47872
G1 X128.777 Y147.741 E289.82928
G1 X127.689 Y148.91 E290.21255
G1 X126.46 Y150.007 E290.60792
G1 X125.295 Y150.883 E290.95774
G1 X124.002 Y151.689 E291.32342
G1 X122.698 Y152.351 E291.6744
G1 X121.301 Y152.885 E292.03334
G1 X119.853 Y153.3 E292.39485
G1 X118.306 Y153.665 E292.77632
G1 X113.852 Y153.218 E293.85065
G1 X112.226 Y152.969 E294.24544
G1 X110.657 Y152.575 E294.63369
G1 X109.799 Y152.316 E294.84879
G1 X108.442 Y151.835 E295.19433
G1 X107.144 Y151.248 E295.53622
G1 X105.591 Y150.304 E295.9724
G1 X104.118 Y149.262 E296.40543
G1 X102.73 Y148.127 E296.83574
G1 X101.442 Y146.918 E297.25971
G1 X98.317 Y143.779 E298.32275
G1 X96.169 Y140.378 E299.28815
G1 X95.186 Y138.674 E299.76028
G1 X94.318 Y136.859 E300.24313
G1 X93.629 Y135.097 E300.6972
G1 X93.019 Y133.119 E301.19398
G1 X93.022 Y122.711 E303.6919
G1 X93.12 Y120.515 E304.21946
G1 X93.397 Y118.367 E304.73925
G1 X93.841 Y116.299 E305.24688
G1 X94.474 Y114.206 E305.77167
G1 X95.294 Y112.142 E306.30469
G1 X95.846 Y110.911 E306.62848
G1 X96.584 Y109.074 E307.1036
G1 X97.152 Y107.233 E307.566
G1 X97.592 Y105.262 E308.05068
G1 X100.005 Y91.895 E311.31061
G1 X102.757 Y70.106 E316.58152
G1 X102.882 Y69.807 E316.65929
G0 F7200 X103.928 Y70.405
G1 F2100 X104.272 Y70.256 E316.74927
G1 X119.5 Y73.351 E320.47871
G1 X119.635 Y73.55 E320.53642
G1 X119.636 Y95.985 E325.92082
G1 X119.7 Y97.771 E326.34974
G1 X119.887 Y99.533 E326.77499
G1 X120.19 Y101.249 E327.1932
G1 X120.634 Y103.006 E327.62814
G1 X121.191 Y104.7 E328.05611
G1 X121.861 Y106.34 E328.48129
G1 X123.166 Y109.241 E329.24473
G1 X123.675 Y110.308 E329.52846
G1 X124.345 Y111.555 E329.8682
G1 X127.89 Y117.373 E331.50331
G1 X129.059 Y119.204 E332.02467
G1 X130.895 Y121.987 E332.82485
G1 X131.748 Y123.301 E333.20083
G1 X132.286 Y124.212 E333.45475
G1 X132.749 Y125.139 E333.70344
G1 X133.133 Y126.044 E333.93938
G1 X133.502 Y127.119 E334.21215
G1 X133.763 Y128.078 E334.45069
G1 X133.997 Y129.26 E334.73987
G1 X134.139 Y130.489 E335.03679
G1 X134.184 Y131.714 E335.33099
G1 X133.976 Y133.061 E335.6581
G1 X133.683 Y134.449 E335.99857
G1 X133.307 Y135.83 E336.34207
G1 X132.163 Y139.6 E337.28761
G1 X131.722 Y140.858 E337.60754
G1 X131.178 Y142.065 E337.92529
G1 X130.83 Y142.764 E338.11269
G1 X130.236 Y143.841 E338.40787
G1 X129.57 Y144.856 E338.69923
G1 X128.799 Y145.851 E339.00133
G1 X127.878 Y146.947 E339.34492
G1 X126.889 Y148.015 E339.69426
G1 X125.699 Y149.08 E340.07753
G1 X124.617 Y149.894 E340.40249
G1 X123.455 Y150.621 E340.73146
G1 X122.267 Y151.231 E341.05197
G1 X120.97 Y151.731 E341.38558
G1 X119.575 Y152.132 E341.73393
G1 X118.236 Y152.452 E342.06434
G1 X114.002 Y152.028 E343.08559
